;FLAVOR:Marlin
;TIME:5749
;Filament used: 3.98987m
;Layer height: 0.2
;MINX:79.346
;MINY:79.355
;MINZ:0.2
;MAXX:155.647
;MAXY:155.647
;MAXZ:10
;Generated with Cura_SteamEngine 4.13.1
M140 S60
M105
M190 S60
M104 S210
M105
M109 S210
M82 ;absolute extrusion mode
; Ender 3 Custom Start G-code
G92 E0 ; Reset Extruder
G28 ; Home all axes
G1 Z2.0 F3000 ; Move Z Axis up little to prevent scratching of Heat Bed
G1 X0.1 Y20 Z0.3 F5000.0 ; Move to start position
G1 X0.1 Y200.0 Z0.3 F1500.0 E15 ; Draw the first line
G1 X0.4 Y200.0 Z0.3 F5000.0 ; Move to side a little
G1 X0.4 Y20 Z0.3 F1500.0 E30 ; Draw the second line
G92 E0 ; Reset Extruder
G1 Z2.0 F3000 ; Move Z Axis up little to prevent scratching of Heat Bed
G1 X5 Y20 Z0.3 F5000.0 ; Move over to prevent blob squish
G92 E0
G92 E0
G1 F2700 E-5
;LAYER_COUNT:50
;LAYER:0
M107
G0 F6000 X89.936 Y91.094 Z0.2
;TYPE:SKIRT
G1 F2700 E0
G1 F1200 X90.289 Y90.776 E0.01896
G1 X92.132 Y89.187 E0.11609
G1 X93.841 Y87.62 E0.20863
G1 X94.322 Y87.19 E0.23438
G1 X95.305 Y86.406 E0.28456
G1 X95.832 Y86.032 E0.31036
G1 X96.122 Y85.834 E0.32437
G1 X96.547 Y85.552 E0.34473
G1 X97.608 Y84.928 E0.39386
G1 X97.933 Y84.762 E0.40842
G1 X99.977 Y83.75 E0.49945
G1 X102.079 Y82.629 E0.59453
G1 X102.585 Y82.367 E0.61728
G1 X103.726 Y81.855 E0.66719
G1 X104.313 Y81.63 E0.69228
G1 X104.634 Y81.512 E0.70593
G1 X105.133 Y81.338 E0.72702
G1 X106.269 Y81.009 E0.77423
G1 X106.647 Y80.923 E0.7897
G1 X108.895 Y80.448 E0.8814
G1 X111.278 Y79.868 E0.97929
G1 X111.766 Y79.755 E0.99928
G1 X113.037 Y79.537 E1.05075
G1 X113.666 Y79.466 E1.07601
G1 X113.98 Y79.435 E1.08861
G1 X114.513 Y79.39 E1.10996
G1 X115.798 Y79.355 E1.16126
G1 X116.096 Y79.365 E1.17316
G1 X118.441 Y79.465 E1.26684
G1 X120.807 Y79.495 E1.36128
G1 X121.344 Y79.508 E1.38272
G1 X122.599 Y79.609 E1.43297
G1 X123.188 Y79.69 E1.4567
G1 X123.529 Y79.743 E1.47048
G1 X124.079 Y79.836 E1.49274
G1 X125.451 Y80.158 E1.54899
G1 X127.869 Y80.889 E1.64981
G1 X130.246 Y81.531 E1.74808
G1 X130.637 Y81.641 E1.76429
G1 X131.85 Y82.058 E1.81548
G1 X132.409 Y82.287 E1.8396
G1 X132.71 Y82.415 E1.85265
G1 X133.221 Y82.642 E1.87497
G1 X134.384 Y83.243 E1.92722
G1 X134.672 Y83.414 E1.94058
G1 X136.599 Y84.583 E2.03054
G1 X138.642 Y85.74 E2.12425
G1 X139.128 Y86.022 E2.14668
G1 X140.207 Y86.734 E2.19827
G1 X140.716 Y87.114 E2.22362
G1 X140.967 Y87.307 E2.23626
G1 X141.394 Y87.645 E2.258
G1 X142.386 Y88.531 E2.31108
G1 X142.624 Y88.771 E2.32457
G1 X144.118 Y90.302 E2.40995
G1 X145.939 Y92.057 E2.51089
G1 X146.281 Y92.394 E2.53005
G1 X147.132 Y93.333 E2.58063
G1 X147.519 Y93.812 E2.60521
G1 X147.727 Y94.078 E2.61869
G1 X148.055 Y94.51 E2.64034
G1 X148.75 Y95.539 E2.6899
G1 X148.93 Y95.844 E2.70403
G1 X150.093 Y97.862 E2.79699
G1 X151.385 Y99.954 E2.89513
G1 X151.595 Y100.301 E2.91132
G1 X152.207 Y101.46 E2.96363
G1 X152.466 Y102.029 E2.98858
G1 X152.607 Y102.353 E3.00268
G1 X152.82 Y102.863 E3.02474
G1 X153.228 Y104.012 E3.07341
G1 X153.327 Y104.354 E3.08762
G1 X153.929 Y106.523 E3.17746
G1 X154.65 Y108.838 E3.27423
G1 X154.806 Y109.364 E3.29613
G1 X155.09 Y110.56 E3.34519
G1 X155.197 Y111.153 E3.36924
G1 X155.257 Y111.523 E3.3842
G1 X155.34 Y112.091 E3.40711
G1 X155.451 Y113.316 E3.45621
G1 X155.461 Y113.638 E3.46907
G1 X155.504 Y115.883 E3.55868
G1 X155.618 Y118.125 E3.64828
G1 X155.647 Y118.847 E3.67712
G1 X155.625 Y120.128 E3.72826
G1 X155.578 Y120.759 E3.75351
G1 X155.546 Y121.117 E3.76786
G1 X155.488 Y121.66 E3.78965
G1 X155.293 Y122.862 E3.83825
G1 X155.212 Y123.222 E3.85298
G1 X154.686 Y125.455 E3.94455
G1 X154.208 Y127.802 E4.04014
G1 X154.099 Y128.306 E4.06072
G1 X153.761 Y129.53 E4.1114
G1 X153.564 Y130.112 E4.13593
G1 X153.455 Y130.419 E4.14893
G1 X153.259 Y130.947 E4.17141
G1 X152.748 Y132.115 E4.22229
G1 X152.608 Y132.388 E4.23454
G1 X151.537 Y134.432 E4.32664
G1 X150.471 Y136.625 E4.42396
G1 X150.253 Y137.06 E4.44338
G1 X149.626 Y138.153 E4.49367
G1 X149.279 Y138.686 E4.51906
G1 X149.092 Y138.964 E4.53243
G1 X148.801 Y139.383 E4.55279
G1 X148.117 Y140.27 E4.59749
G1 X147.982 Y140.428 E4.60579
G1 X147.776 Y140.662 E4.61823
G1 X146.301 Y142.294 E4.70603
G1 X144.698 Y144.182 E4.80488
G1 X144.35 Y144.582 E4.82604
G1 X143.48 Y145.476 E4.87583
G1 X143.021 Y145.898 E4.90072
G1 X142.757 Y146.134 E4.91485
G1 X142.342 Y146.492 E4.93672
G1 X141.339 Y147.262 E4.98719
G1 X141.061 Y147.451 E5.00061
G1 X139.205 Y148.68 E5.08945
G1 X137.181 Y150.111 E5.18839
G1 X136.745 Y150.411 E5.20951
G1 X135.68 Y151.059 E5.25927
G1 X135.138 Y151.349 E5.2838
G1 X134.855 Y151.496 E5.29653
G1 X134.36 Y151.743 E5.31861
G1 X133.496 Y152.129 E5.35638
G1 X133.041 Y152.298 E5.37575
G1 X130.613 Y153.143 E5.47836
G1 X128.403 Y153.987 E5.57278
G1 X127.96 Y154.15 E5.59162
G1 X126.747 Y154.52 E5.64223
G1 X126.161 Y154.663 E5.66631
G1 X125.828 Y154.739 E5.67994
G1 X125.29 Y154.853 E5.70189
G1 X124.125 Y155.036 E5.74896
G1 X123.71 Y155.077 E5.7656
G1 X121.436 Y155.265 E5.85667
G1 X119.105 Y155.53 E5.95031
G1 X118.503 Y155.591 E5.97446
G1 X117.232 Y155.647 E6.02523
G1 X116.613 Y155.639 E6.04994
G1 X116.288 Y155.63 E6.06292
G1 X115.74 Y155.607 E6.08481
G1 X114.468 Y155.481 E6.13583
G1 X114.081 Y155.419 E6.15147
G1 X111.977 Y155.058 E6.23667
G1 X109.507 Y154.715 E6.3362
G1 X108.999 Y154.638 E6.35671
G1 X107.761 Y154.378 E6.4072
G1 X107.164 Y154.217 E6.43188
G1 X106.851 Y154.127 E6.44487
G1 X106.323 Y153.968 E6.46688
G1 X105.132 Y153.535 E6.51746
G1 X104.825 Y153.402 E6.53082
G1 X102.7 Y152.454 E6.62369
G1 X100.508 Y151.554 E6.71826
G1 X100.05 Y151.361 E6.7381
G1 X98.868 Y150.779 E6.79068
G1 X98.331 Y150.474 E6.81533
G1 X98.055 Y150.312 E6.8281
G1 X97.585 Y150.027 E6.85004
G1 X96.526 Y149.299 E6.90133
G1 X96.239 Y149.075 E6.91586
G1 X94.512 Y147.702 E7.00392
G1 X92.512 Y146.209 E7.10353
G1 X92.142 Y145.926 E7.12213
G1 X91.189 Y145.108 E7.17225
G1 X90.736 Y144.673 E7.19732
G1 X90.499 Y144.439 E7.21061
G1 X90.132 Y144.065 E7.23153
G1 X89.334 Y143.159 E7.27971
G1 X89.083 Y142.838 E7.29598
G1 X87.671 Y140.974 E7.38931
G1 X86.153 Y139.093 E7.48578
G1 X85.855 Y138.713 E7.50505
G1 X85.137 Y137.685 E7.5551
G1 X84.8 Y137.139 E7.58071
G1 X84.616 Y136.829 E7.5951
G1 X84.351 Y136.367 E7.61635
G1 X83.812 Y135.299 E7.6641
G1 X83.649 Y134.925 E7.68039
G1 X82.778 Y132.847 E7.77031
G1 X81.771 Y130.633 E7.86739
G1 X81.573 Y130.186 E7.8869
G1 X81.114 Y128.961 E7.93911
G1 X80.937 Y128.389 E7.96301
G1 X80.846 Y128.081 E7.97583
G1 X80.701 Y127.56 E7.99742
G1 X80.508 Y126.754 E8.03049
G1 X80.426 Y126.304 E8.04875
G1 X80.366 Y125.926 E8.06403
G1 X80.047 Y123.749 E8.15184
G1 X79.626 Y121.375 E8.24807
G1 X79.539 Y120.852 E8.26923
G1 X79.402 Y119.6 E8.3195
G1 X79.37 Y118.989 E8.34392
G1 X79.357 Y118.624 E8.3585
G1 X79.346 Y118.067 E8.38073
G1 X79.389 Y116.841 E8.4297
G1 X79.427 Y116.432 E8.44609
G1 X79.667 Y114.173 E8.53676
G1 X79.842 Y111.853 E8.62962
G1 X79.889 Y111.304 E8.65161
G1 X80.071 Y110.036 E8.70274
G1 X80.2 Y109.399 E8.72868
G1 X80.282 Y109.028 E8.74384
G1 X80.402 Y108.524 E8.76452
G1 X80.76 Y107.321 E8.81462
G1 X80.874 Y107.006 E8.82799
G1 X81.678 Y104.85 E8.91983
G1 X82.451 Y102.566 E9.01606
G1 X82.598 Y102.145 E9.03386
G1 X83.105 Y100.929 E9.08645
G1 X83.378 Y100.369 E9.11131
G1 X83.527 Y100.073 E9.12454
G1 X83.782 Y99.587 E9.14644
G1 X84.42 Y98.521 E9.19603
G1 X84.637 Y98.201 E9.21146
G1 X85.884 Y96.412 E9.29849
G1 X87.21 Y94.379 E9.39537
G1 X87.519 Y93.917 E9.41755
G1 X88.293 Y92.894 E9.46875
G1 X88.682 Y92.436 E9.49274
G1 X88.89 Y92.197 E9.50538
G1 X89.274 Y91.77 E9.5283
G1 X89.936 Y91.094 E9.56607
G0 F6000 X90.602 Y91.14
G1 F1200 X92.447 Y89.55 E9.66328
G1 X94.161 Y87.978 E9.7561
G1 X94.642 Y87.548 E9.78185
G1 X95.583 Y86.798 E9.82988
G1 X96.11 Y86.424 E9.85567
G1 X96.387 Y86.234 E9.86908
G1 X96.812 Y85.952 E9.88943
G1 X97.828 Y85.355 E9.93647
G1 X98.146 Y85.193 E9.95071
G1 X100.188 Y84.182 E10.04165
G1 X102.3 Y83.055 E10.1372
G1 X102.806 Y82.793 E10.15994
G1 X103.898 Y82.303 E10.20771
G1 X104.485 Y82.078 E10.2328
G1 X104.792 Y81.966 E10.24585
G1 X105.291 Y81.792 E10.26694
G1 X106.378 Y81.476 E10.31212
G1 X106.746 Y81.392 E10.32718
G1 X109.045 Y80.906 E10.42097
G1 X111.387 Y80.335 E10.51718
G1 X111.875 Y80.222 E10.53717
G1 X113.091 Y80.014 E10.58641
G1 X113.72 Y79.943 E10.61168
G1 X114.02 Y79.913 E10.62371
G1 X114.553 Y79.868 E10.64506
G1 X115.784 Y79.835 E10.69421
G1 X116.076 Y79.845 E10.70587
G1 X118.415 Y79.945 E10.79931
G1 X120.795 Y79.975 E10.89431
G1 X121.332 Y79.988 E10.91575
G1 X122.533 Y80.085 E10.96384
G1 X123.122 Y80.166 E10.98757
G1 X123.449 Y80.216 E11.00077
G1 X123.999 Y80.309 E11.02303
G1 X125.312 Y80.617 E11.07686
G1 X127.737 Y81.35 E11.17797
G1 X130.116 Y81.993 E11.27633
G1 X130.507 Y82.103 E11.29254
G1 X131.668 Y82.502 E11.34154
G1 X132.227 Y82.731 E11.36565
G1 X132.515 Y82.854 E11.37815
G1 X133.026 Y83.081 E11.40047
G1 X134.139 Y83.656 E11.45047
G1 X134.423 Y83.825 E11.46366
G1 X136.342 Y84.989 E11.55324
G1 X138.401 Y86.155 E11.64768
G1 X138.887 Y86.437 E11.6701
G1 X139.92 Y87.119 E11.71951
G1 X140.429 Y87.499 E11.74486
G1 X140.669 Y87.684 E11.75696
G1 X141.096 Y88.022 E11.77869
G1 X142.046 Y88.87 E11.82952
G1 X142.281 Y89.107 E11.84284
G1 X143.765 Y90.627 E11.92762
G1 X145.602 Y92.399 E12.02949
G1 X145.944 Y92.736 E12.04866
G1 X146.759 Y93.635 E12.09709
G1 X147.146 Y94.114 E12.12167
G1 X147.345 Y94.369 E12.13458
G1 X147.673 Y94.801 E12.15622
G1 X148.338 Y95.785 E12.20363
G1 X148.515 Y96.083 E12.21746
G1 X149.693 Y98.126 E12.31158
G1 X150.974 Y100.203 E12.40898
G1 X151.184 Y100.55 E12.42517
G1 X151.77 Y101.659 E12.47523
G1 X152.029 Y102.228 E12.50018
G1 X152.164 Y102.538 E12.51368
G1 X152.377 Y103.048 E12.53574
G1 X152.768 Y104.148 E12.58233
G1 X152.865 Y104.483 E12.59625
G1 X153.479 Y106.692 E12.68776
G1 X154.19 Y108.975 E12.78319
G1 X154.346 Y109.501 E12.80509
G1 X154.618 Y110.645 E12.85202
G1 X154.725 Y111.238 E12.87607
G1 X154.782 Y111.592 E12.89039
G1 X154.865 Y112.16 E12.9133
G1 X154.971 Y113.333 E12.9603
G1 X154.981 Y113.647 E12.97284
G1 X155.024 Y115.885 E13.06218
G1 X155.138 Y118.144 E13.15246
G1 X155.167 Y118.866 E13.1813
G1 X155.146 Y120.092 E13.23024
G1 X155.099 Y120.723 E13.25549
G1 X155.068 Y121.066 E13.26924
G1 X155.01 Y121.609 E13.29103
G1 X154.824 Y122.759 E13.33753
G1 X154.745 Y123.112 E13.35197
G1 X154.218 Y125.349 E13.44369
G1 X153.739 Y127.701 E13.5395
G1 X153.63 Y128.205 E13.56008
G1 X153.306 Y129.376 E13.60857
G1 X153.109 Y129.958 E13.63309
G1 X153.005 Y130.252 E13.64554
G1 X152.809 Y130.78 E13.66802
G1 X152.32 Y131.898 E13.71672
G1 X152.183 Y132.165 E13.7287
G1 X151.109 Y134.214 E13.82103
G1 X150.042 Y136.41 E13.91848
G1 X149.824 Y136.845 E13.9379
G1 X149.224 Y137.891 E13.98603
G1 X148.877 Y138.424 E14.01141
G1 X148.698 Y138.69 E14.02421
G1 X148.407 Y139.109 E14.04457
G1 X147.752 Y139.958 E14.08737
G1 X147.617 Y140.116 E14.09566
G1 X147.42 Y140.34 E14.10757
G1 X145.948 Y141.968 E14.19517
G1 X144.336 Y143.867 E14.29458
G1 X143.988 Y144.267 E14.31575
G1 X143.155 Y145.123 E14.36342
G1 X142.696 Y145.545 E14.3883
G1 X142.443 Y145.77 E14.40182
G1 X142.028 Y146.128 E14.42369
G1 X141.069 Y146.866 E14.47199
G1 X140.796 Y147.051 E14.48515
G1 X138.913 Y148.297 E14.57527
G1 X136.909 Y149.715 E14.67325
G1 X136.473 Y150.015 E14.69437
G1 X135.453 Y150.636 E14.74204
G1 X134.911 Y150.926 E14.76657
G1 X134.64 Y151.066 E14.77874
G1 X134.145 Y151.313 E14.80082
G1 X132.883 Y151.845 E14.85549
G1 X130.456 Y152.69 E14.95806
G1 X128.237 Y153.537 E15.05285
G1 X127.794 Y153.7 E15.07169
G1 X126.633 Y154.053 E15.12013
G1 X126.047 Y154.196 E15.1442
G1 X125.728 Y154.269 E15.15726
G1 X125.19 Y154.383 E15.17921
G1 X124.075 Y154.559 E15.22426
G1 X123.671 Y154.598 E15.24046
G1 X121.407 Y154.786 E15.33114
G1 X118.92 Y155.067 E15.43103
G1 X118.455 Y155.114 E15.44968
G1 X117.238 Y155.167 E15.4983
G1 X116.619 Y155.159 E15.52301
G1 X116.308 Y155.151 E15.53543
G1 X115.76 Y155.128 E15.55732
G1 X114.543 Y155.007 E15.60613
G1 X114.163 Y154.946 E15.62149
G1 X112.066 Y154.586 E15.70641
G1 X109.578 Y154.24 E15.80667
G1 X109.07 Y154.163 E15.82718
G1 X107.886 Y153.914 E15.87547
G1 X107.289 Y153.753 E15.90014
G1 X106.989 Y153.668 E15.91259
G1 X106.461 Y153.509 E15.9346
G1 X105.322 Y153.094 E15.98298
G1 X105.021 Y152.964 E15.99607
G1 X102.862 Y152 E16.09044
G1 X100.694 Y151.112 E16.18394
G1 X100.236 Y150.919 E16.20378
G1 X99.105 Y150.361 E16.25412
G1 X98.568 Y150.056 E16.27876
G1 X98.304 Y149.901 E16.29098
G1 X97.834 Y149.616 E16.31292
G1 X96.82 Y148.919 E16.36203
G1 X96.538 Y148.699 E16.37631
G1 X94.81 Y147.325 E16.46442
G1 X92.803 Y145.828 E16.56435
G1 X92.433 Y145.545 E16.58294
G1 X91.521 Y144.762 E16.63092
G1 X91.068 Y144.327 E16.65599
G1 X90.842 Y144.103 E16.66869
G1 X90.475 Y143.729 E16.6896
G1 X89.711 Y142.862 E16.73572
G1 X89.466 Y142.548 E16.75162
G1 X88.071 Y140.707 E16.84381
G1 X86.626 Y138.918 E16.93559
G1 X86.233 Y138.417 E16.96101
G1 X85.546 Y137.432 E17.00894
G1 X85.209 Y136.886 E17.03455
G1 X85.032 Y136.59 E17.04831
G1 X84.767 Y136.128 E17.06957
G1 X84.252 Y135.106 E17.11525
G1 X84.092 Y134.74 E17.13119
G1 X83.217 Y132.652 E17.22155
G1 X82.21 Y130.439 E17.31859
G1 X82.012 Y129.992 E17.3381
G1 X81.572 Y128.819 E17.3881
G1 X81.395 Y128.247 E17.412
G1 X81.309 Y127.952 E17.42426
G1 X81.164 Y127.431 E17.44585
G1 X80.979 Y126.659 E17.47753
G1 X80.9 Y126.227 E17.49506
G1 X80.841 Y125.857 E17.51001
G1 X80.519 Y123.659 E17.59868
G1 X80.099 Y121.296 E17.69447
G1 X80.012 Y120.773 E17.71563
G1 X79.882 Y119.575 E17.76372
G1 X79.85 Y118.964 E17.78814
G1 X79.837 Y118.615 E17.80208
G1 X79.826 Y118.058 E17.82432
G1 X79.867 Y116.884 E17.8712
G1 X79.905 Y116.482 E17.88732
G1 X80.141 Y114.257 E17.97662
G1 X80.32 Y111.894 E18.07121
G1 X80.367 Y111.345 E18.0932
G1 X80.541 Y110.131 E18.14215
G1 X80.67 Y109.494 E18.16809
G1 X80.749 Y109.139 E18.1826
G1 X80.869 Y108.635 E18.20328
G1 X81.212 Y107.483 E18.25125
G1 X81.324 Y107.174 E18.26437
G1 X82.12 Y105.039 E18.35531
G1 X82.904 Y102.724 E18.45286
G1 X83.051 Y102.303 E18.47066
G1 X83.536 Y101.139 E18.52099
G1 X83.809 Y100.579 E18.54586
G1 X83.952 Y100.296 E18.55851
G1 X84.207 Y99.81 E18.58042
G1 X84.818 Y98.789 E18.62791
G1 X85.031 Y98.475 E18.64305
G1 X86.281 Y96.682 E18.73029
G1 X87.609 Y94.646 E18.82731
G1 X87.918 Y94.184 E18.84949
G1 X88.658 Y93.204 E18.8985
G1 X89.047 Y92.746 E18.92249
G1 X89.247 Y92.518 E18.93459
G1 X89.631 Y92.091 E18.95751
G1 X90.602 Y91.14 E19.01176
G0 F6000 X90.916 Y91.503
G1 F1200 X92.764 Y89.91 E19.10914
G1 X94.481 Y88.336 E19.2021
G1 X94.962 Y87.906 E19.22785
G1 X95.861 Y87.189 E19.27375
G1 X96.388 Y86.815 E19.29954
G1 X96.652 Y86.633 E19.31234
G1 X97.077 Y86.351 E19.3327
G1 X98.048 Y85.782 E19.37762
G1 X98.359 Y85.623 E19.39156
G1 X100.4 Y84.613 E19.48245
G1 X102.405 Y83.542 E19.57317
G1 X103.027 Y83.22 E19.60112
G1 X104.07 Y82.751 E19.64677
G1 X104.657 Y82.526 E19.67186
G1 X104.95 Y82.419 E19.68431
G1 X105.449 Y82.245 E19.7054
G1 X106.487 Y81.943 E19.74855
G1 X106.846 Y81.862 E19.76324
G1 X109.127 Y81.38 E19.85629
G1 X111.495 Y80.803 E19.95356
G1 X111.983 Y80.69 E19.97356
G1 X113.144 Y80.491 E20.02057
G1 X113.773 Y80.42 E20.04583
G1 X114.061 Y80.391 E20.05739
G1 X114.594 Y80.346 E20.07874
G1 X115.769 Y80.315 E20.12565
G1 X116.055 Y80.324 E20.13707
G1 X118.421 Y80.425 E20.23159
G1 X120.784 Y80.455 E20.32591
G1 X121.321 Y80.468 E20.34735
G1 X122.468 Y80.56 E20.39327
G1 X123.057 Y80.641 E20.417
G1 X123.369 Y80.689 E20.4296
G1 X123.919 Y80.782 E20.45186
G1 X125.174 Y81.077 E20.50332
G1 X127.615 Y81.814 E20.60509
G1 X129.986 Y82.455 E20.70312
G1 X130.377 Y82.565 E20.71933
G1 X131.486 Y82.946 E20.76613
G1 X132.045 Y83.175 E20.79024
G1 X132.32 Y83.293 E20.80219
G1 X132.831 Y83.52 E20.8245
G1 X133.894 Y84.069 E20.87225
G1 X134.174 Y84.235 E20.88524
G1 X136.122 Y85.417 E20.97619
G1 X138.16 Y86.57 E21.06964
G1 X138.646 Y86.852 E21.09207
G1 X139.633 Y87.503 E21.13926
G1 X140.142 Y87.883 E21.16461
G1 X140.372 Y88.06 E21.1762
G1 X140.799 Y88.398 E21.19793
G1 X141.706 Y89.208 E21.24647
G1 X141.937 Y89.442 E21.25959
G1 X143.427 Y90.969 E21.34474
G1 X145.265 Y92.741 E21.44664
G1 X145.607 Y93.078 E21.4658
G1 X146.385 Y93.937 E21.51206
G1 X146.772 Y94.416 E21.53664
G1 X146.963 Y94.659 E21.54897
G1 X147.291 Y95.091 E21.57062
