;FLAVOR:Marlin
;TIME:2862
;Filament used: 2.22069m
;Layer height: 0.2
;MINX:48.812
;MINY:68.822
;MINZ:0.2
;MAXX:186.188
;MAXY:166.178
;MAXZ:1
;Generated with Cura_SteamEngine 4.13.1
M140 S60
M105
M190 S60
M104 S210
M105
M109 S210
M82 ;absolute extrusion mode
; Ender 3 Custom Start G-code
G92 E0 ; Reset Extruder
G28 ; Home all axes
G1 Z2.0 F3000 ; Move Z Axis up little to prevent scratching of Heat Bed
G1 X0.1 Y20 Z0.3 F5000.0 ; Move to start position
G1 X0.1 Y200.0 Z0.3 F1500.0 E15 ; Draw the first line
G1 X0.4 Y200.0 Z0.3 F5000.0 ; Move to side a little
G1 X0.4 Y20 Z0.3 F1500.0 E30 ; Draw the second line
G92 E0 ; Reset Extruder
G1 Z2.0 F3000 ; Move Z Axis up little to prevent scratching of Heat Bed
G1 X5 Y20 Z0.3 F5000.0 ; Move over to prevent blob squish
G92 E0
G92 E0
G1 F2700 E-5
;LAYER_COUNT:5
;LAYER:0
M107
G0 F6000 X59.592 Y75.091 Z0.2
;TYPE:SKIRT
G1 F2700 E0
G1 F1200 X60.046 Y74.732 E0.0231
G1 X60.29 Y74.549 E0.03527
G1 X60.528 Y74.375 E0.04704
G1 X60.815 Y74.173 E0.06105
G1 X61.402 Y73.767 E0.08953
G1 X61.994 Y73.367 E0.11805
G1 X62.562 Y73.007 E0.14489
G1 X62.846 Y72.839 E0.15806
G1 X63.119 Y72.683 E0.17061
G1 X63.88 Y72.262 E0.20532
G1 X64.47 Y71.944 E0.23207
G1 X65.077 Y71.64 E0.25917
G1 X65.362 Y71.508 E0.2717
G1 X65.64 Y71.384 E0.28385
G1 X66.537 Y70.999 E0.32281
G1 X67.122 Y70.758 E0.34806
G1 X67.655 Y70.554 E0.37084
G1 X67.969 Y70.443 E0.38413
G1 X68.336 Y70.321 E0.39957
G1 X69.069 Y70.09 E0.43024
G1 X69.965 Y69.823 E0.46756
G1 X70.622 Y69.649 E0.49469
G1 X70.972 Y69.568 E0.50902
G1 X71.243 Y69.509 E0.52009
G1 X72.013 Y69.352 E0.55146
G1 X72.737 Y69.213 E0.58088
G1 X73.436 Y69.101 E0.60914
G1 X73.845 Y69.049 E0.62559
G1 X74.129 Y69.017 E0.637
G1 X74.88 Y68.942 E0.66712
G1 X75.624 Y68.876 E0.69693
G1 X76.301 Y68.836 E0.724
G1 X76.587 Y68.828 E0.73542
G1 X77.085 Y68.822 E0.7553
G1 X77.679 Y68.822 E0.77901
G1 X78.537 Y68.833 E0.81325
G1 X79.149 Y68.859 E0.8377
G1 X79.453 Y68.88 E0.84986
G1 X79.806 Y68.91 E0.864
G1 X80.707 Y69.002 E0.90015
G1 X81.43 Y69.086 E0.9292
G1 X82.042 Y69.174 E0.95388
G1 X84.719 Y69.603 E1.06209
G1 X87.198 Y69.927 E1.16187
G1 X89.678 Y70.18 E1.26137
G1 X92.196 Y70.366 E1.36214
G1 X94.741 Y70.481 E1.46382
G1 X97.219 Y70.523 E1.56274
G1 X99.73 Y70.495 E1.66296
G1 X102.242 Y70.395 E1.7633
G1 X104.744 Y70.225 E1.86339
G1 X107.259 Y69.982 E1.96424
G1 X109.742 Y69.671 E2.06412
G1 X111.733 Y69.366 E2.14451
G1 X111.83 Y69.355 E2.1484
G1 X113.044 Y69.159 E2.19748
G1 X113.4 Y69.107 E2.21184
G1 X113.827 Y69.052 E2.22903
G1 X114.129 Y69.017 E2.24116
G1 X114.88 Y68.942 E2.27128
G1 X115.624 Y68.876 E2.3011
G1 X116.301 Y68.836 E2.32816
G1 X116.587 Y68.828 E2.33958
G1 X117.085 Y68.822 E2.35946
G1 X117.84 Y68.823 E2.38959
G1 X118.537 Y68.833 E2.41742
G1 X119.145 Y68.858 E2.4417
G1 X119.45 Y68.879 E2.4539
G1 X119.806 Y68.91 E2.46817
G1 X120.707 Y69.002 E2.50432
G1 X121.43 Y69.086 E2.53337
G1 X122.042 Y69.174 E2.55804
G1 X124.719 Y69.603 E2.66625
G1 X127.198 Y69.927 E2.76604
G1 X129.678 Y70.18 E2.86553
G1 X132.196 Y70.366 E2.9663
G1 X134.741 Y70.481 E3.06798
G1 X137.219 Y70.523 E3.1669
G1 X139.73 Y70.495 E3.26713
G1 X142.242 Y70.395 E3.36746
G1 X144.744 Y70.225 E3.46756
G1 X147.259 Y69.982 E3.5684
G1 X149.742 Y69.671 E3.66828
G1 X151.733 Y69.366 E3.74867
G1 X151.83 Y69.355 E3.75257
G1 X153.044 Y69.159 E3.80165
G1 X153.4 Y69.107 E3.81601
G1 X153.827 Y69.052 E3.83319
G1 X154.129 Y69.017 E3.84532
G1 X154.88 Y68.942 E3.87545
G1 X155.624 Y68.876 E3.90526
G1 X156.301 Y68.836 E3.93233
G1 X156.587 Y68.828 E3.94375
G1 X157.085 Y68.822 E3.96362
G1 X157.84 Y68.823 E3.99376
G1 X158.537 Y68.833 E4.02158
G1 X159.145 Y68.858 E4.04587
G1 X159.45 Y68.879 E4.05807
G1 X159.806 Y68.91 E4.07233
G1 X160.712 Y69.002 E4.10868
G1 X161.449 Y69.088 E4.13829
G1 X162.06 Y69.177 E4.16294
G1 X162.542 Y69.262 E4.18247
G1 X162.891 Y69.331 E4.19667
G1 X163.598 Y69.478 E4.22549
G1 X164.299 Y69.632 E4.25414
G1 X164.95 Y69.796 E4.28093
G1 X165.479 Y69.949 E4.30291
G1 X166.437 Y70.249 E4.34298
G1 X167.048 Y70.45 E4.36865
G1 X167.615 Y70.654 E4.3927
G1 X167.928 Y70.776 E4.40611
G1 X168.269 Y70.915 E4.4208
G1 X169.1 Y71.272 E4.4569
G1 X169.77 Y71.571 E4.48618
G1 X170.333 Y71.841 E4.51111
G1 X170.568 Y71.962 E4.52166
G1 X170.856 Y72.116 E4.53469
G1 X171.686 Y72.576 E4.57256
G1 X172.336 Y72.95 E4.6025
G1 X172.883 Y73.286 E4.62812
G1 X173.21 Y73.5 E4.64372
G1 X173.467 Y73.674 E4.6561
G1 X174.173 Y74.166 E4.69045
G1 X174.738 Y74.572 E4.71822
G1 X175.282 Y74.989 E4.74557
G1 X175.586 Y75.237 E4.76123
G1 X175.796 Y75.413 E4.77217
G1 X176.433 Y75.96 E4.80568
G1 X176.98 Y76.444 E4.83483
G1 X177.411 Y76.847 E4.85838
G1 X177.592 Y77.025 E4.86851
G1 X177.84 Y77.276 E4.8826
G1 X178.509 Y77.978 E4.9213
G1 X178.989 Y78.497 E4.94952
G1 X179.415 Y78.986 E4.9754
G1 X179.61 Y79.223 E4.98765
G1 X179.805 Y79.467 E5.00012
G1 X180.374 Y80.202 E5.03721
G1 X180.821 Y80.798 E5.06695
G1 X181.18 Y81.305 E5.09174
G1 X181.356 Y81.569 E5.10441
G1 X181.539 Y81.853 E5.11789
G1 X182.039 Y82.657 E5.15568
G1 X182.379 Y83.221 E5.18197
G1 X182.702 Y83.794 E5.20822
G1 X182.878 Y84.129 E5.22332
G1 X183.013 Y84.394 E5.23519
G1 X183.32 Y85.018 E5.26295
G1 X183.701 Y85.825 E5.29857
G1 X183.946 Y86.383 E5.32289
G1 X184.084 Y86.723 E5.33753
G1 X184.208 Y87.042 E5.35119
G1 X184.515 Y87.875 E5.38663
G1 X184.747 Y88.532 E5.41444
G1 X184.936 Y89.119 E5.43905
G1 X185.019 Y89.403 E5.45086
G1 X185.106 Y89.717 E5.46386
G1 X185.341 Y90.622 E5.50118
G1 X185.512 Y91.324 E5.53002
G1 X185.639 Y91.916 E5.55419
G1 X185.691 Y92.194 E5.56547
G1 X185.749 Y92.532 E5.57916
G1 X185.893 Y93.465 E5.61684
G1 X185.993 Y94.182 E5.64573
G1 X186.063 Y94.818 E5.67127
G1 X186.09 Y95.149 E5.68453
G1 X186.112 Y95.49 E5.69816
G1 X186.159 Y96.427 E5.73561
G1 X186.183 Y97.102 E5.76257
G1 X186.188 Y97.696 E5.78628
G1 X186.183 Y97.981 E5.79765
G1 X186.171 Y98.351 E5.81243
G1 X186.131 Y99.142 E5.84404
G1 X186.074 Y100.011 E5.8788
G1 X186.013 Y100.659 E5.90477
G1 X185.963 Y101.059 E5.92086
G1 X185.919 Y101.371 E5.93344
G1 X185.795 Y102.173 E5.96583
G1 X185.699 Y102.75 E5.98917
G1 X185.302 Y105.349 E6.09411
G1 X184.997 Y107.823 E6.1936
G1 X184.756 Y110.357 E6.29519
G1 X184.591 Y112.829 E6.39408
G1 X184.495 Y115.365 E6.49537
G1 X184.471 Y117.85 E6.59455
G1 X184.517 Y120.361 E6.69479
G1 X184.636 Y122.905 E6.79644
G1 X184.821 Y125.37 E6.8951
G1 X185.082 Y127.887 E6.99609
G1 X185.413 Y130.384 E7.09663
G1 X185.614 Y131.695 E7.14956
G1 X185.792 Y132.8 E7.19423
G1 X185.893 Y133.467 E7.22116
G1 X185.993 Y134.185 E7.25009
G1 X186.063 Y134.817 E7.27547
G1 X186.09 Y135.147 E7.28869
G1 X186.112 Y135.49 E7.3024
G1 X186.159 Y136.427 E7.33985
G1 X186.183 Y137.102 E7.36681
G1 X186.188 Y137.696 E7.39051
G1 X186.183 Y137.981 E7.40189
G1 X186.171 Y138.351 E7.41667
G1 X186.131 Y139.142 E7.44828
G1 X186.074 Y140.011 E7.48304
G1 X186.013 Y140.655 E7.50885
G1 X185.967 Y141.024 E7.5237
G1 X185.925 Y141.329 E7.53598
G1 X185.804 Y142.113 E7.56765
G1 X185.681 Y142.855 E7.59766
G1 X185.546 Y143.537 E7.62541
G1 X185.467 Y143.88 E7.63946
G1 X185.394 Y144.178 E7.65171
G1 X185.167 Y145.05 E7.68767
G1 X184.995 Y145.677 E7.71362
G1 X184.805 Y146.298 E7.73954
G1 X184.677 Y146.677 E7.75551
G1 X184.571 Y146.977 E7.7682
G1 X184.297 Y147.715 E7.79962
G1 X184.025 Y148.421 E7.82982
G1 X183.76 Y149.051 E7.8571
G1 X183.6 Y149.401 E7.87246
G1 X183.467 Y149.682 E7.88487
G1 X183.096 Y150.435 E7.91837
G1 X182.78 Y151.058 E7.94625
G1 X182.447 Y151.666 E7.97392
G1 X182.276 Y151.957 E7.98739
G1 X182.123 Y152.211 E7.99923
G1 X181.725 Y152.849 E8.02924
G1 X181.258 Y153.573 E8.06362
G1 X180.911 Y154.081 E8.08818
G1 X180.709 Y154.359 E8.10189
G1 X180.502 Y154.634 E8.11563
G1 X179.971 Y155.318 E8.15019
G1 X179.542 Y155.857 E8.17769
G1 X179.148 Y156.325 E8.2021
G1 X178.971 Y156.524 E8.21273
G1 X178.565 Y156.964 E8.23663
G1 X178.044 Y157.511 E8.26678
G1 X177.549 Y158.015 E8.29497
G1 X177.147 Y158.404 E8.3173
G1 X176.893 Y158.638 E8.33109
G1 X176.602 Y158.896 E8.34661
G1 X175.881 Y159.514 E8.38451
G1 X175.354 Y159.952 E8.41186
G1 X174.866 Y160.336 E8.43664
G1 X174.5 Y160.605 E8.45477
G1 X174.254 Y160.779 E8.4668
G1 X173.593 Y161.237 E8.49889
G1 X173 Y161.637 E8.52744
G1 X172.45 Y161.986 E8.55344
G1 X172.165 Y162.155 E8.56667
G1 X171.879 Y162.318 E8.5798
G1 X171.141 Y162.727 E8.61348
G1 X170.535 Y163.054 E8.64096
G1 X169.926 Y163.359 E8.66815
G1 X169.652 Y163.486 E8.6802
G1 X169.374 Y163.61 E8.69235
G1 X168.463 Y164.001 E8.73192
G1 X167.878 Y164.242 E8.75717
G1 X167.345 Y164.446 E8.77995
G1 X167.031 Y164.557 E8.79324
G1 X166.664 Y164.679 E8.80868
G1 X165.931 Y164.91 E8.83935
G1 X165.035 Y165.177 E8.87667
G1 X164.378 Y165.351 E8.90379
G1 X164.028 Y165.432 E8.91813
G1 X163.757 Y165.491 E8.9292
G1 X162.987 Y165.648 E8.96057
G1 X162.263 Y165.787 E8.98999
G1 X161.564 Y165.899 E9.01824
G1 X161.155 Y165.951 E9.0347
G1 X160.871 Y165.983 E9.04611
G1 X160.12 Y166.058 E9.07623
G1 X159.376 Y166.124 E9.10604
G1 X158.699 Y166.164 E9.13311
G1 X158.413 Y166.172 E9.14453
G1 X157.915 Y166.178 E9.16441
G1 X157.16 Y166.177 E9.19454
G1 X156.463 Y166.167 E9.22236
G1 X155.855 Y166.142 E9.24665
G1 X155.55 Y166.121 E9.25885
G1 X155.194 Y166.09 E9.27311
G1 X154.293 Y165.998 E9.30926
G1 X153.57 Y165.914 E9.33831
G1 X152.958 Y165.826 E9.36299
G1 X150.281 Y165.397 E9.4712
G1 X147.802 Y165.073 E9.57098
G1 X145.322 Y164.82 E9.67048
G1 X142.804 Y164.634 E9.77125
G1 X140.259 Y164.519 E9.87293
G1 X137.781 Y164.477 E9.97185
G1 X135.27 Y164.505 E10.07207
G1 X132.758 Y164.605 E10.17241
G1 X130.256 Y164.775 E10.2725
G1 X127.741 Y165.018 E10.37335
G1 X125.258 Y165.329 E10.47322
G1 X123.267 Y165.634 E10.55362
G1 X123.17 Y165.645 E10.55751
G1 X121.956 Y165.841 E10.60659
G1 X121.6 Y165.893 E10.62095
G1 X121.173 Y165.948 E10.63813
G1 X120.871 Y165.983 E10.65027
G1 X120.12 Y166.058 E10.68039
G1 X119.376 Y166.124 E10.7102
G1 X118.699 Y166.164 E10.73727
G1 X118.413 Y166.172 E10.74869
G1 X117.915 Y166.178 E10.76857
G1 X117.16 Y166.177 E10.7987
G1 X116.463 Y166.167 E10.82652
G1 X115.855 Y166.142 E10.85081
G1 X115.55 Y166.121 E10.86301
G1 X115.194 Y166.09 E10.87728
G1 X114.293 Y165.998 E10.91342
G1 X113.57 Y165.914 E10.94247
G1 X112.958 Y165.826 E10.96715
G1 X110.281 Y165.397 E11.07536
G1 X107.802 Y165.073 E11.17514
G1 X105.322 Y164.82 E11.27464
G1 X102.804 Y164.634 E11.37541
G1 X100.259 Y164.519 E11.47709
G1 X97.781 Y164.477 E11.57601
G1 X95.27 Y164.505 E11.67623
G1 X92.758 Y164.605 E11.77657
G1 X90.256 Y164.775 E11.87666
G1 X87.741 Y165.018 E11.97751
G1 X85.258 Y165.329 E12.07739
G1 X83.267 Y165.634 E12.15778
G1 X83.17 Y165.645 E12.16167
G1 X81.956 Y165.841 E12.21075
G1 X81.6 Y165.893 E12.22511
G1 X81.173 Y165.948 E12.2423
G1 X80.871 Y165.983 E12.25443
G1 X80.12 Y166.058 E12.28456
G1 X79.376 Y166.124 E12.31437
G1 X78.699 Y166.164 E12.34143
G1 X78.413 Y166.172 E12.35285
G1 X77.915 Y166.178 E12.37273
G1 X77.16 Y166.177 E12.40286
G1 X76.463 Y166.167 E12.43069
G1 X75.855 Y166.142 E12.45497
G1 X75.55 Y166.121 E12.46718
G1 X75.194 Y166.09 E12.48144
G1 X74.288 Y165.998 E12.51778
G1 X73.551 Y165.912 E12.5474
G1 X72.94 Y165.823 E12.57204
G1 X72.458 Y165.738 E12.59158
G1 X72.109 Y165.669 E12.60578
G1 X71.402 Y165.522 E12.6346
G1 X70.701 Y165.368 E12.66324
G1 X70.05 Y165.204 E12.69004
G1 X69.796 Y165.132 E12.70058
G1 X69.516 Y165.049 E12.71223
G1 X68.546 Y164.746 E12.75279
G1 X67.953 Y164.551 E12.77771
G1 X67.385 Y164.346 E12.80181
G1 X67.072 Y164.224 E12.81521
G1 X66.731 Y164.085 E12.82991
G1 X65.9 Y163.728 E12.86601
G1 X65.23 Y163.429 E12.89529
G1 X64.66 Y163.155 E12.92054
G1 X64.406 Y163.024 E12.93194
G1 X64.119 Y162.871 E12.94492
G1 X63.316 Y162.425 E12.98158
G1 X62.664 Y162.05 E13.0116
G1 X62.109 Y161.708 E13.03762
G1 X61.784 Y161.495 E13.05313
G1 X61.533 Y161.326 E13.06521
G1 X60.846 Y160.847 E13.09864
G1 X60.28 Y160.442 E13.12641
G1 X59.743 Y160.034 E13.15333
G1 X59.484 Y159.824 E13.16664
G1 X59.245 Y159.624 E13.17908
G1 X58.566 Y159.04 E13.21482
G1 X58.018 Y158.555 E13.24403
G1 X57.565 Y158.131 E13.26879
G1 X57.382 Y157.95 E13.27907
G1 X57.156 Y157.72 E13.29194
G1 X56.492 Y157.022 E13.33039
G1 X56.011 Y156.502 E13.35866
G1 X55.573 Y155.999 E13.38528
G1 X55.267 Y155.625 E13.40457
G1 X55.094 Y155.405 E13.41574
G1 X54.633 Y154.808 E13.44584
G1 X54.185 Y154.212 E13.4756
G1 X53.789 Y153.65 E13.50304
G1 X53.599 Y153.362 E13.51681
G1 X53.446 Y153.123 E13.52814
G1 X52.961 Y152.343 E13.5648
G1 X52.621 Y151.779 E13.59108
G1 X52.315 Y151.239 E13.61585
G1 X52.163 Y150.952 E13.62882
G1 X52.014 Y150.659 E13.64193
G1 X51.597 Y149.81 E13.67969
G1 X51.297 Y149.173 E13.70779
G1 X51.045 Y148.596 E13.73292
G1 X50.902 Y148.242 E13.74816
G1 X50.782 Y147.93 E13.7615
G1 X50.488 Y147.133 E13.7954
G1 X50.254 Y146.472 E13.82339
G1 X50.057 Y145.861 E13.84901
G1 X49.975 Y145.579 E13.86073
G1 X49.841 Y145.088 E13.88105
G1 X49.66 Y144.383 E13.9101
G1 X49.488 Y143.678 E13.93906
G1 X49.355 Y143.058 E13.96437
G1 X49.304 Y142.782 E13.97557
G1 X49.251 Y142.468 E13.98828
G1 X49.133 Y141.709 E14.01894
G1 X49.005 Y140.793 E14.05585
G1 X48.933 Y140.134 E14.08231
G1 X48.905 Y139.777 E14.09661
G1 X48.886 Y139.472 E14.1088
G1 X48.841 Y138.563 E14.14513
G1 X48.817 Y137.869 E14.17284
G1 X48.812 Y137.272 E14.19667
G1 X48.817 Y137.006 E14.20729
G1 X48.829 Y136.651 E14.22147
G1 X48.879 Y135.684 E14.26011
G1 X48.925 Y134.989 E14.28791
G1 X48.99 Y134.323 E14.31462
G1 X49.042 Y133.912 E14.33116
G1 X49.082 Y133.62 E14.34292
G1 X49.205 Y132.827 E14.37495
G1 X49.301 Y132.25 E14.39829
G1 X49.698 Y129.65 E14.50327
G1 X50.003 Y127.177 E14.60272
G1 X50.244 Y124.643 E14.70431
G1 X50.409 Y122.172 E14.80315
G1 X50.505 Y119.636 E14.90444
G1 X50.529 Y117.151 E15.00363
G1 X50.483 Y114.639 E15.10391
G1 X50.366 Y112.128 E15.20424
G1 X50.176 Y109.596 E15.30558
G1 X49.918 Y107.112 E15.40525
G1 X49.585 Y104.602 E15.50631
G1 X49.397 Y103.376 E15.55581
G1 X49.208 Y102.2 E15.60335
G1 X49.105 Y101.521 E15.63076
G1 X49.004 Y100.79 E15.66022
G1 X48.933 Y100.133 E15.68659
G1 X48.905 Y99.776 E15.70088
G1 X48.886 Y99.471 E15.71308
G1 X48.841 Y98.563 E15.74936
G1 X48.817 Y97.87 E15.77704
G1 X48.812 Y97.272 E15.80091
G1 X48.817 Y97.006 E15.81153
G1 X48.829 Y96.651 E15.8257
G1 X48.879 Y95.684 E15.86435
G1 X48.925 Y94.989 E15.89215
G1 X48.983 Y94.376 E15.91673
G1 X49.025 Y94.031 E15.9306
G1 X49.072 Y93.686 E15.94449
G1 X49.197 Y92.878 E15.97713
G1 X49.323 Y92.122 E16.00772
G1 X49.448 Y91.487 E16.03355
G1 X49.504 Y91.24 E16.04366
G1 X49.582 Y90.92 E16.0568
G1 X49.833 Y89.95 E16.09679
G1 X50.005 Y89.323 E16.12274
G1 X50.19 Y88.716 E16.14807
G1 X50.305 Y88.374 E16.16247
G1 X50.414 Y88.067 E16.17547
G1 X50.708 Y87.272 E16.2093
G1 X50.975 Y86.579 E16.23894
G1 X51.24 Y85.948 E16.26626
G1 X51.406 Y85.585 E16.28219
G1 X51.542 Y85.3 E16.29479
G1 X51.904 Y84.565 E16.32749
G1 X52.22 Y83.942 E16.35537
G1 X52.523 Y83.384 E16.38072
G1 X52.667 Y83.136 E16.39216
G1 X52.848 Y82.837 E16.40611
G1 X53.374 Y81.994 E16.44577
G1 X53.746 Y81.419 E16.4731
G1 X54.103 Y80.901 E16.49821
G1 X54.319 Y80.605 E16.51284
G1 X54.511 Y80.349 E16.52561
G1 X55.027 Y79.684 E16.55921
G1 X55.455 Y79.146 E16.58664
G1 X55.854 Y78.673 E16.61134
G1 X56.032 Y78.473 E16.62203
G1 X56.206 Y78.282 E16.63234
G1 X56.437 Y78.034 E16.64587
G1 X56.824 Y77.626 E16.66831
G1 X57.451 Y76.986 E16.70407
G1 X57.853 Y76.596 E16.72643
G1 X58.107 Y76.362 E16.74021
G1 X58.398 Y76.104 E16.75573
G1 X59.104 Y75.498 E16.79287
G1 X59.592 Y75.091 E16.81823
G0 F6000 X59.9 Y75.459
G1 F1200 X60.334 Y75.116 E16.84031
G1 X60.578 Y74.933 E16.85248
G1 X60.806 Y74.767 E16.86374
G1 X61.088 Y74.567 E16.87754
G1 X61.67 Y74.165 E16.90577
G1 X62.262 Y73.765 E16.93428
G1 X62.806 Y73.42 E16.95999
G1 X63.09 Y73.252 E16.97316
G1 X63.352 Y73.103 E16.98519
G1 X64.108 Y72.684 E17.01969
G1 X64.698 Y72.366 E17.04644
G1 X65.279 Y72.076 E17.07236
G1 X65.564 Y71.944 E17.08489
G1 X65.83 Y71.825 E17.09652
G1 X66.72 Y71.443 E17.13518
G1 X67.305 Y71.202 E17.16043
G1 X67.815 Y71.007 E17.18222
G1 X68.129 Y70.896 E17.19552
G1 X68.48 Y70.779 E17.21028
G1 X69.389 Y70.494 E17.24831
G1 X70.101 Y70.283 E17.27794
G1 X70.73 Y70.117 E17.30391
G1 X71.08 Y70.036 E17.31825
G1 X71.34 Y69.979 E17.32887
G1 X72.104 Y69.823 E17.35999
G1 X72.828 Y69.684 E17.38942
G1 X73.497 Y69.578 E17.41645
