;FLAVOR:Marlin
;TIME:4305
;Filament used: 3.80917m
;Layer height: 0.2
;MINX:76.3
;MINY:81.4
;MINZ:0.2
;MAXX:158.134
;MAXY:153.034
;MAXZ:14.6
;Generated with Cura_SteamEngine 4.13.1
M140 S60
M105
M190 S60
M104 S210
M105
M109 S210
M82 ;absolute extrusion mode
; Ender 3 Custom Start G-code
G92 E0 ; Reset Extruder
G28 ; Home all axes
G1 Z2.0 F3000 ; Move Z Axis up little to prevent scratching of Heat Bed
G1 X0.1 Y20 Z0.3 F5000.0 ; Move to start position
G1 X0.1 Y200.0 Z0.3 F1500.0 E15 ; Draw the first line
G1 X0.4 Y200.0 Z0.3 F5000.0 ; Move to side a little
G1 X0.4 Y20 Z0.3 F1500.0 E30 ; Draw the second line
G92 E0 ; Reset Extruder
G1 Z2.0 F3000 ; Move Z Axis up little to prevent scratching of Heat Bed
G1 X5 Y20 Z0.3 F5000.0 ; Move over to prevent blob squish
G92 E0
G92 E0
G1 F2700 E-5
;LAYER_COUNT:73
;LAYER:0
M107
G0 F6000 X81.108 Y85.532 Z0.2
;TYPE:SKIRT
G1 F2700 E0
G1 F1200 X81.814 Y84.901 E0.03779
G1 X82.344 Y84.493 E0.06449
G1 X82.715 Y84.224 E0.08278
G1 X82.999 Y84.024 E0.09664
G1 X83.192 Y83.893 E0.10595
G1 X83.997 Y83.395 E0.14373
G1 X84.567 Y83.096 E0.16942
G1 X84.997 Y82.886 E0.18852
G1 X85.294 Y82.747 E0.20161
G1 X85.484 Y82.661 E0.20993
G1 X86.361 Y82.307 E0.24768
G1 X87.037 Y82.092 E0.27599
G1 X87.515 Y81.956 E0.29583
G1 X87.851 Y81.865 E0.30972
G1 X88.058 Y81.813 E0.31824
G1 X88.985 Y81.622 E0.35602
G1 X89.623 Y81.537 E0.3817
G1 X90.044 Y81.493 E0.3986
G1 X90.378 Y81.463 E0.41198
G1 X90.647 Y81.443 E0.42275
G1 X91.309 Y81.413 E0.4492
G1 X92.276 Y81.4 E0.4878
G1 X145.562 Y81.4 E2.61456
G1 X145.773 Y81.402 E2.62298
G1 X146.835 Y81.422 E2.66537
G1 X147.779 Y81.48 E2.70312
G1 X148.716 Y81.617 E2.74092
G1 X149.317 Y81.749 E2.76547
G1 X149.539 Y81.804 E2.7746
G1 X150.448 Y82.07 E2.8124
G1 X151.49 Y82.483 E2.85714
G1 X151.569 Y82.519 E2.86061
G1 X152.413 Y82.948 E2.89839
G1 X153.218 Y83.446 E2.93617
G1 X153.977 Y84.01 E2.97392
G1 X154.687 Y84.637 E3.01172
G1 X155.341 Y85.321 E3.04949
G1 X155.935 Y86.058 E3.08727
G1 X156.464 Y86.842 E3.12502
G1 X156.926 Y87.668 E3.16279
G1 X157.316 Y88.53 E3.20056
G1 X157.631 Y89.423 E3.23835
G1 X157.871 Y90.338 E3.2761
G1 X158.032 Y91.271 E3.31389
G1 X158.124 Y92.555 E3.36527
G1 X158.134 Y93.361 E3.39744
G1 X158.132 Y96.976 E3.54173
G1 X158.122 Y97.658 E3.56895
G1 X158.068 Y98.603 E3.60673
G1 X157.935 Y99.54 E3.6445
G1 X157.723 Y100.462 E3.68226
G1 X157.433 Y101.363 E3.72004
G1 X157.069 Y102.237 E3.75782
G1 X156.633 Y103.076 E3.79556
G1 X156.127 Y103.876 E3.83334
G1 X155.555 Y104.63 E3.87112
G1 X154.922 Y105.334 E3.9089
G1 X154.231 Y105.981 E3.94668
G1 X153.489 Y106.568 E3.98445
G1 X152.395 Y107.267 E4.03626
G1 X151.677 Y107.669 E4.0691
G1 X150.658 Y108.22 E4.11534
G1 X148.518 Y109.456 E4.21397
G1 X146.339 Y110.799 E4.31613
G1 X144.276 Y112.151 E4.41458
G1 X142.177 Y113.615 E4.51672
G1 X140.183 Y115.089 E4.61569
G1 X138.205 Y116.64 E4.71601
G1 X136.269 Y118.25 E4.81651
G1 X134.391 Y119.903 E4.91636
G1 X132.53 Y121.636 E5.01786
G1 X130.751 Y123.389 E5.11754
G1 X129.033 Y125.183 E5.21668
G1 X127.324 Y127.07 E5.31829
G1 X125.707 Y128.961 E5.4176
G1 X124.107 Y130.94 E5.51917
G1 X122.613 Y132.903 E5.61763
G1 X121.139 Y134.955 E5.71847
G1 X119.727 Y137.043 E5.81907
G1 X118.387 Y139.152 E5.9188
G1 X117.086 Y141.333 E6.02016
G1 X115.888 Y143.474 E6.11808
G1 X114.107 Y146.942 E6.27368
G1 X113.639 Y147.765 E6.31146
G1 X113.104 Y148.545 E6.34922
G1 X112.505 Y149.277 E6.38697
G1 X111.846 Y149.957 E6.42476
G1 X111.132 Y150.578 E6.46253
G1 X110.368 Y151.137 E6.50031
G1 X109.56 Y151.629 E6.53807
G1 X108.713 Y152.051 E6.57584
G1 X107.833 Y152.4 E6.61362
G1 X106.927 Y152.674 E6.6514
G1 X106.001 Y152.87 E6.68918
G1 X105.062 Y152.987 E6.72694
G1 X104.292 Y153.024 E6.75771
G1 X103.464 Y153.034 E6.79076
G1 X88.147 Y153.033 E7.4021
G1 X87.447 Y153.023 E7.43004
G1 X86.502 Y152.969 E7.46782
G1 X85.565 Y152.836 E7.50559
G1 X84.643 Y152.625 E7.54334
G1 X83.742 Y152.336 E7.5811
G1 X82.868 Y151.972 E7.61889
G1 X82.028 Y151.536 E7.65667
G1 X81.228 Y151.03 E7.69445
G1 X80.474 Y150.459 E7.7322
G1 X79.77 Y149.826 E7.76998
G1 X79.123 Y149.136 E7.80773
G1 X78.536 Y148.393 E7.84553
G1 X78.014 Y147.604 E7.88329
G1 X77.56 Y146.773 E7.92108
G1 X77.178 Y145.908 E7.95882
G1 X76.872 Y145.018 E7.99638
G1 X76.789 Y144.739 E8.008
G1 X76.558 Y143.821 E8.04578
G1 X76.406 Y142.902 E8.08296
G1 X76.322 Y141.726 E8.13002
G1 X76.302 Y140.675 E8.17197
G1 X76.3 Y140.462 E8.18047
G1 X76.301 Y97.104 E9.91099
G1 X76.311 Y96.455 E9.93689
G1 X76.338 Y95.836 E9.96162
G1 X76.368 Y95.413 E9.97855
G1 X76.397 Y95.075 E9.99209
G1 X76.425 Y94.799 E10.00316
G1 X76.56 Y93.862 E10.04094
G1 X76.711 Y93.177 E10.06894
G1 X76.821 Y92.743 E10.08681
G1 X76.945 Y92.285 E10.10575
G1 X77.235 Y91.384 E10.14352
G1 X77.524 Y90.678 E10.17397
G1 X77.721 Y90.239 E10.19318
G1 X77.84 Y89.982 E10.20448
G1 X77.933 Y89.788 E10.21307
G1 X78.377 Y88.953 E10.25081
G1 X78.759 Y88.35 E10.2793
G1 X79.015 Y87.972 E10.29752
G1 X79.198 Y87.709 E10.31031
G1 X79.347 Y87.502 E10.32049
G1 X79.932 Y86.758 E10.35826
G1 X80.4 Y86.244 E10.38601
G1 X80.697 Y85.938 E10.40303
G1 X80.924 Y85.711 E10.41584
G1 X81.108 Y85.532 E10.42609
G0 F6000 X81.443 Y85.876
G1 F1200 X82.134 Y85.26 E10.46303
G1 X82.625 Y84.881 E10.48779
G1 X82.996 Y84.612 E10.50608
G1 X83.269 Y84.421 E10.51938
G1 X83.462 Y84.29 E10.52869
G1 X84.249 Y83.804 E10.56561
G1 X84.778 Y83.527 E10.58944
G1 X85.208 Y83.317 E10.60854
G1 X85.492 Y83.184 E10.62105
G1 X85.682 Y83.098 E10.62938
G1 X86.541 Y82.753 E10.66632
G1 X87.168 Y82.553 E10.69259
G1 X87.646 Y82.417 E10.71243
G1 X87.968 Y82.331 E10.72573
G1 X88.175 Y82.279 E10.73425
G1 X89.082 Y82.092 E10.77121
G1 X89.673 Y82.014 E10.795
G1 X90.094 Y81.97 E10.8119
G1 X90.413 Y81.942 E10.82468
G1 X90.682 Y81.922 E10.83544
G1 X91.316 Y81.893 E10.86077
G1 X92.276 Y81.88 E10.89909
G1 X145.562 Y81.88 E13.02585
G1 X145.764 Y81.882 E13.03392
G1 X146.826 Y81.902 E13.07631
G1 X147.75 Y81.959 E13.11326
G1 X148.666 Y82.096 E13.15023
G1 X149.202 Y82.215 E13.17214
G1 X149.424 Y82.27 E13.18127
G1 X150.312 Y82.531 E13.21821
G1 X151.291 Y82.92 E13.26025
G1 X151.37 Y82.956 E13.26372
G1 X152.195 Y83.376 E13.30067
G1 X152.981 Y83.866 E13.33764
G1 X153.722 Y84.421 E13.37459
G1 X154.412 Y85.039 E13.41156
G1 X155.046 Y85.713 E13.44849
G1 X155.619 Y86.44 E13.48543
G1 X156.128 Y87.214 E13.52241
G1 X156.568 Y88.028 E13.55934
G1 X156.936 Y88.878 E13.59631
G1 X157.23 Y89.756 E13.63326
G1 X157.446 Y90.656 E13.6702
G1 X157.584 Y91.572 E13.70718
G1 X157.644 Y92.562 E13.74676
G1 X157.654 Y93.361 E13.77865
G1 X157.652 Y96.969 E13.92266
G1 X157.642 Y97.651 E13.94988
G1 X157.588 Y98.575 E13.98682
G1 X157.455 Y99.492 E14.0238
G1 X157.244 Y100.393 E14.06074
G1 X156.955 Y101.273 E14.09771
G1 X156.591 Y102.124 E14.13465
G1 X156.156 Y102.941 E14.17159
G1 X155.651 Y103.718 E14.20858
G1 X155.082 Y104.448 E14.24552
G1 X154.451 Y105.126 E14.28248
G1 X153.765 Y105.747 E14.31942
G1 X153.027 Y106.306 E14.35637
G1 X152.16 Y106.848 E14.39718
G1 X151.302 Y107.327 E14.4364
G1 X150.432 Y107.797 E14.47586
G1 X148.243 Y109.061 E14.57675
G1 X146.107 Y110.378 E14.6769
G1 X143.98 Y111.772 E14.7784
G1 X141.899 Y113.223 E14.87966
G1 X139.9 Y114.701 E14.97888
G1 X137.906 Y116.265 E15.08003
G1 X135.948 Y117.892 E15.18163
G1 X134.047 Y119.566 E15.28273
G1 X132.223 Y121.265 E15.38222
G1 X130.425 Y123.037 E15.48298
G1 X128.669 Y124.869 E15.58426
G1 X126.978 Y126.737 E15.68483
G1 X125.326 Y128.668 E15.78625
G1 X123.736 Y130.635 E15.8872
G1 X122.216 Y132.632 E15.98737
G1 X120.74 Y134.689 E16.08842
G1 X119.323 Y136.784 E16.18936
G1 X117.974 Y138.906 E16.28972
G1 X116.685 Y141.068 E16.39018
G1 X115.465 Y143.247 E16.48986
G1 X113.68 Y146.723 E16.64581
G1 X113.222 Y147.527 E16.68274
G1 X112.696 Y148.289 E16.7197
G1 X112.106 Y149.003 E16.75667
G1 X111.457 Y149.663 E16.79361
G1 X110.754 Y150.265 E16.83055
G1 X110.001 Y150.804 E16.86751
G1 X109.204 Y151.276 E16.90448
G1 X108.37 Y151.677 E16.94142
G1 X107.504 Y152.005 E16.97838
G1 X106.613 Y152.257 E17.01533
G1 X105.704 Y152.431 E17.05227
G1 X104.783 Y152.526 E17.08923
G1 X104.286 Y152.544 E17.10908
G1 X103.464 Y152.554 E17.14189
G1 X88.154 Y152.553 E17.75294
G1 X87.454 Y152.543 E17.78088
G1 X86.53 Y152.49 E17.81782
G1 X85.613 Y152.357 E17.8548
G1 X84.712 Y152.146 E17.89174
G1 X83.832 Y151.857 E17.92871
G1 X82.98 Y151.494 E17.96567
G1 X82.163 Y151.059 E18.00261
G1 X81.387 Y150.555 E18.03954
G1 X80.657 Y149.985 E18.07651
G1 X79.978 Y149.355 E18.11348
G1 X79.357 Y148.669 E18.15041
G1 X78.797 Y147.932 E18.18735
G1 X78.303 Y147.149 E18.2243
G1 X77.878 Y146.326 E18.26127
G1 X77.526 Y145.47 E18.29821
G1 X77.332 Y144.881 E18.32296
G1 X77.249 Y144.602 E18.33458
G1 X77.024 Y143.704 E18.37153
G1 X76.883 Y142.843 E18.40635
G1 X76.802 Y141.717 E18.45141
G1 X76.782 Y140.666 E18.49336
G1 X76.78 Y140.462 E18.50151
G1 X76.781 Y97.112 E20.2317
G1 X76.791 Y96.463 E20.25761
G1 X76.817 Y95.87 E20.2813
G1 X76.847 Y95.447 E20.29822
G1 X76.875 Y95.123 E20.3112
G1 X76.903 Y94.847 E20.32227
G1 X77.036 Y93.931 E20.35922
G1 X77.177 Y93.295 E20.38522
G1 X77.344 Y92.644 E20.41204
G1 X77.408 Y92.412 E20.42165
G1 X77.693 Y91.531 E20.4586
G1 X77.962 Y90.874 E20.48694
G1 X78.159 Y90.435 E20.50614
G1 X78.272 Y90.19 E20.51691
G1 X78.365 Y89.996 E20.5255
G1 X78.801 Y89.179 E20.56246
G1 X79.156 Y88.619 E20.58892
G1 X79.412 Y88.241 E20.60714
G1 X79.588 Y87.989 E20.61941
G1 X79.737 Y87.782 E20.62959
G1 X80.309 Y87.055 E20.66651
G1 X80.745 Y86.579 E20.69228
G1 X81.042 Y86.273 E20.7093
G1 X81.259 Y86.055 E20.72157
G1 X81.443 Y85.876 E20.73182
G0 F6000 X81.778 Y86.22
G1 F1200 X82.453 Y85.618 E20.76792
G1 X82.907 Y85.27 E20.79075
G1 X83.278 Y85.001 E20.80904
G1 X83.538 Y84.818 E20.82173
G1 X83.731 Y84.687 E20.83104
G1 X84.502 Y84.213 E20.86716
G1 X84.988 Y83.959 E20.88905
G1 X85.418 Y83.749 E20.90815
G1 X85.689 Y83.621 E20.92011
G1 X85.879 Y83.535 E20.92843
G1 X86.72 Y83.199 E20.96458
G1 X87.3 Y83.015 E20.98886
G1 X87.778 Y82.879 E21.0087
G1 X88.085 Y82.797 E21.02138
G1 X88.292 Y82.745 E21.0299
G1 X89.179 Y82.563 E21.06604
G1 X89.723 Y82.491 E21.08794
G1 X90.144 Y82.447 E21.10484
G1 X90.449 Y82.42 E21.11706
G1 X90.718 Y82.4 E21.12782
G1 X91.323 Y82.373 E21.15199
G1 X92.276 Y82.36 E21.19003
G1 X145.562 Y82.36 E23.31679
G1 X146.817 Y82.382 E23.36689
G1 X147.72 Y82.439 E23.403
G1 X148.614 Y82.575 E23.43909
G1 X149.086 Y82.68 E23.45839
G1 X149.308 Y82.735 E23.46752
G1 X150.176 Y82.992 E23.50365
G1 X151.092 Y83.357 E23.54301
G1 X151.171 Y83.393 E23.54647
G1 X151.977 Y83.804 E23.58258
G1 X152.744 Y84.285 E23.61872
G1 X153.465 Y84.832 E23.65484
G1 X154.135 Y85.44 E23.69095
G1 X154.749 Y86.105 E23.72707
G1 X155.301 Y86.821 E23.76316
G1 X155.789 Y87.583 E23.79927
G1 X156.207 Y88.386 E23.8354
G1 X156.552 Y89.222 E23.8715
G1 X156.823 Y90.086 E23.90764
G1 X157.016 Y90.97 E23.94375
G1 X157.13 Y91.867 E23.97984
G1 X157.164 Y92.569 E24.00789
G1 X157.174 Y93.361 E24.03951
G1 X157.172 Y96.962 E24.18323
G1 X157.162 Y97.644 E24.21045
G1 X157.109 Y98.547 E24.24656
G1 X156.976 Y99.443 E24.28271
G1 X156.765 Y100.322 E24.31879
G1 X156.477 Y101.18 E24.35491
G1 X156.114 Y102.009 E24.39103
G1 X155.679 Y102.803 E24.42717
G1 X155.176 Y103.555 E24.46328
G1 X154.609 Y104.26 E24.49938
G1 X153.982 Y104.912 E24.53549
G1 X153.299 Y105.506 E24.57161
G1 X152.567 Y106.038 E24.60773
G1 X151.926 Y106.429 E24.6377
G1 X151.208 Y106.831 E24.67054
G1 X150.206 Y107.373 E24.71601
G1 X148.018 Y108.636 E24.81684
G1 X145.824 Y109.989 E24.91972
G1 X143.725 Y111.365 E25.01989
G1 X141.621 Y112.832 E25.12227
G1 X139.606 Y114.321 E25.22226
G1 X137.602 Y115.893 E25.32392
G1 X135.625 Y117.537 E25.42654
G1 X133.744 Y119.193 E25.52657
G1 X131.88 Y120.929 E25.62823
G1 X130.08 Y122.702 E25.72907
G1 X128.323 Y124.536 E25.83044
G1 X126.614 Y126.424 E25.93208
G1 X124.959 Y128.359 E26.03371
G1 X123.356 Y130.343 E26.13551
G1 X121.833 Y132.343 E26.23584
G1 X120.357 Y134.398 E26.33683
G1 X118.909 Y136.539 E26.43999
G1 X117.572 Y138.644 E26.53952
G1 X116.259 Y140.844 E26.64177
G1 X115.043 Y143.018 E26.74119
G1 X113.253 Y146.503 E26.89756
G1 X112.804 Y147.289 E26.93369
G1 X112.288 Y148.032 E26.96979
G1 X111.708 Y148.727 E27.00592
G1 X111.069 Y149.368 E27.04205
G1 X110.377 Y149.95 E27.07814
G1 X109.635 Y150.468 E27.11425
G1 X108.85 Y150.919 E27.15039
G1 X108.029 Y151.299 E27.1865
G1 X107.178 Y151.605 E27.22259
G1 X106.302 Y151.835 E27.25874
G1 X105.41 Y151.986 E27.29485
G1 X104.28 Y152.064 E27.34005
G1 X103.464 Y152.074 E27.37263
G1 X88.161 Y152.073 E27.9834
G1 X87.461 Y152.063 E28.01134
G1 X86.557 Y152.01 E28.04749
G1 X85.662 Y151.878 E28.08359
G1 X84.782 Y151.667 E28.11971
G1 X83.924 Y151.379 E28.15583
G1 X83.095 Y151.017 E28.19194
G1 X82.301 Y150.582 E28.22807
G1 X81.549 Y150.08 E28.26416
G1 X80.844 Y149.513 E28.30027
G1 X80.191 Y148.886 E28.3364
G1 X79.597 Y148.203 E28.37253
G1 X79.065 Y147.471 E28.40864
G1 X78.6 Y146.695 E28.44475
G1 X78.205 Y145.881 E28.48086
G1 X77.792 Y144.744 E28.52914
G1 X77.709 Y144.465 E28.54076
G1 X77.49 Y143.587 E28.57688
G1 X77.359 Y142.783 E28.60939
G1 X77.282 Y141.708 E28.65241
G1 X77.262 Y140.657 E28.69436
G1 X77.26 Y140.462 E28.70214
G1 X77.261 Y97.119 E30.43206
G1 X77.271 Y96.47 E30.45796
G1 X77.296 Y95.904 E30.48058
G1 X77.326 Y95.481 E30.4975
G1 X77.352 Y95.171 E30.50992
G1 X77.38 Y94.895 E30.52099
G1 X77.511 Y94 E30.55709
G1 X77.642 Y93.413 E30.5811
G1 X77.752 Y92.979 E30.59897
G1 X77.871 Y92.54 E30.61712
G1 X78.15 Y91.679 E30.65324
G1 X78.4 Y91.071 E30.67948
G1 X78.597 Y90.632 E30.69869
G1 X78.705 Y90.397 E30.70901
G1 X78.798 Y90.203 E30.7176
G1 X79.225 Y89.406 E30.75368
G1 X79.553 Y88.888 E30.77815
G1 X79.809 Y88.51 E30.79637
G1 X79.977 Y88.27 E30.80807
G1 X80.126 Y88.063 E30.81825
G1 X80.687 Y87.352 E30.85439
G1 X81.089 Y86.913 E30.87815
G1 X81.386 Y86.607 E30.89517
G1 X81.594 Y86.399 E30.90691
G1 X81.778 Y86.22 E30.91716
G1 F2700 E25.91716
;MESH:End__Course__Mount.STL
G0 F6000 X86.84 Y96.512
G0 X87.959 Y96.61
G0 X89.842 Y139.492
G0 X102.09 Y139.674
;TYPE:WALL-INNER
G1 F2700 E30.91716
G1 F1200 X89.66 Y139.674 E31.41327
G1 X89.66 Y96.685 E33.12905
G1 X89.694 Y96.291 E33.14483
G1 X89.779 Y95.971 E33.15805
G1 X89.914 Y95.685 E33.17067
G1 X90.105 Y95.412 E33.18397
G1 X90.312 Y95.205 E33.19565
G1 X90.585 Y95.014 E33.20895
G1 X90.871 Y94.879 E33.22157
G1 X91.191 Y94.794 E33.23479
G1 X91.585 Y94.76 E33.25057
G1 X144.774 Y94.76 E35.37346
G1 X144.773 Y95.44 E35.4006
G1 X122.034 Y95.441 E36.30816
G1 X120.217 Y95.588 E36.38092
G1 X118.438 Y96.014 E36.45393
G1 X118.24 Y96.085 E36.46233
G1 X116.621 Y96.758 E36.53231
G1 X114.999 Y97.749 E36.60817
G1 X113.67 Y98.883 E36.6779
G1 X113.573 Y98.972 E36.68315
G1 X99.333 Y113.212 E37.48692
G1 X98.13 Y114.628 E37.56108
G1 X97.115 Y116.307 E37.63938
G1 X96.392 Y118.095 E37.71636
G1 X96.248 Y118.705 E37.74138
G1 X95.972 Y119.924 E37.79126
G1 X95.92 Y120.637 E37.81979
G1 X95.993 Y121.346 E37.84824
G1 X96.059 Y121.625 E37.85968
G1 X96.174 Y122.053 E37.87737
G1 X96.426 Y122.65 E37.90323
G1 X96.811 Y123.286 E37.93291
G1 X97.053 Y123.577 E37.94801
G1 X97.239 Y123.81 E37.95991
G1 X97.614 Y124.145 E37.97998
G1 X98.09 Y124.509 E38.0039
G1 X98.581 Y124.774 E38.02617
G1 X99.031 Y124.997 E38.04621
G1 X99.836 Y125.124 E38.07874
G1 X102.09 Y125.126 E38.1687
G1 X102.09 Y139.674 E38.74934
G0 F6000 X102.57 Y140.154
G1 F1200 X89.18 Y140.154 E39.28377
G1 X89.18 Y96.667 E41.01943
G1 X89.22 Y96.206 E41.0379
G1 X89.327 Y95.804 E41.0545
G1 X89.496 Y95.444 E41.07037
G1 X89.733 Y95.106 E41.08685
G1 X90.006 Y94.833 E41.10226
G1 X90.344 Y94.596 E41.11873
G1 X90.704 Y94.427 E41.13461
G1 X91.106 Y94.32 E41.15121
G1 X91.567 Y94.28 E41.16968
G1 X145.254 Y94.28 E43.31244
G1 X145.253 Y95.92 E43.3779
G1 X122.053 Y95.921 E44.30386
G1 X120.293 Y96.063 E44.37433
G1 X118.575 Y96.475 E44.44485
G1 X118.413 Y96.533 E44.45172
G1 X116.84 Y97.187 E44.51971
G1 X115.282 Y98.139 E44.59258
G1 X113.988 Y99.243 E44.66047
G1 X113.905 Y99.319 E44.66496
G1 X99.686 Y113.538 E45.46754
G1 X98.521 Y114.909 E45.53935
G1 X97.546 Y116.522 E45.61458
G1 X96.851 Y118.241 E45.68858
G1 X96.716 Y118.813 E45.71204
G1 X96.448 Y119.995 E45.76041
G1 X96.402 Y120.63 E45.78582
G1 X96.467 Y121.266 E45.81134
G1 X96.524 Y121.507 E45.82122
G1 X96.629 Y121.896 E45.8373
