;FLAVOR:Marlin
;TIME:11212
;Filament used: 10.853m
;Layer height: 0.2
;MINX:5.77
;MINY:94.8
;MINZ:0.2
;MAXX:229.23
;MAXY:140.2
;MAXZ:27
;Generated with Cura_SteamEngine 4.13.1
M140 S60
M105
M190 S60
M104 S210
M105
M109 S210
M82 ;absolute extrusion mode
; Ender 3 Custom Start G-code
G92 E0 ; Reset Extruder
G28 ; Home all axes
G1 Z2.0 F3000 ; Move Z Axis up little to prevent scratching of Heat Bed
G1 X0.1 Y20 Z0.3 F5000.0 ; Move to start position
G1 X0.1 Y200.0 Z0.3 F1500.0 E15 ; Draw the first line
G1 X0.4 Y200.0 Z0.3 F5000.0 ; Move to side a little
G1 X0.4 Y20 Z0.3 F1500.0 E30 ; Draw the second line
G92 E0 ; Reset Extruder
G1 Z2.0 F3000 ; Move Z Axis up little to prevent scratching of Heat Bed
G1 X5 Y20 Z0.3 F5000.0 ; Move over to prevent blob squish
G92 E0
G92 E0
G1 F2700 E-5
;LAYER_COUNT:135
;LAYER:0
M107
G0 F6000 X15.634 Y94.89 Z0.2
;TYPE:SKIRT
G1 F2700 E0
G1 F1200 X16.665 Y94.813 E0.04126
G1 X16.986 Y94.804 E0.05408
G1 X17.3 Y94.8 E0.06661
G1 X217.323 Y94.8 E8.04996
G1 X218.181 Y94.811 E8.08421
G1 X219.126 Y94.865 E8.12199
G1 X220.063 Y94.998 E8.15976
G1 X220.986 Y95.209 E8.19755
G1 X221.887 Y95.498 E8.23532
G1 X222.76 Y95.862 E8.27307
G1 X223.6 Y96.299 E8.31086
G1 X224.4 Y96.804 E8.34862
G1 X225.155 Y97.376 E8.38642
G1 X225.858 Y98.009 E8.42418
G1 X226.505 Y98.699 E8.46193
G1 X227.092 Y99.441 E8.4997
G1 X227.615 Y100.23 E8.53748
G1 X228.068 Y101.061 E8.57525
G1 X228.45 Y101.927 E8.61303
G1 X228.758 Y102.822 E8.65081
G1 X228.988 Y103.74 E8.68858
G1 X229.141 Y104.674 E8.72635
G1 X229.217 Y105.695 E8.76722
G1 X229.226 Y106.015 E8.77999
G1 X229.23 Y106.33 E8.79257
G1 X229.229 Y128.403 E9.67355
G1 X229.22 Y129.13 E9.70257
G1 X229.168 Y130.075 E9.74034
G1 X229.037 Y131.012 E9.7781
G1 X228.827 Y131.935 E9.81588
G1 X228.54 Y132.836 E9.85362
G1 X228.178 Y133.711 E9.89142
G1 X227.743 Y134.551 E9.92917
G1 X227.239 Y135.352 E9.96694
G1 X226.669 Y136.108 E10.00473
G1 X226.038 Y136.812 E10.04246
G1 X225.349 Y137.461 E10.08024
G1 X224.607 Y138.05 E10.11805
G1 X223.819 Y138.573 E10.1558
G1 X222.99 Y139.029 E10.19356
G1 X222.124 Y139.412 E10.23136
G1 X221.23 Y139.721 E10.26911
G1 X220.313 Y139.954 E10.30687
G1 X219.379 Y140.108 E10.34465
G1 X218.335 Y140.187 E10.38644
G1 X218.014 Y140.196 E10.39926
G1 X217.7 Y140.2 E10.41179
G1 X17.533 Y140.199 E18.40089
G1 X16.835 Y140.19 E18.42875
G1 X15.89 Y140.138 E18.46652
G1 X14.953 Y140.006 E18.50429
G1 X14.03 Y139.796 E18.54207
G1 X13.128 Y139.508 E18.57986
G1 X12.254 Y139.146 E18.61762
G1 X11.414 Y138.71 E18.65539
G1 X10.613 Y138.206 E18.69316
G1 X9.858 Y137.636 E18.73092
G1 X9.153 Y137.004 E18.76871
G1 X8.505 Y136.314 E18.80649
G1 X7.917 Y135.573 E18.84425
G1 X7.394 Y134.784 E18.88203
G1 X6.939 Y133.954 E18.91981
G1 X6.556 Y133.089 E18.95756
G1 X6.247 Y132.194 E18.99535
G1 X6.015 Y131.277 E19.0331
G1 X5.861 Y130.343 E19.07089
G1 X5.783 Y129.294 E19.11287
G1 X5.774 Y128.961 E19.12617
G1 X5.77 Y128.658 E19.13826
G1 X5.771 Y106.522 E20.02176
G1 X5.78 Y105.857 E20.0483
G1 X5.833 Y104.913 E20.08604
G1 X5.965 Y103.975 E20.12384
G1 X6.176 Y103.053 E20.16159
G1 X6.464 Y102.152 E20.19935
G1 X6.827 Y101.278 E20.23712
G1 X7.263 Y100.437 E20.27493
G1 X7.768 Y99.637 E20.31269
G1 X8.339 Y98.882 E20.35047
G1 X8.971 Y98.178 E20.38823
G1 X9.661 Y97.53 E20.42601
G1 X10.403 Y96.943 E20.46377
G1 X11.192 Y96.42 E20.50155
G1 X12.022 Y95.966 E20.53931
G1 X12.888 Y95.583 E20.5771
G1 X13.782 Y95.275 E20.61484
G1 X14.7 Y95.043 E20.65263
G1 X15.634 Y94.89 E20.69041
G0 F6000 X16.031 Y95.331
G1 F1200 X16.679 Y95.293 E20.71631
G1 X17 Y95.284 E20.72913
G1 X17.3 Y95.28 E20.74111
G1 X217.323 Y95.28 E28.72446
G1 X218.175 Y95.291 E28.75846
G1 X219.099 Y95.344 E28.7954
G1 X220.015 Y95.477 E28.83235
G1 X220.917 Y95.688 E28.86932
G1 X221.796 Y95.977 E28.90625
G1 X222.648 Y96.34 E28.94321
G1 X223.465 Y96.775 E28.98016
G1 X224.242 Y97.279 E29.01712
G1 X224.972 Y97.849 E29.05409
G1 X225.65 Y98.479 E29.09102
G1 X226.271 Y99.165 E29.12796
G1 X226.831 Y99.903 E29.16493
G1 X227.325 Y100.686 E29.20188
G1 X227.75 Y101.508 E29.23882
G1 X228.102 Y102.365 E29.27579
G1 X228.379 Y103.248 E29.31273
G1 X228.579 Y104.152 E29.34968
G1 X228.7 Y105.07 E29.38664
G1 X228.737 Y105.709 E29.41219
G1 X228.746 Y106.029 E29.42496
G1 X228.75 Y106.33 E29.43698
G1 X228.749 Y128.397 E30.31772
G1 X228.74 Y129.124 E30.34674
G1 X228.689 Y130.048 E30.38367
G1 X228.558 Y130.965 E30.42064
G1 X228.348 Y131.866 E30.45757
G1 X228.062 Y132.747 E30.49454
G1 X227.7 Y133.599 E30.53148
G1 X227.266 Y134.417 E30.56844
G1 X226.764 Y135.195 E30.6054
G1 X226.196 Y135.926 E30.64235
G1 X225.567 Y136.605 E30.67929
G1 X224.882 Y137.228 E30.71624
G1 X224.145 Y137.789 E30.75321
G1 X223.363 Y138.285 E30.79017
G1 X222.541 Y138.711 E30.82712
G1 X221.686 Y139.065 E30.86406
G1 X220.803 Y139.344 E30.90102
G1 X219.899 Y139.545 E30.93798
G1 X218.982 Y139.668 E30.97491
G1 X218.321 Y139.707 E31.00133
G1 X218 Y139.716 E31.01415
G1 X217.7 Y139.72 E31.02613
G1 X17.539 Y139.719 E39.01498
G1 X16.841 Y139.71 E39.04284
G1 X15.916 Y139.658 E39.07982
G1 X15 Y139.527 E39.11675
G1 X14.098 Y139.317 E39.15372
G1 X13.218 Y139.03 E39.19066
G1 X12.366 Y138.668 E39.22761
G1 X11.548 Y138.233 E39.26458
G1 X10.771 Y137.73 E39.30153
G1 X10.04 Y137.162 E39.33848
G1 X9.361 Y136.533 E39.37542
G1 X8.738 Y135.847 E39.4124
G1 X8.178 Y135.111 E39.44931
G1 X7.682 Y134.329 E39.48627
G1 X7.256 Y133.506 E39.52326
G1 X6.903 Y132.651 E39.56018
G1 X6.625 Y131.768 E39.59713
G1 X6.424 Y130.864 E39.63409
G1 X6.302 Y129.946 E39.67105
G1 X6.263 Y129.281 E39.69764
G1 X6.254 Y128.948 E39.71093
G1 X6.25 Y128.658 E39.72251
G1 X6.251 Y106.529 E40.60573
G1 X6.26 Y105.864 E40.63227
G1 X6.312 Y104.94 E40.66921
G1 X6.445 Y104.023 E40.70619
G1 X6.655 Y103.122 E40.74311
G1 X6.943 Y102.242 E40.78007
G1 X7.305 Y101.39 E40.81702
G1 X7.74 Y100.572 E40.854
G1 X8.244 Y99.795 E40.89096
G1 X8.812 Y99.065 E40.92788
G1 X9.442 Y98.386 E40.96484
G1 X10.128 Y97.764 E41.0018
G1 X10.865 Y97.204 E41.03875
G1 X11.647 Y96.709 E41.07569
G1 X12.47 Y96.284 E41.11265
G1 X13.326 Y95.931 E41.14961
G1 X14.209 Y95.653 E41.18656
G1 X15.113 Y95.453 E41.22351
G1 X16.031 Y95.331 E41.26047
G0 F6000 X15.52 Y95.873
G1 F1200 X16.692 Y95.773 E41.30742
G1 X17.013 Y95.764 E41.32024
G1 X17.3 Y95.76 E41.33169
G1 X217.323 Y95.76 E49.31504
G1 X218.168 Y95.771 E49.34877
G1 X219.071 Y95.824 E49.38487
G1 X219.966 Y95.956 E49.42098
G1 X220.846 Y96.167 E49.4571
G1 X221.704 Y96.455 E49.49322
G1 X222.533 Y96.818 E49.52934
G1 X223.327 Y97.252 E49.56546
G1 X224.079 Y97.755 E49.60157
G1 X224.785 Y98.322 E49.63771
G1 X225.437 Y98.949 E49.67381
G1 X226.031 Y99.631 E49.70991
G1 X226.563 Y100.363 E49.74602
G1 X227.028 Y101.139 E49.78213
G1 X227.423 Y101.953 E49.81824
G1 X227.745 Y102.799 E49.85437
G1 X227.99 Y103.67 E49.89048
G1 X228.158 Y104.559 E49.92659
G1 X228.257 Y105.722 E49.97318
G1 X228.266 Y106.042 E49.98596
G1 X228.27 Y106.33 E49.99745
G1 X228.269 Y128.391 E50.87795
G1 X228.26 Y129.118 E50.90697
G1 X228.209 Y130.021 E50.94307
G1 X228.078 Y130.917 E50.97921
G1 X227.869 Y131.797 E51.01531
G1 X227.583 Y132.655 E51.05141
G1 X227.222 Y133.485 E51.08753
G1 X226.789 Y134.28 E51.12367
G1 X226.288 Y135.033 E51.15976
G1 X225.723 Y135.74 E51.19589
G1 X225.097 Y136.393 E51.23199
G1 X224.416 Y136.989 E51.26811
G1 X223.685 Y137.522 E51.30422
G1 X222.909 Y137.989 E51.34036
G1 X222.096 Y138.385 E51.37646
G1 X221.251 Y138.708 E51.41256
G1 X220.38 Y138.956 E51.44871
G1 X219.491 Y139.125 E51.48483
G1 X218.308 Y139.227 E51.53222
G1 X217.987 Y139.236 E51.54503
G1 X217.7 Y139.24 E51.55649
G1 X17.545 Y139.239 E59.54511
G1 X16.847 Y139.23 E59.57297
G1 X15.944 Y139.179 E59.60907
G1 X15.048 Y139.047 E59.64522
G1 X14.168 Y138.838 E59.68132
G1 X13.31 Y138.551 E59.71742
G1 X12.48 Y138.19 E59.75355
G1 X11.686 Y137.757 E59.78965
G1 X10.932 Y137.255 E59.8258
G1 X10.226 Y136.689 E59.86191
G1 X9.573 Y136.063 E59.89802
G1 X8.978 Y135.382 E59.93411
G1 X8.445 Y134.65 E59.97025
G1 X7.979 Y133.875 E60.00635
G1 X7.583 Y133.061 E60.04247
G1 X7.26 Y132.216 E60.07858
G1 X7.013 Y131.345 E60.11471
G1 X6.844 Y130.456 E60.15083
G1 X6.743 Y129.268 E60.19842
G1 X6.734 Y128.935 E60.21171
G1 X6.73 Y128.658 E60.22277
G1 X6.731 Y106.535 E61.10575
G1 X6.74 Y105.87 E61.13229
G1 X6.792 Y104.967 E61.16839
G1 X6.924 Y104.072 E61.2045
G1 X7.134 Y103.192 E61.24061
G1 X7.421 Y102.334 E61.27672
G1 X7.783 Y101.504 E61.31286
G1 X8.217 Y100.71 E61.34897
G1 X8.719 Y99.957 E61.38509
G1 X9.285 Y99.252 E61.42118
G1 X9.912 Y98.599 E61.45731
G1 X10.594 Y98.004 E61.49343
G1 X11.325 Y97.471 E61.52954
G1 X12.101 Y97.006 E61.56565
G1 X12.915 Y96.61 E61.60178
G1 X13.761 Y96.288 E61.63791
G1 X14.631 Y96.042 E61.67399
G1 X15.52 Y95.873 E61.71011
G1 F2700 E56.71011
;MESH:Obstacle__Rack__Mount.STL
G0 F6000 X46.776 Y118.588
G0 X44.156 Y117.078
G0 X45.988 Y120.278
G0 X46.416 Y120.634
G0 X49.339 Y122.175
;TYPE:WALL-INNER
G1 F2700 E61.71011
G1 F1200 X49.867 Y121.801 E61.73593
G1 X50.318 Y121.346 E61.7615
G1 X50.679 Y120.826 E61.78677
G1 X50.951 Y120.25 E61.81219
G1 X51.114 Y119.62 E61.83816
G1 X51.169 Y118.99 E61.8634
G1 X51.109 Y118.347 E61.88918
G1 X50.941 Y117.734 E61.91455
G1 X50.675 Y117.161 E61.93976
G1 X50.301 Y116.633 E61.96559
G1 X49.846 Y116.182 E61.99116
G1 X49.326 Y115.821 E62.01642
G1 X48.75 Y115.549 E62.04185
G1 X48.12 Y115.386 E62.06782
G1 X47.49 Y115.331 E62.09306
G1 X46.847 Y115.391 E62.11883
G1 X46.234 Y115.559 E62.1442
G1 X45.661 Y115.825 E62.16942
G1 X45.133 Y116.199 E62.19524
G1 X44.682 Y116.654 E62.22081
G1 X44.321 Y117.174 E62.24608
G1 X44.047 Y117.753 E62.27164
G1 X43.89 Y118.377 E62.29732
G1 X43.831 Y118.998 E62.32222
G1 X43.891 Y119.653 E62.34847
G1 X44.059 Y120.266 E62.37384
G1 X44.325 Y120.839 E62.39905
G1 X44.699 Y121.367 E62.42488
G1 X45.154 Y121.818 E62.45045
G1 X45.674 Y122.179 E62.47571
G1 X46.25 Y122.451 E62.50114
G1 X46.88 Y122.614 E62.52711
G1 X47.51 Y122.669 E62.55235
G1 X48.153 Y122.609 E62.57813
G1 X48.766 Y122.441 E62.60349
G1 X49.339 Y122.175 E62.62871
G0 F6000 X49.097 Y121.758
G1 F1200 X49.556 Y121.433 E62.65115
G1 X49.948 Y121.038 E62.67337
G1 X50.262 Y120.585 E62.69536
G1 X50.498 Y120.086 E62.7174
G1 X50.639 Y119.539 E62.73994
G1 X50.687 Y118.991 E62.7619
G1 X50.635 Y118.433 E62.78426
G1 X50.489 Y117.9 E62.80632
G1 X50.258 Y117.403 E62.8282
G1 X49.933 Y116.944 E62.85064
G1 X49.538 Y116.552 E62.87285
G1 X49.085 Y116.238 E62.89485
G1 X48.586 Y116.002 E62.91688
G1 X48.039 Y115.861 E62.93943
G1 X47.491 Y115.813 E62.96138
G1 X46.933 Y115.865 E62.98375
G1 X46.4 Y116.011 E63.00581
G1 X45.903 Y116.242 E63.02768
G1 X45.444 Y116.567 E63.05013
G1 X45.052 Y116.962 E63.07234
G1 X44.738 Y117.415 E63.09434
G1 X44.501 Y117.916 E63.11646
G1 X44.364 Y118.459 E63.13881
G1 X44.313 Y118.999 E63.16046
G1 X44.365 Y119.567 E63.18323
G1 X44.511 Y120.1 E63.20528
G1 X44.742 Y120.597 E63.22716
G1 X45.067 Y121.056 E63.2496
G1 X45.462 Y121.448 E63.27182
G1 X45.915 Y121.762 E63.29381
G1 X46.414 Y121.998 E63.31585
G1 X46.961 Y122.139 E63.33839
G1 X47.509 Y122.187 E63.36035
G1 X48.067 Y122.135 E63.38271
G1 X48.6 Y121.989 E63.40477
G1 X49.097 Y121.758 E63.42665
G0 F6000 X48.855 Y121.341
G1 F1200 X49.245 Y121.065 E63.44571
G1 X49.578 Y120.73 E63.46457
G1 X49.845 Y120.344 E63.4833
G1 X50.045 Y119.922 E63.50194
G1 X50.164 Y119.458 E63.52106
G1 X50.205 Y118.992 E63.53973
G1 X50.161 Y118.519 E63.55869
G1 X50.037 Y118.066 E63.57743
G1 X49.841 Y117.645 E63.59597
G1 X49.565 Y117.255 E63.61504
G1 X49.23 Y116.922 E63.63389
G1 X48.844 Y116.655 E63.65262
G1 X48.422 Y116.455 E63.67126
G1 X47.958 Y116.336 E63.69038
G1 X47.492 Y116.295 E63.70905
G1 X47.019 Y116.339 E63.72801
G1 X46.566 Y116.463 E63.74676
G1 X46.145 Y116.659 E63.76529
G1 X45.755 Y116.935 E63.78436
G1 X45.422 Y117.27 E63.80321
G1 X45.155 Y117.656 E63.82195
G1 X44.955 Y118.079 E63.84062
G1 X44.838 Y118.541 E63.85964
G1 X44.795 Y119 E63.87804
G1 X44.839 Y119.481 E63.89732
G1 X44.963 Y119.934 E63.91606
G1 X45.159 Y120.355 E63.9346
G1 X45.435 Y120.745 E63.95367
G1 X45.77 Y121.078 E63.97252
G1 X46.156 Y121.345 E63.99125
G1 X46.578 Y121.545 E64.00989
G1 X47.042 Y121.664 E64.02901
G1 X47.508 Y121.705 E64.04768
G1 X47.981 Y121.661 E64.06664
G1 X48.434 Y121.537 E64.08539
G1 X48.855 Y121.341 E64.10392
G0 F6000 X48.613 Y120.924
G1 F1200 X48.934 Y120.697 E64.11961
G1 X49.208 Y120.422 E64.13511
G1 X49.428 Y120.104 E64.15054
G1 X49.591 Y119.758 E64.16581
G1 X49.689 Y119.377 E64.18151
G1 X49.723 Y118.993 E64.19689
G1 X49.687 Y118.605 E64.21245
G1 X49.585 Y118.232 E64.22788
G1 X49.424 Y117.887 E64.24308
G1 X49.197 Y117.566 E64.25877
G1 X48.922 Y117.292 E64.27426
G1 X48.604 Y117.072 E64.28969
G1 X48.258 Y116.909 E64.30496
G1 X47.877 Y116.811 E64.32066
G1 X47.493 Y116.777 E64.33605
G1 X47.105 Y116.813 E64.3516
G1 X46.732 Y116.915 E64.36703
G1 X46.387 Y117.076 E64.38223
G1 X46.066 Y117.303 E64.39792
G1 X45.792 Y117.578 E64.41341
G1 X45.572 Y117.896 E64.42885
G1 X45.409 Y118.242 E64.44411
G1 X45.312 Y118.623 E64.45981
G1 X45.277 Y119 E64.47492
G1 X45.313 Y119.395 E64.49075
G1 X45.415 Y119.768 E64.50618
G1 X45.576 Y120.113 E64.52138
G1 X45.803 Y120.434 E64.53707
G1 X46.078 Y120.708 E64.55256
G1 X46.396 Y120.928 E64.568
G1 X46.742 Y121.091 E64.58326
G1 X47.123 Y121.189 E64.59896
G1 X47.507 Y121.223 E64.61435
G1 X47.895 Y121.187 E64.6299
G1 X48.268 Y121.085 E64.64533
G1 X48.613 Y120.924 E64.66053
G0 F6000 X48.371 Y120.507
;TYPE:WALL-OUTER
G1 F1200 X48.623 Y120.329 E64.67284
G1 X48.838 Y120.113 E64.68501
G1 X49.011 Y119.864 E64.69711
G1 X49.137 Y119.595 E64.70896
G1 X49.214 Y119.295 E64.72133
G1 X49.241 Y118.994 E64.73339
G1 X49.213 Y118.691 E64.74553
G1 X49.133 Y118.398 E64.75766
G1 X49.007 Y118.129 E64.76951
G1 X48.829 Y117.877 E64.78183
G1 X48.613 Y117.662 E64.79399
G1 X48.364 Y117.489 E64.80609
G1 X48.095 Y117.363 E64.81795
G1 X47.795 Y117.286 E64.83031
G1 X47.494 Y117.259 E64.84237
G1 X47.191 Y117.287 E64.85451
G1 X46.898 Y117.367 E64.86664
G1 X46.629 Y117.493 E64.87849
G1 X46.377 Y117.671 E64.89081
G1 X46.162 Y117.887 E64.90297
G1 X45.989 Y118.136 E64.91507
G1 X45.863 Y118.405 E64.92693
G1 X45.786 Y118.705 E64.93929
G1 X45.759 Y119 E64.95111
G1 X45.787 Y119.309 E64.9635
G1 X45.867 Y119.602 E64.97562
G1 X45.993 Y119.871 E64.98747
G1 X46.171 Y120.123 E64.99979
G1 X46.387 Y120.338 E65.01195
G1 X46.636 Y120.511 E65.02405
G1 X46.905 Y120.637 E65.03591
G1 X47.205 Y120.714 E65.04827
G1 X47.506 Y120.741 E65.06033
G1 X47.809 Y120.713 E65.07248
G1 X48.102 Y120.633 E65.0846
G1 X48.371 Y120.507 E65.09646
G0 F6000 X48.636 Y120.963
G1 F2700 E60.09646
G0 F6000 X50.844 Y120.921
G0 X48.224 Y119.412
G0 X81.863 Y119.537
G0 X79.553 Y121.491
G0 X83.153 Y122.609
;TYPE:WALL-INNER
G1 F2700 E65.09646
G1 F1200 X83.766 Y122.441 E65.12182
G1 X84.339 Y122.175 E65.14704
G1 X84.867 Y121.801 E65.17286
G1 X85.318 Y121.346 E65.19843
G1 X85.679 Y120.826 E65.2237
G1 X85.951 Y120.25 E65.24912
G1 X86.114 Y119.62 E65.27509
G1 X86.169 Y118.99 E65.30033
G1 X86.109 Y118.347 E65.32611
G1 X85.941 Y117.734 E65.35148
G1 X85.675 Y117.161 E65.37669
G1 X85.301 Y116.633 E65.40252
G1 X84.846 Y116.182 E65.42809
G1 X84.326 Y115.821 E65.45335
G1 X83.75 Y115.549 E65.47877
G1 X83.12 Y115.386 E65.50475
G1 X82.49 Y115.331 E65.52999
G1 X81.847 Y115.391 E65.55576
G1 X81.234 Y115.559 E65.58113
G1 X80.661 Y115.825 E65.60634
G1 X80.133 Y116.199 E65.63217
G1 X79.682 Y116.654 E65.65774
G1 X79.321 Y117.174 E65.683
G1 X79.047 Y117.753 E65.70857
G1 X78.89 Y118.377 E65.73425
G1 X78.831 Y118.998 E65.75915
G1 X78.891 Y119.653 E65.7854
G1 X79.059 Y120.266 E65.81077
G1 X79.325 Y120.839 E65.83598
G1 X79.699 Y121.367 E65.86181
G1 X80.154 Y121.818 E65.88738
G1 X80.674 Y122.179 E65.91264
G1 X81.25 Y122.451 E65.93807
G1 X81.88 Y122.614 E65.96404
G1 X82.51 Y122.669 E65.98928
G1 X83.153 Y122.609 E66.01505
G0 F6000 X83.067 Y122.135
G1 F1200 X83.6 Y121.989 E66.03711
G1 X84.097 Y121.758 E66.05899
G1 X84.556 Y121.433 E66.08143
G1 X84.948 Y121.038 E66.10364
G1 X85.262 Y120.585 E66.12564
G1 X85.498 Y120.086 E66.14767
G1 X85.639 Y119.539 E66.17022
G1 X85.687 Y118.991 E66.19218
G1 X85.635 Y118.433 E66.21454
G1 X85.489 Y117.9 E66.2366
G1 X85.258 Y117.403 E66.25847
G1 X84.933 Y116.944 E66.28092
G1 X84.538 Y116.552 E66.30313
G1 X84.085 Y116.238 E66.32513
G1 X83.586 Y116.002 E66.34716
