;FLAVOR:Marlin
;TIME:8545
;Filament used: 5.44762m
;Layer height: 0.2
;MINX:5.769
;MINY:101.3
;MINZ:0.2
;MAXX:229.231
;MAXY:133.697
;MAXZ:10
;Generated with Cura_SteamEngine 4.13.1
M140 S60
M105
M190 S60
M104 S210
M105
M109 S210
M82 ;absolute extrusion mode
; Ender 3 Custom Start G-code
G92 E0 ; Reset Extruder
G28 ; Home all axes
G1 Z2.0 F3000 ; Move Z Axis up little to prevent scratching of Heat Bed
G1 X0.1 Y20 Z0.3 F5000.0 ; Move to start position
G1 X0.1 Y200.0 Z0.3 F1500.0 E15 ; Draw the first line
G1 X0.4 Y200.0 Z0.3 F5000.0 ; Move to side a little
G1 X0.4 Y20 Z0.3 F1500.0 E30 ; Draw the second line
G92 E0 ; Reset Extruder
G1 Z2.0 F3000 ; Move Z Axis up little to prevent scratching of Heat Bed
G1 X5 Y20 Z0.3 F5000.0 ; Move over to prevent blob squish
G92 E0
G92 E0
G1 F2700 E-5
;LAYER_COUNT:50
;LAYER:0
M107
G0 F6000 X15.633 Y101.39 Z0.2
;TYPE:SKIRT
G1 F2700 E0
G1 F1200 X16.664 Y101.313 E0.04126
G1 X16.985 Y101.304 E0.05408
G1 X17.299 Y101.3 E0.06661
G1 X217.324 Y101.3 E8.05004
G1 X218.182 Y101.311 E8.08429
G1 X219.127 Y101.365 E8.12207
G1 X220.064 Y101.498 E8.15984
G1 X220.987 Y101.709 E8.19763
G1 X221.888 Y101.998 E8.2354
G1 X222.761 Y102.362 E8.27315
G1 X223.601 Y102.799 E8.31094
G1 X224.401 Y103.304 E8.3487
G1 X225.156 Y103.876 E8.3865
G1 X225.859 Y104.509 E8.42426
G1 X226.506 Y105.199 E8.46201
G1 X227.093 Y105.941 E8.49978
G1 X227.616 Y106.73 E8.53756
G1 X228.069 Y107.561 E8.57533
G1 X228.451 Y108.427 E8.61311
G1 X228.759 Y109.322 E8.65089
G1 X228.989 Y110.24 E8.68866
G1 X229.142 Y111.174 E8.72643
G1 X229.218 Y112.195 E8.7673
G1 X229.227 Y112.515 E8.78007
G1 X229.231 Y112.83 E8.79265
G1 X229.23 Y117.444 E8.9768
G1 X229.219 Y118.167 E9.00566
G1 X229.164 Y119.112 E9.04344
G1 X229.03 Y120.049 E9.08122
G1 X228.818 Y120.971 E9.11898
G1 X228.528 Y121.872 E9.15676
G1 X228.164 Y122.745 E9.19451
G1 X227.727 Y123.583 E9.23223
G1 X227.26 Y124.394 E9.26958
G1 X225.985 Y126.677 E9.37395
G1 X225.556 Y127.49 E9.41064
G1 X225.345 Y127.877 E9.42823
G1 X224.855 Y128.686 E9.46598
G1 X224.298 Y129.452 E9.50378
G1 X223.679 Y130.167 E9.54152
G1 X223.002 Y130.828 E9.57929
G1 X222.271 Y131.429 E9.61706
G1 X221.492 Y131.966 E9.65482
G1 X220.67 Y132.436 E9.69261
G1 X219.812 Y132.834 E9.73036
G1 X218.923 Y133.159 E9.76814
G1 X218.01 Y133.408 E9.80591
G1 X217.079 Y133.578 E9.84369
G1 X215.709 Y133.685 E9.89853
G1 X214.968 Y133.697 E9.92811
G1 X214.631 Y133.697 E9.94156
G1 X212.846 Y133.672 E10.01281
G1 X209.925 Y133.676 E10.12939
G1 X208.706 Y133.696 E10.17805
G1 X208.367 Y133.697 E10.19158
G1 X206.565 Y133.672 E10.26351
G1 X203.642 Y133.676 E10.38018
G1 X202.423 Y133.696 E10.42884
G1 X202.084 Y133.697 E10.44237
G1 X200.282 Y133.672 E10.51429
G1 X197.359 Y133.676 E10.63096
G1 X196.14 Y133.696 E10.67962
G1 X195.801 Y133.697 E10.69315
G1 X193.999 Y133.672 E10.76508
G1 X191.077 Y133.676 E10.8817
G1 X189.857 Y133.696 E10.9304
G1 X189.518 Y133.697 E10.94393
G1 X187.716 Y133.672 E11.01586
G1 X184.794 Y133.676 E11.13248
G1 X183.574 Y133.696 E11.18118
G1 X183.235 Y133.697 E11.19471
G1 X181.433 Y133.672 E11.26664
G1 X178.51 Y133.676 E11.3833
G1 X177.29 Y133.696 E11.432
G1 X176.951 Y133.697 E11.44553
G1 X175.149 Y133.672 E11.51746
G1 X172.226 Y133.676 E11.63412
G1 X171.007 Y133.696 E11.68278
G1 X170.668 Y133.697 E11.69631
G1 X168.866 Y133.672 E11.76824
G1 X165.948 Y133.676 E11.88471
G1 X164.748 Y133.696 E11.93261
G1 X164.401 Y133.697 E11.94646
G1 X162.594 Y133.671 E12.01859
G1 X159.606 Y133.676 E12.13784
G1 X158.434 Y133.696 E12.18463
G1 X158.086 Y133.697 E12.19852
G1 X156.298 Y133.672 E12.26989
G1 X153.378 Y133.676 E12.38643
G1 X152.158 Y133.696 E12.43513
G1 X151.819 Y133.697 E12.44866
G1 X150.017 Y133.672 E12.52059
G1 X147.094 Y133.676 E12.63725
G1 X145.874 Y133.696 E12.68595
G1 X145.535 Y133.697 E12.69948
G1 X143.733 Y133.672 E12.77141
G1 X140.81 Y133.676 E12.88807
G1 X139.591 Y133.696 E12.93673
G1 X139.252 Y133.697 E12.95026
G1 X137.45 Y133.672 E13.02219
G1 X134.527 Y133.676 E13.13886
G1 X133.308 Y133.696 E13.18752
G1 X132.969 Y133.697 E13.20105
G1 X131.167 Y133.672 E13.27297
G1 X128.244 Y133.676 E13.38964
G1 X127.025 Y133.696 E13.4383
G1 X126.686 Y133.697 E13.45183
G1 X124.884 Y133.672 E13.52376
G1 X121.962 Y133.676 E13.64038
G1 X120.742 Y133.696 E13.68908
G1 X120.403 Y133.697 E13.70261
G1 X118.601 Y133.672 E13.77454
G1 X115.679 Y133.676 E13.89116
G1 X114.459 Y133.696 E13.93986
G1 X114.12 Y133.697 E13.95339
G1 X112.318 Y133.672 E14.02532
G1 X109.395 Y133.676 E14.14198
G1 X108.175 Y133.696 E14.19068
G1 X107.836 Y133.697 E14.20421
G1 X106.034 Y133.672 E14.27614
G1 X103.111 Y133.676 E14.3928
G1 X101.892 Y133.696 E14.44146
G1 X101.553 Y133.697 E14.45499
G1 X99.751 Y133.672 E14.52692
G1 X96.833 Y133.676 E14.64339
G1 X95.633 Y133.696 E14.69129
G1 X95.286 Y133.697 E14.70514
G1 X93.479 Y133.671 E14.77727
G1 X90.491 Y133.676 E14.89652
G1 X89.319 Y133.696 E14.94331
G1 X88.971 Y133.697 E14.9572
G1 X87.183 Y133.672 E15.02857
G1 X84.263 Y133.676 E15.14511
G1 X83.043 Y133.696 E15.19381
G1 X82.704 Y133.697 E15.20734
G1 X80.902 Y133.672 E15.27927
G1 X77.979 Y133.676 E15.39593
G1 X76.759 Y133.696 E15.44463
G1 X76.42 Y133.697 E15.45816
G1 X74.618 Y133.672 E15.53009
G1 X71.695 Y133.676 E15.64675
G1 X70.476 Y133.696 E15.69541
G1 X70.137 Y133.697 E15.70894
G1 X68.335 Y133.672 E15.78087
G1 X65.417 Y133.676 E15.89734
G1 X64.217 Y133.696 E15.94524
G1 X63.87 Y133.697 E15.95909
G1 X62.063 Y133.671 E16.03122
G1 X59.075 Y133.676 E16.15047
G1 X57.903 Y133.696 E16.19726
G1 X57.555 Y133.697 E16.21115
G1 X55.767 Y133.672 E16.28252
G1 X52.847 Y133.676 E16.39906
G1 X51.627 Y133.696 E16.44776
G1 X51.288 Y133.697 E16.46129
G1 X49.486 Y133.672 E16.53322
G1 X46.564 Y133.676 E16.64984
G1 X45.344 Y133.696 E16.69854
G1 X45.005 Y133.697 E16.71207
G1 X43.203 Y133.672 E16.784
G1 X40.28 Y133.676 E16.90066
G1 X39.06 Y133.696 E16.94936
G1 X38.721 Y133.697 E16.96289
G1 X36.919 Y133.672 E17.03482
G1 X33.996 Y133.676 E17.15149
G1 X32.777 Y133.696 E17.20015
G1 X32.438 Y133.697 E17.21368
G1 X30.636 Y133.672 E17.2856
G1 X27.718 Y133.676 E17.40207
G1 X26.518 Y133.696 E17.44997
G1 X26.171 Y133.697 E17.46382
G1 X24.364 Y133.671 E17.53595
G1 X21.38 Y133.676 E17.65505
G1 X20.219 Y133.696 E17.70139
G1 X19.856 Y133.697 E17.71588
G1 X19.326 Y133.689 E17.73703
G1 X18.381 Y133.634 E17.77482
G1 X17.444 Y133.501 E17.81259
G1 X16.522 Y133.288 E17.85036
G1 X15.621 Y132.999 E17.88812
G1 X14.748 Y132.634 E17.92589
G1 X13.682 Y132.064 E17.97413
G1 X12.867 Y131.522 E18.0132
G1 X12.127 Y130.932 E18.05097
G1 X11.439 Y130.282 E18.08875
G1 X10.808 Y129.577 E18.12651
G1 X10.239 Y128.82 E18.16431
G1 X9.616 Y127.801 E18.21198
G1 X8.379 Y125.514 E18.31575
G1 X7.468 Y123.937 E18.38844
G1 X7.202 Y123.461 E18.41021
G1 X6.776 Y122.616 E18.44798
G1 X6.422 Y121.738 E18.48576
G1 X6.144 Y120.833 E18.52355
G1 X5.943 Y119.908 E18.56133
G1 X5.821 Y118.97 E18.59908
G1 X5.784 Y118.339 E18.62431
G1 X5.774 Y118.012 E18.63736
G1 X5.769 Y117.67 E18.65102
G1 X5.77 Y113.022 E18.83653
G1 X5.779 Y112.357 E18.86307
G1 X5.832 Y111.413 E18.90081
G1 X5.964 Y110.475 E18.93861
G1 X6.175 Y109.553 E18.97636
G1 X6.463 Y108.652 E19.01412
G1 X6.826 Y107.778 E19.05189
G1 X7.262 Y106.937 E19.0897
G1 X7.767 Y106.137 E19.12746
G1 X8.338 Y105.382 E19.16524
G1 X8.97 Y104.678 E19.203
G1 X9.66 Y104.03 E19.24078
G1 X10.402 Y103.443 E19.27854
G1 X11.191 Y102.92 E19.31632
G1 X12.021 Y102.466 E19.35408
G1 X12.887 Y102.083 E19.39187
G1 X13.781 Y101.775 E19.42961
G1 X14.699 Y101.543 E19.4674
G1 X15.633 Y101.39 E19.50518
G0 F6000 X16.03 Y101.831
G1 F1200 X16.678 Y101.793 E19.53109
G1 X16.999 Y101.784 E19.5439
G1 X17.299 Y101.78 E19.55588
G1 X217.324 Y101.78 E27.53931
G1 X218.176 Y101.791 E27.57332
G1 X219.1 Y101.844 E27.61026
G1 X220.016 Y101.977 E27.6472
G1 X220.918 Y102.188 E27.68417
G1 X221.797 Y102.477 E27.7211
G1 X222.649 Y102.84 E27.75806
G1 X223.466 Y103.275 E27.79501
G1 X224.243 Y103.779 E27.83197
G1 X224.973 Y104.349 E27.86894
G1 X225.651 Y104.979 E27.90588
G1 X226.272 Y105.665 E27.94281
G1 X226.832 Y106.403 E27.97978
G1 X227.326 Y107.186 E28.01673
G1 X227.751 Y108.008 E28.05367
G1 X228.103 Y108.865 E28.09065
G1 X228.38 Y109.748 E28.12758
G1 X228.58 Y110.652 E28.16453
G1 X228.701 Y111.57 E28.20149
G1 X228.738 Y112.209 E28.22704
G1 X228.747 Y112.529 E28.23981
G1 X228.751 Y112.83 E28.25183
G1 X228.75 Y117.437 E28.4357
G1 X228.739 Y118.16 E28.46456
G1 X228.685 Y119.084 E28.50151
G1 X228.551 Y120.001 E28.53849
G1 X228.339 Y120.902 E28.57544
G1 X228.05 Y121.781 E28.61237
G1 X227.686 Y122.633 E28.64935
G1 X227.311 Y123.344 E28.68143
G1 X226.837 Y124.167 E28.71933
G1 X225.553 Y126.467 E28.82447
G1 X225.048 Y127.422 E28.86759
G1 X224.925 Y127.646 E28.87779
G1 X224.444 Y128.437 E28.91473
G1 X223.898 Y129.184 E28.95166
G1 X223.288 Y129.882 E28.98866
G1 X222.621 Y130.524 E29.02561
G1 X221.901 Y131.106 E29.06256
G1 X221.134 Y131.624 E29.0995
G1 X220.324 Y132.073 E29.13647
G1 X219.479 Y132.451 E29.17341
G1 X218.605 Y132.755 E29.21035
G1 X217.707 Y132.982 E29.24731
G1 X216.793 Y133.131 E29.28428
G1 X215.702 Y133.205 E29.32792
G1 X214.961 Y133.217 E29.3575
G1 X214.638 Y133.217 E29.37039
G1 X212.853 Y133.192 E29.44164
G1 X209.983 Y133.196 E29.55619
G1 X208.699 Y133.217 E29.60744
G1 X208.374 Y133.217 E29.62041
G1 X206.571 Y133.192 E29.69238
G1 X203.7 Y133.196 E29.80697
G1 X202.416 Y133.217 E29.85822
G1 X202.091 Y133.217 E29.8712
G1 X200.288 Y133.192 E29.94316
G1 X197.417 Y133.196 E30.05775
G1 X196.133 Y133.217 E30.10901
G1 X195.808 Y133.217 E30.12198
G1 X194.005 Y133.192 E30.19395
G1 X191.134 Y133.196 E30.30853
G1 X189.849 Y133.217 E30.35983
G1 X189.525 Y133.217 E30.37276
G1 X187.722 Y133.192 E30.44473
G1 X184.851 Y133.196 E30.55932
G1 X183.566 Y133.217 E30.61061
G1 X183.242 Y133.217 E30.62354
G1 X181.439 Y133.192 E30.69551
G1 X178.568 Y133.196 E30.8101
G1 X177.282 Y133.217 E30.86143
G1 X176.958 Y133.217 E30.87436
G1 X175.155 Y133.192 E30.94633
G1 X172.284 Y133.196 E31.06092
G1 X171 Y133.217 E31.11217
G1 X170.675 Y133.217 E31.12515
G1 X168.872 Y133.192 E31.19711
G1 X166.004 Y133.196 E31.31158
G1 X164.74 Y133.217 E31.36204
G1 X164.408 Y133.217 E31.37529
G1 X162.6 Y133.191 E31.44746
G1 X159.598 Y133.196 E31.56727
G1 X158.426 Y133.216 E31.61406
G1 X158.093 Y133.217 E31.62735
G1 X156.305 Y133.192 E31.69872
G1 X153.435 Y133.196 E31.81327
G1 X152.15 Y133.217 E31.86456
G1 X151.826 Y133.217 E31.87749
G1 X150.023 Y133.192 E31.94946
G1 X147.152 Y133.196 E32.06405
G1 X145.866 Y133.217 E32.11538
G1 X145.542 Y133.217 E32.12831
G1 X143.739 Y133.192 E32.20028
G1 X140.868 Y133.196 E32.31487
G1 X139.584 Y133.217 E32.36613
G1 X139.259 Y133.217 E32.3791
G1 X137.456 Y133.192 E32.45107
G1 X134.585 Y133.196 E32.56565
G1 X133.301 Y133.217 E32.61691
G1 X132.976 Y133.217 E32.62988
G1 X131.173 Y133.192 E32.70185
G1 X128.302 Y133.196 E32.81644
G1 X127.018 Y133.217 E32.86769
G1 X126.693 Y133.217 E32.88066
G1 X124.89 Y133.192 E32.95263
G1 X122.019 Y133.196 E33.06722
G1 X120.734 Y133.217 E33.11851
G1 X120.41 Y133.217 E33.13144
G1 X118.607 Y133.192 E33.20341
G1 X115.736 Y133.196 E33.318
G1 X114.451 Y133.217 E33.36929
G1 X114.127 Y133.217 E33.38222
G1 X112.324 Y133.192 E33.45419
G1 X109.453 Y133.196 E33.56878
G1 X108.167 Y133.217 E33.62012
G1 X107.843 Y133.217 E33.63305
G1 X106.04 Y133.192 E33.70502
G1 X103.169 Y133.196 E33.8196
G1 X101.885 Y133.217 E33.87086
G1 X101.56 Y133.217 E33.88383
G1 X99.757 Y133.192 E33.9558
G1 X96.889 Y133.196 E34.07027
G1 X95.625 Y133.217 E34.12072
G1 X95.293 Y133.217 E34.13397
G1 X93.485 Y133.191 E34.20614
G1 X90.483 Y133.196 E34.32596
G1 X89.311 Y133.216 E34.37274
G1 X88.978 Y133.217 E34.38603
G1 X87.19 Y133.192 E34.4574
G1 X84.32 Y133.196 E34.57195
G1 X83.035 Y133.217 E34.62324
G1 X82.711 Y133.217 E34.63618
G1 X80.908 Y133.192 E34.70814
G1 X78.037 Y133.196 E34.82273
G1 X76.751 Y133.217 E34.87407
G1 X76.427 Y133.217 E34.887
G1 X74.624 Y133.192 E34.95897
G1 X71.753 Y133.196 E35.07355
G1 X70.469 Y133.217 E35.12481
G1 X70.144 Y133.217 E35.13778
G1 X68.341 Y133.192 E35.20975
G1 X65.473 Y133.196 E35.32422
G1 X64.209 Y133.217 E35.37467
G1 X63.877 Y133.217 E35.38792
G1 X62.069 Y133.191 E35.46009
G1 X59.067 Y133.196 E35.57991
G1 X57.895 Y133.216 E35.62669
G1 X57.562 Y133.217 E35.63998
G1 X55.774 Y133.192 E35.71135
G1 X52.904 Y133.196 E35.8259
G1 X51.619 Y133.217 E35.87719
G1 X51.295 Y133.217 E35.89013
G1 X49.492 Y133.192 E35.96209
G1 X46.621 Y133.196 E36.07668
G1 X45.336 Y133.217 E36.12798
G1 X45.012 Y133.217 E36.14091
G1 X43.209 Y133.192 E36.21288
G1 X40.338 Y133.196 E36.32746
G1 X39.052 Y133.217 E36.3788
G1 X38.728 Y133.217 E36.39173
G1 X36.925 Y133.192 E36.4637
G1 X34.054 Y133.196 E36.57829
G1 X32.77 Y133.217 E36.62954
G1 X32.445 Y133.217 E36.64251
G1 X30.642 Y133.192 E36.71448
G1 X27.774 Y133.196 E36.82895
G1 X26.51 Y133.217 E36.8794
G1 X26.178 Y133.217 E36.89266
G1 X24.37 Y133.191 E36.96482
G1 X21.371 Y133.196 E37.08452
G1 X20.211 Y133.216 E37.13083
G1 X19.863 Y133.217 E37.14472
G1 X19.333 Y133.209 E37.16587
G1 X18.409 Y133.155 E37.20281
G1 X17.493 Y133.021 E37.23976
G1 X16.592 Y132.809 E37.2767
G1 X15.712 Y132.52 E37.31367
G1 X14.861 Y132.156 E37.35061
G1 X13.932 Y131.653 E37.39278
G1 X13.134 Y131.122 E37.43104
G1 X12.411 Y130.543 E37.46801
G1 X11.741 Y129.904 E37.50496
G1 X11.129 Y129.21 E37.54189
G1 X10.578 Y128.465 E37.57887
G1 X10.038 Y127.573 E37.62049
G1 X8.787 Y125.261 E37.72541
G1 X7.887 Y123.702 E37.79726
G1 X7.621 Y123.226 E37.81902
G1 X7.205 Y122.399 E37.85597
G1 X6.861 Y121.54 E37.8929
G1 X6.593 Y120.653 E37.92988
G1 X6.403 Y119.747 E37.96683
G1 X6.291 Y118.828 E38.00378
G1 X6.264 Y118.325 E38.02388
G1 X6.254 Y117.998 E38.03694
G1 X6.249 Y117.67 E38.05003
G1 X6.25 Y113.029 E38.23527
G1 X6.259 Y112.364 E38.26181
G1 X6.311 Y111.44 E38.29875
G1 X6.444 Y110.523 E38.33573
G1 X6.654 Y109.622 E38.37266
G1 X6.942 Y108.742 E38.40961
G1 X7.304 Y107.89 E38.44656
G1 X7.739 Y107.072 E38.48354
G1 X8.243 Y106.295 E38.5205
G1 X8.811 Y105.565 E38.55742
G1 X9.441 Y104.886 E38.59439
G1 X10.127 Y104.264 E38.63134
G1 X10.864 Y103.704 E38.66829
G1 X11.646 Y103.209 E38.70523
G1 X12.469 Y102.784 E38.7422
G1 X13.325 Y102.431 E38.77915
G1 X14.208 Y102.153 E38.8161
G1 X15.112 Y101.953 E38.85305
G1 X16.03 Y101.831 E38.89001
G0 F6000 X15.519 Y102.373
G1 F1200 X16.691 Y102.273 E38.93696
G1 X17.012 Y102.264 E38.94978
G1 X17.299 Y102.26 E38.96123
G1 X217.324 Y102.26 E46.94466
G1 X218.169 Y102.271 E46.97839
G1 X219.072 Y102.324 E47.01449
G1 X219.967 Y102.456 E47.0506
G1 X220.847 Y102.667 E47.08672
G1 X221.705 Y102.955 E47.12284
G1 X222.534 Y103.318 E47.15896
G1 X223.328 Y103.752 E47.19508
G1 X224.08 Y104.255 E47.23119
G1 X224.786 Y104.822 E47.26733
G1 X225.438 Y105.449 E47.30343
G1 X226.032 Y106.131 E47.33953
G1 X226.564 Y106.863 E47.37564
G1 X227.029 Y107.639 E47.41175
G1 X227.424 Y108.453 E47.44786
G1 X227.746 Y109.299 E47.48399
G1 X227.991 Y110.17 E47.5201
G1 X228.159 Y111.059 E47.55621
G1 X228.258 Y112.222 E47.6028
G1 X228.267 Y112.542 E47.61558
G1 X228.271 Y112.83 E47.62707
G1 X228.27 Y117.43 E47.81067
G1 X228.259 Y118.153 E47.83953
G1 X228.205 Y119.056 E47.87563
G1 X228.072 Y119.951 E47.91175
G1 X227.86 Y120.831 E47.94787
G1 X227.571 Y121.688 E47.98397
G1 X227.208 Y122.517 E48.02009
G1 X226.895 Y123.105 E48.04668
G1 X226.414 Y123.941 E48.08517
G1 X225.139 Y126.224 E48.18954
G1 X224.627 Y127.191 E48.23321
G1 X224.504 Y127.415 E48.24341
G1 X224.034 Y128.188 E48.27952
G1 X223.497 Y128.916 E48.31562
G1 X222.898 Y129.595 E48.35176
G1 X222.242 Y130.218 E48.38787
G1 X221.533 Y130.78 E48.42398
G1 X220.778 Y131.278 E48.46008
G1 X219.981 Y131.707 E48.4962
G1 X219.149 Y132.064 E48.53234
G1 X218.29 Y132.347 E48.56844
G1 X217.408 Y132.552 E48.60458
G1 X216.512 Y132.679 E48.6407
G1 X215.694 Y132.725 E48.6734
G1 X214.953 Y132.737 E48.70297
G1 X214.644 Y132.737 E48.71531
G1 X212.858 Y132.712 E48.7866
G1 X209.974 Y132.716 E48.9017
G1 X208.691 Y132.737 E48.95292
G1 X208.381 Y132.737 E48.96529
G1 X206.577 Y132.712 E49.0373
G1 X203.691 Y132.716 E49.15249
G1 X202.408 Y132.737 E49.2037
G1 X202.098 Y132.737 E49.21607
G1 X200.294 Y132.712 E49.28808
G1 X197.408 Y132.716 E49.40327
G1 X196.125 Y132.737 E49.45448
G1 X195.815 Y132.737 E49.46685
G1 X194.011 Y132.712 E49.53886
