;FLAVOR:Marlin
;TIME:414
;Filament used: 0.245508m
;Layer height: 0.2
;MINX:103.05
;MINY:99.8
;MINZ:0.2
;MAXX:131.95
;MAXY:135.2
;MAXZ:6.6
;Generated with Cura_SteamEngine 4.13.1
M140 S60
M105
M190 S60
M104 S210
M105
M109 S210
M82 ;absolute extrusion mode
; Ender 3 Custom Start G-code
G92 E0 ; Reset Extruder
G28 ; Home all axes
G1 Z2.0 F3000 ; Move Z Axis up little to prevent scratching of Heat Bed
G1 X0.1 Y20 Z0.3 F5000.0 ; Move to start position
G1 X0.1 Y200.0 Z0.3 F1500.0 E15 ; Draw the first line
G1 X0.4 Y200.0 Z0.3 F5000.0 ; Move to side a little
G1 X0.4 Y20 Z0.3 F1500.0 E30 ; Draw the second line
G92 E0 ; Reset Extruder
G1 Z2.0 F3000 ; Move Z Axis up little to prevent scratching of Heat Bed
G1 X5 Y20 Z0.3 F5000.0 ; Move over to prevent blob squish
G92 E0
G92 E0
G1 F2700 E-5
;LAYER_COUNT:33
;LAYER:0
M107
G0 F6000 X106.251 Y103.178 Z0.2
;TYPE:SKIRT
G1 F2700 E0
G1 F1200 X106.941 Y102.53 E0.03778
G1 X107.683 Y101.943 E0.07554
G1 X108.472 Y101.42 E0.11332
G1 X109.302 Y100.966 E0.15108
G1 X110.168 Y100.583 E0.18887
G1 X111.062 Y100.275 E0.22661
G1 X111.98 Y100.043 E0.26441
G1 X112.914 Y99.89 E0.30218
G1 X113.945 Y99.813 E0.34344
G1 X114.266 Y99.804 E0.35626
G1 X114.58 Y99.8 E0.36879
G1 X120.043 Y99.8 E0.58683
G1 X120.901 Y99.811 E0.62108
G1 X121.846 Y99.865 E0.65886
G1 X122.783 Y99.998 E0.69663
G1 X123.706 Y100.209 E0.73442
G1 X124.607 Y100.498 E0.77219
G1 X125.48 Y100.862 E0.80994
G1 X126.32 Y101.299 E0.84773
G1 X127.12 Y101.804 E0.88549
G1 X127.875 Y102.376 E0.9233
G1 X128.578 Y103.009 E0.96105
G1 X129.225 Y103.699 E0.9988
G1 X129.812 Y104.441 E1.03657
G1 X130.335 Y105.23 E1.07435
G1 X130.788 Y106.061 E1.11212
G1 X131.17 Y106.927 E1.1499
G1 X131.478 Y107.822 E1.18768
G1 X131.708 Y108.74 E1.22545
G1 X131.861 Y109.674 E1.26322
G1 X131.937 Y110.695 E1.30409
G1 X131.946 Y111.015 E1.31686
G1 X131.95 Y111.33 E1.32944
G1 X131.949 Y123.403 E1.8113
G1 X131.94 Y124.13 E1.84031
G1 X131.888 Y125.075 E1.87809
G1 X131.757 Y126.012 E1.91585
G1 X131.547 Y126.935 E1.95363
G1 X131.26 Y127.836 E1.99137
G1 X130.898 Y128.711 E2.02916
G1 X130.463 Y129.551 E2.06692
G1 X129.959 Y130.352 E2.10469
G1 X129.389 Y131.108 E2.14248
G1 X128.758 Y131.812 E2.18021
G1 X128.069 Y132.461 E2.21799
G1 X127.327 Y133.05 E2.2558
G1 X126.539 Y133.573 E2.29355
G1 X125.71 Y134.029 E2.33131
G1 X124.844 Y134.412 E2.36911
G1 X123.95 Y134.721 E2.40686
G1 X123.033 Y134.954 E2.44462
G1 X122.099 Y135.108 E2.4824
G1 X121.055 Y135.187 E2.52419
G1 X120.734 Y135.196 E2.53701
G1 X120.42 Y135.2 E2.54954
G1 X114.813 Y135.199 E2.77333
G1 X114.115 Y135.19 E2.80119
G1 X113.17 Y135.138 E2.83896
G1 X112.233 Y135.006 E2.87673
G1 X111.31 Y134.796 E2.91451
G1 X110.408 Y134.508 E2.9523
G1 X109.534 Y134.146 E2.99006
G1 X108.694 Y133.71 E3.02783
G1 X107.893 Y133.206 E3.0656
G1 X107.138 Y132.636 E3.10336
G1 X106.433 Y132.004 E3.14115
G1 X105.785 Y131.314 E3.17893
G1 X105.197 Y130.573 E3.21668
G1 X104.674 Y129.784 E3.25447
G1 X104.219 Y128.954 E3.29224
G1 X103.836 Y128.089 E3.33
G1 X103.527 Y127.194 E3.36779
G1 X103.295 Y126.277 E3.40554
G1 X103.141 Y125.343 E3.44332
G1 X103.063 Y124.294 E3.48531
G1 X103.054 Y123.961 E3.4986
G1 X103.05 Y123.658 E3.5107
G1 X103.051 Y111.522 E3.99507
G1 X103.06 Y110.857 E4.02162
G1 X103.113 Y109.913 E4.05935
G1 X103.245 Y108.975 E4.09716
G1 X103.456 Y108.053 E4.13491
G1 X103.744 Y107.152 E4.17266
G1 X104.107 Y106.278 E4.21043
G1 X104.543 Y105.437 E4.24824
G1 X105.048 Y104.637 E4.286
G1 X105.619 Y103.882 E4.32378
G1 X106.251 Y103.178 E4.36154
G0 F6000 X106.722 Y103.386
G1 F1200 X107.408 Y102.764 E4.3985
G1 X108.145 Y102.204 E4.43545
G1 X108.927 Y101.709 E4.47238
G1 X109.75 Y101.284 E4.50935
G1 X110.606 Y100.931 E4.54631
G1 X111.489 Y100.653 E4.58326
G1 X112.393 Y100.453 E4.62021
G1 X113.311 Y100.331 E4.65717
G1 X113.959 Y100.293 E4.68308
G1 X114.28 Y100.284 E4.6959
G1 X114.58 Y100.28 E4.70787
G1 X120.043 Y100.28 E4.92591
G1 X120.895 Y100.291 E4.95992
G1 X121.819 Y100.344 E4.99686
G1 X122.735 Y100.477 E5.0338
G1 X123.637 Y100.688 E5.07077
G1 X124.516 Y100.977 E5.1077
G1 X125.368 Y101.34 E5.14467
G1 X126.185 Y101.775 E5.18161
G1 X126.962 Y102.279 E5.21857
G1 X127.692 Y102.849 E5.25554
G1 X128.37 Y103.479 E5.29248
G1 X128.991 Y104.165 E5.32941
G1 X129.551 Y104.903 E5.36639
G1 X130.045 Y105.686 E5.40334
G1 X130.47 Y106.508 E5.44027
G1 X130.822 Y107.365 E5.47725
G1 X131.099 Y108.248 E5.51418
G1 X131.299 Y109.152 E5.55114
G1 X131.42 Y110.07 E5.58809
G1 X131.457 Y110.709 E5.61364
G1 X131.466 Y111.029 E5.62642
G1 X131.47 Y111.33 E5.63843
G1 X131.469 Y123.397 E6.12005
G1 X131.46 Y124.124 E6.14907
G1 X131.409 Y125.048 E6.186
G1 X131.278 Y125.965 E6.22298
G1 X131.068 Y126.866 E6.2599
G1 X130.782 Y127.747 E6.29687
G1 X130.42 Y128.599 E6.33382
G1 X129.986 Y129.417 E6.37078
G1 X129.484 Y130.195 E6.40773
G1 X128.916 Y130.926 E6.44468
G1 X128.287 Y131.605 E6.48162
G1 X127.602 Y132.228 E6.51858
G1 X126.865 Y132.789 E6.55554
G1 X126.083 Y133.285 E6.5925
G1 X125.261 Y133.711 E6.62946
G1 X124.406 Y134.065 E6.66639
G1 X123.523 Y134.344 E6.70335
G1 X122.619 Y134.545 E6.74031
G1 X121.702 Y134.668 E6.77724
G1 X121.041 Y134.707 E6.80367
G1 X120.72 Y134.716 E6.81648
G1 X120.42 Y134.72 E6.82846
G1 X114.819 Y134.719 E7.05201
G1 X114.121 Y134.71 E7.07987
G1 X113.196 Y134.658 E7.11684
G1 X112.28 Y134.527 E7.15378
G1 X111.378 Y134.317 E7.19074
G1 X110.498 Y134.03 E7.22768
G1 X109.646 Y133.668 E7.26463
G1 X108.828 Y133.233 E7.30161
G1 X108.051 Y132.73 E7.33855
G1 X107.32 Y132.162 E7.3755
G1 X106.641 Y131.533 E7.41244
G1 X106.018 Y130.847 E7.44942
G1 X105.458 Y130.111 E7.48634
G1 X104.962 Y129.329 E7.5233
G1 X104.536 Y128.506 E7.56028
G1 X104.183 Y127.651 E7.5972
G1 X103.905 Y126.768 E7.63415
G1 X103.704 Y125.864 E7.67111
G1 X103.582 Y124.946 E7.70807
G1 X103.543 Y124.281 E7.73466
G1 X103.534 Y123.948 E7.74796
G1 X103.53 Y123.658 E7.75953
G1 X103.531 Y111.529 E8.24363
G1 X103.54 Y110.864 E8.27017
G1 X103.592 Y109.94 E8.30711
G1 X103.725 Y109.023 E8.34409
G1 X103.935 Y108.122 E8.38102
G1 X104.223 Y107.242 E8.41797
G1 X104.585 Y106.39 E8.45492
G1 X105.02 Y105.572 E8.4919
G1 X105.524 Y104.795 E8.52886
G1 X106.092 Y104.065 E8.56578
G1 X106.722 Y103.386 E8.60275
G0 F6000 X107.192 Y103.599
G1 F1200 X107.874 Y103.004 E8.63887
G1 X108.605 Y102.471 E8.67498
G1 X109.381 Y102.006 E8.71108
G1 X110.195 Y101.61 E8.74721
G1 X111.041 Y101.288 E8.78334
G1 X111.911 Y101.042 E8.81943
G1 X112.8 Y100.873 E8.85554
G1 X113.972 Y100.773 E8.90249
G1 X114.293 Y100.764 E8.91531
G1 X114.58 Y100.76 E8.92676
G1 X120.043 Y100.76 E9.1448
G1 X120.888 Y100.771 E9.17853
G1 X121.791 Y100.824 E9.21463
G1 X122.686 Y100.956 E9.25074
G1 X123.566 Y101.167 E9.28686
G1 X124.424 Y101.455 E9.32298
G1 X125.253 Y101.818 E9.3591
G1 X126.047 Y102.252 E9.39522
G1 X126.799 Y102.755 E9.43133
G1 X127.505 Y103.322 E9.46747
G1 X128.157 Y103.949 E9.50357
G1 X128.751 Y104.631 E9.53967
G1 X129.283 Y105.363 E9.57578
G1 X129.748 Y106.139 E9.61189
G1 X130.143 Y106.953 E9.648
G1 X130.465 Y107.799 E9.68413
G1 X130.71 Y108.67 E9.72024
G1 X130.878 Y109.559 E9.75635
G1 X130.977 Y110.722 E9.80294
G1 X130.986 Y111.042 E9.81572
G1 X130.99 Y111.33 E9.82721
G1 X130.989 Y123.391 E10.30859
G1 X130.98 Y124.118 E10.33761
G1 X130.929 Y125.021 E10.37371
G1 X130.798 Y125.917 E10.40985
G1 X130.589 Y126.797 E10.44595
G1 X130.303 Y127.655 E10.48205
G1 X129.942 Y128.485 E10.51817
G1 X129.509 Y129.28 E10.5543
G1 X129.008 Y130.033 E10.5904
G1 X128.443 Y130.74 E10.62652
G1 X127.817 Y131.393 E10.66263
G1 X127.136 Y131.989 E10.69875
G1 X126.405 Y132.522 E10.73486
G1 X125.629 Y132.989 E10.771
G1 X124.816 Y133.385 E10.8071
G1 X123.971 Y133.708 E10.8432
G1 X123.1 Y133.956 E10.87935
G1 X122.211 Y134.125 E10.91546
G1 X121.028 Y134.227 E10.96286
G1 X120.707 Y134.236 E10.97567
G1 X120.42 Y134.24 E10.98713
G1 X114.825 Y134.239 E11.21044
G1 X114.127 Y134.23 E11.2383
G1 X113.224 Y134.179 E11.2744
G1 X112.328 Y134.047 E11.31054
G1 X111.448 Y133.838 E11.34664
G1 X110.59 Y133.551 E11.38275
G1 X109.76 Y133.19 E11.41888
G1 X108.966 Y132.757 E11.45497
G1 X108.212 Y132.255 E11.49113
G1 X107.506 Y131.689 E11.52724
G1 X106.853 Y131.063 E11.56335
G1 X106.258 Y130.382 E11.59944
G1 X105.725 Y129.65 E11.63558
G1 X105.259 Y128.875 E11.67167
G1 X104.863 Y128.061 E11.7078
G1 X104.54 Y127.216 E11.74391
G1 X104.293 Y126.345 E11.78004
G1 X104.124 Y125.456 E11.81616
G1 X104.023 Y124.268 E11.86375
G1 X104.014 Y123.935 E11.87704
G1 X104.01 Y123.658 E11.8881
G1 X104.011 Y111.535 E12.37195
G1 X104.02 Y110.87 E12.3985
G1 X104.072 Y109.967 E12.4346
G1 X104.204 Y109.072 E12.47071
G1 X104.414 Y108.192 E12.50682
G1 X104.701 Y107.334 E12.54292
G1 X105.063 Y106.504 E12.57907
G1 X105.497 Y105.71 E12.61518
G1 X105.999 Y104.957 E12.6513
G1 X106.565 Y104.252 E12.68739
G1 X107.192 Y103.599 E12.72352
G1 F2700 E7.72352
;MESH:End__Course__Trigger.STL
G0 F6000 X113.85 Y110.601
G0 X114.704 Y111.454
G0 X116.592 Y121.658
G0 X118.59 Y121.84
;TYPE:WALL-INNER
G1 F2700 E12.72352
G1 F1200 X116.41 Y121.84 E12.81053
G1 X116.41 Y113.16 E13.15696
G1 X118.59 Y113.16 E13.24397
G1 X118.59 Y121.84 E13.59041
G0 F6000 X119.07 Y122.32
G1 F1200 X115.93 Y122.32 E13.71573
G1 X115.93 Y112.68 E14.10049
G1 X119.07 Y112.68 E14.22581
G1 X119.07 Y122.32 E14.61056
G0 F6000 X119.55 Y122.8
G1 F1200 X115.45 Y122.8 E14.7742
G1 X115.45 Y112.2 E15.19727
G1 X119.55 Y112.2 E15.36091
G1 X119.55 Y122.8 E15.78398
G0 F6000 X120.03 Y123.28
G1 F1200 X114.97 Y123.28 E15.98594
G1 X114.97 Y111.72 E16.44732
G1 X120.03 Y111.72 E16.64928
G1 X120.03 Y123.28 E17.11066
G0 F6000 X120.51 Y123.76
;TYPE:WALL-OUTER
G1 F1200 X114.49 Y123.76 E17.35093
G1 X114.49 Y111.24 E17.85063
G1 X120.51 Y111.24 E18.0909
G1 X120.51 Y123.76 E18.59061
G0 F6000 X120.24 Y123.49
G0 X118.48 Y121.37
G0 X118.12 Y121.37
;TYPE:SKIN
G1 F1200 X116.88 Y121.37 E18.6401
G1 X116.88 Y113.63 E18.94902
G1 X118.12 Y113.63 E18.99851
G1 X118.12 Y121.37 E19.30743
G0 F6000 X117.6 Y121.17
G1 F1200 X117.6 Y113.83 E19.60038
G0 F6000 X117.12 Y113.83
G1 F1200 X117.12 Y121.17 E19.89334
G0 F6000 X117.12 Y122.11
;MESH:NONMESH
G0 F300 X117.12 Y122.11 Z0.4
G0 F6000 X118.95 Y122.2
;TIME_ELAPSED:31.613117
;LAYER:1
M106 S85
;TYPE:WALL-INNER
;MESH:End__Course__Trigger.STL
G1 F1309.2 X116.05 Y122.2 E19.98979
G1 X116.05 Y112.8 E20.30244
G1 X118.95 Y112.8 E20.39889
G1 X118.95 Y122.2 E20.71154
G0 F8250 X119.35 Y122.6
G1 F1309.2 X115.65 Y122.6 E20.8346
G1 X115.65 Y112.4 E21.17385
G1 X119.35 Y112.4 E21.29692
G1 X119.35 Y122.6 E21.63617
G0 F8250 X119.75 Y123
G1 F1309.2 X115.25 Y123 E21.78584
G1 X115.25 Y112 E22.1517
G1 X119.75 Y112 E22.30137
G1 X119.75 Y123 E22.66723
G0 F8250 X120.15 Y123.4
G1 F1309.2 X114.85 Y123.4 E22.84351
G1 X114.85 Y111.6 E23.23598
G1 X120.15 Y111.6 E23.41226
G1 X120.15 Y123.4 E23.80473
G0 F8250 X120.55 Y123.8
;TYPE:WALL-OUTER
G1 F1309.2 X114.45 Y123.8 E24.00762
G1 X114.45 Y111.2 E24.42669
G1 X120.55 Y111.2 E24.62958
G1 X120.55 Y123.8 E25.04866
G0 F8250 X120.28 Y123.53
G0 X118.84 Y121.81
G0 X118.56 Y121.81
;TYPE:SKIN
G1 F1309.2 X116.44 Y121.81 E25.11917
G1 X116.44 Y113.19 E25.40587
G1 X118.56 Y113.19 E25.47638
G1 X118.56 Y121.81 E25.76309
G0 F8250 X118.84 Y121.81
G0 X118.84 Y113.6
G0 X118.4 Y113.6
G1 F1309.2 X116.6 Y113.6 E25.82296
G0 F8250 X116.6 Y114
G1 F1309.2 X118.4 Y114 E25.88282
G0 F8250 X118.4 Y114.4
G1 F1309.2 X116.6 Y114.4 E25.94269
G0 F8250 X116.6 Y114.8
G1 F1309.2 X118.4 Y114.8 E26.00256
G0 F8250 X118.4 Y115.2
G1 F1309.2 X116.6 Y115.2 E26.06243
G0 F8250 X116.6 Y115.6
G1 F1309.2 X118.4 Y115.6 E26.1223
G0 F8250 X118.4 Y116
G1 F1309.2 X116.6 Y116 E26.18216
G0 F8250 X116.6 Y116.4
G1 F1309.2 X118.4 Y116.4 E26.24203
G0 F8250 X118.4 Y116.8
G1 F1309.2 X116.6 Y116.8 E26.3019
G0 F8250 X116.6 Y117.2
G1 F1309.2 X118.4 Y117.2 E26.36177
G0 F8250 X118.4 Y117.6
G1 F1309.2 X116.6 Y117.6 E26.42164
G0 F8250 X116.6 Y118
G1 F1309.2 X118.4 Y118 E26.48151
G0 F8250 X118.4 Y118.4
G1 F1309.2 X116.6 Y118.4 E26.54137
G0 F8250 X116.6 Y118.8
G1 F1309.2 X118.4 Y118.8 E26.60124
G0 F8250 X118.399 Y119.2
G1 F1309.2 X116.599 Y119.2 E26.66111
G0 F8250 X116.599 Y119.6
G1 F1309.2 X118.399 Y119.6 E26.72098
G0 F8250 X118.399 Y120
G1 F1309.2 X116.599 Y120 E26.78085
G0 F8250 X116.599 Y120.4
G1 F1309.2 X118.399 Y120.4 E26.84072
G0 F8250 X118.399 Y120.8
G1 F1309.2 X116.599 Y120.8 E26.90058
G0 F8250 X116.599 Y121.2
G1 F1309.2 X118.399 Y121.2 E26.96045
G0 F8250 X118.399 Y121.6
G1 F1309.2 X116.599 Y121.6 E27.02032
G0 F8250 X115.86 Y121.6
;MESH:NONMESH
G0 F300 X115.86 Y121.6 Z0.6
G0 F8250 X116.232 Y122.018
G0 X118.95 Y122.2
;TIME_ELAPSED:44.195906
;LAYER:2
M106 S170
;TYPE:WALL-INNER
;MESH:End__Course__Trigger.STL
G1 F1265.9 X116.05 Y122.2 E27.11677
G1 X116.05 Y112.8 E27.42942
G1 X118.95 Y112.8 E27.52587
G1 X118.95 Y122.2 E27.83852
G0 F10500 X119.35 Y122.6
G1 F1265.9 X115.65 Y122.6 E27.96158
G1 X115.65 Y112.4 E28.30084
G1 X119.35 Y112.4 E28.4239
G1 X119.35 Y122.6 E28.76315
G0 F10500 X119.75 Y123
G1 F1265.9 X115.25 Y123 E28.91282
G1 X115.25 Y112 E29.27868
G1 X119.75 Y112 E29.42835
G1 X119.75 Y123 E29.79422
G0 F10500 X120.15 Y123.4
G1 F1265.9 X114.85 Y123.4 E29.97049
G1 X114.85 Y111.6 E30.36296
G1 X120.15 Y111.6 E30.53924
G1 X120.15 Y123.4 E30.93171
G0 F10500 X120.55 Y123.8
;TYPE:WALL-OUTER
G1 F1265.9 X114.45 Y123.8 E31.1346
G1 X114.45 Y111.2 E31.55368
G1 X120.55 Y111.2 E31.75656
G1 X120.55 Y123.8 E32.17564
G0 F10500 X120.28 Y123.53
G0 X118.84 Y121.81
G0 X118.56 Y121.81
;TYPE:SKIN
G1 F1265.9 X116.44 Y121.81 E32.24615
G1 X116.44 Y113.19 E32.53285
G1 X118.56 Y113.19 E32.60337
G1 X118.56 Y121.81 E32.89007
G0 F10500 X118 Y121.65
G1 F1265.9 X118 Y113.35 E33.16613
G0 F10500 X117.6 Y113.35
G1 F1265.9 X117.6 Y121.65 E33.44219
G0 F10500 X117.2 Y121.65
G1 F1265.9 X117.2 Y113.35 E33.71825
G0 F10500 X116.8 Y113.35
G1 F1265.9 X116.8 Y121.65 E33.99431
G0 F10500 X116.8 Y122.39
;MESH:NONMESH
G0 F300 X116.8 Y122.39 Z0.8
G0 F10500 X118.95 Y122.2
;TIME_ELAPSED:55.466333
;LAYER:3
M106 S255
;TYPE:WALL-INNER
;MESH:End__Course__Trigger.STL
G1 F1304.3 X116.05 Y122.2 E34.09076
G1 X116.05 Y112.8 E34.4034
G1 X118.95 Y112.8 E34.49986
G1 X118.95 Y122.2 E34.8125
G0 F10500 X119.35 Y122.6
G1 F1304.3 X115.65 Y122.6 E34.93557
G1 X115.65 Y112.4 E35.27482
G1 X119.35 Y112.4 E35.39788
G1 X119.35 Y122.6 E35.73714
G0 F10500 X119.75 Y123
G1 F1304.3 X115.25 Y123 E35.88681
G1 X115.25 Y112 E36.25267
G1 X119.75 Y112 E36.40234
G1 X119.75 Y123 E36.7682
G0 F10500 X120.15 Y123.4
G1 F1304.3 X114.85 Y123.4 E36.94448
G1 X114.85 Y111.6 E37.33695
G1 X120.15 Y111.6 E37.51323
G1 X120.15 Y123.4 E37.9057
G0 F10500 X120.55 Y123.8
;TYPE:WALL-OUTER
G1 F1304.3 X114.45 Y123.8 E38.10858
G1 X114.45 Y111.2 E38.52766
G1 X120.55 Y111.2 E38.73055
G1 X120.55 Y123.8 E39.14963
G0 F10500 X120.28 Y123.53
G0 X118.84 Y121.81
G0 X118.56 Y121.81
;TYPE:SKIN
G1 F1304.3 X116.44 Y121.81 E39.22014
G1 X116.44 Y113.19 E39.50684
G1 X118.56 Y113.19 E39.57735
G1 X118.56 Y121.81 E39.86405
G0 F10500 X118.84 Y121.81
G0 X118.84 Y113.6
G0 X118.4 Y113.6
G1 F1304.3 X116.6 Y113.6 E39.92392
G0 F10500 X116.6 Y114
G1 F1304.3 X118.4 Y114 E39.98379
G0 F10500 X118.4 Y114.4
G1 F1304.3 X116.6 Y114.4 E40.04366
G0 F10500 X116.6 Y114.8
G1 F1304.3 X118.4 Y114.8 E40.10353
G0 F10500 X118.4 Y115.2
G1 F1304.3 X116.6 Y115.2 E40.16339
G0 F10500 X116.6 Y115.6
G1 F1304.3 X118.4 Y115.6 E40.22326
G0 F10500 X118.4 Y116
G1 F1304.3 X116.6 Y116 E40.28313
G0 F10500 X116.6 Y116.4
G1 F1304.3 X118.4 Y116.4 E40.343
G0 F10500 X118.4 Y116.8
G1 F1304.3 X116.6 Y116.8 E40.40287
G0 F10500 X116.6 Y117.2
G1 F1304.3 X118.4 Y117.2 E40.46274
G0 F10500 X118.4 Y117.6
G1 F1304.3 X116.6 Y117.6 E40.5226
G0 F10500 X116.6 Y118
G1 F1304.3 X118.4 Y118 E40.58247
G0 F10500 X118.4 Y118.4
G1 F1304.3 X116.6 Y118.4 E40.64234
G0 F10500 X116.6 Y118.8
G1 F1304.3 X118.4 Y118.8 E40.70221
G0 F10500 X118.399 Y119.2
G1 F1304.3 X116.599 Y119.2 E40.76208
G0 F10500 X116.599 Y119.6
G1 F1304.3 X118.399 Y119.6 E40.82195
G0 F10500 X118.399 Y120
G1 F1304.3 X116.599 Y120 E40.88181
G0 F10500 X116.599 Y120.4
G1 F1304.3 X118.399 Y120.4 E40.94168
G0 F10500 X118.399 Y120.8
G1 F1304.3 X116.599 Y120.8 E41.00155
G0 F10500 X116.599 Y121.2
G1 F1304.3 X118.399 Y121.2 E41.06142
G0 F10500 X118.399 Y121.6
G1 F1304.3 X116.599 Y121.6 E41.12129
G0 F10500 X115.86 Y121.6
;MESH:NONMESH
G0 F300 X115.86 Y121.6 Z1
