;FLAVOR:Marlin
;TIME:1982
;Filament used: 1.4333m
;Layer height: 0.2
;MINX:78.663
;MINY:85.86
;MINZ:0.2
;MAXX:145.534
;MAXY:146.34
;MAXZ:6.6
;Generated with Cura_SteamEngine 4.13.1
M140 S60
M105
M190 S60
M104 S210
M105
M109 S210
M82 ;absolute extrusion mode
; Ender 3 Custom Start G-code
G92 E0 ; Reset Extruder
G28 ; Home all axes
G1 Z2.0 F3000 ; Move Z Axis up little to prevent scratching of Heat Bed
G1 X0.1 Y20 Z0.3 F5000.0 ; Move to start position
G1 X0.1 Y200.0 Z0.3 F1500.0 E15 ; Draw the first line
G1 X0.4 Y200.0 Z0.3 F5000.0 ; Move to side a little
G1 X0.4 Y20 Z0.3 F1500.0 E30 ; Draw the second line
G92 E0 ; Reset Extruder
G1 Z2.0 F3000 ; Move Z Axis up little to prevent scratching of Heat Bed
G1 X5 Y20 Z0.3 F5000.0 ; Move over to prevent blob squish
G92 E0
G92 E0
G1 F2700 E-5
;LAYER_COUNT:33
;LAYER:0
M107
G0 F6000 X82.563 Y102.521 Z0.2
;TYPE:SKIRT
G1 F2700 E0
G1 F1200 X83.305 Y101.934 E0.03776
G1 X84.095 Y101.412 E0.07555
G1 X84.666 Y101.09 E0.10172
G1 X85.038 Y100.896 E0.11846
G1 X87.025 Y99.891 E0.20733
G1 X89.201 Y98.712 E0.30611
G1 X91.41 Y97.433 E0.40799
G1 X93.533 Y96.123 E0.50756
G1 X95.618 Y94.755 E0.60709
G1 X97.705 Y93.296 E0.70872
G1 X99.699 Y91.819 E0.80776
G1 X101.681 Y90.261 E0.90838
G1 X103.895 Y88.42 E1.0233
G1 X104.65 Y87.85 E1.06106
G1 X105.451 Y87.346 E1.09883
G1 X106.292 Y86.912 E1.1366
G1 X107.166 Y86.55 E1.17436
G1 X108.068 Y86.263 E1.21214
G1 X108.991 Y86.053 E1.24992
G1 X109.928 Y85.921 E1.28769
G1 X110.695 Y85.873 E1.31836
G1 X111.014 Y85.864 E1.3311
G1 X111.33 Y85.86 E1.34371
G1 X123.293 Y85.86 E1.82118
G1 X124.154 Y85.871 E1.85555
G1 X125.099 Y85.925 E1.89333
G1 X126.036 Y86.058 E1.9311
G1 X126.958 Y86.269 E1.96885
G1 X127.859 Y86.558 E2.00661
G1 X128.733 Y86.922 E2.0444
G1 X129.573 Y87.358 E2.08218
G1 X130.373 Y87.864 E2.11996
G1 X131.127 Y88.435 E2.15771
G1 X131.83 Y89.068 E2.19546
G1 X132.478 Y89.758 E2.23324
G1 X133.065 Y90.501 E2.27103
G1 X133.441 Y91.054 E2.29772
G1 X134.14 Y92.154 E2.34974
G1 X134.227 Y92.296 E2.35639
G1 X135.582 Y94.364 E2.45507
G1 X137.051 Y96.475 E2.55771
G1 X138.524 Y98.471 E2.65672
G1 X140.065 Y100.438 E2.75645
G1 X141.691 Y102.397 E2.85807
G1 X141.967 Y102.711 E2.87475
G1 X142.831 Y103.72 E2.92777
G1 X143.416 Y104.464 E2.96554
G1 X143.936 Y105.255 E3.00333
G1 X144.387 Y106.087 E3.0411
G1 X144.766 Y106.954 E3.07886
G1 X145.071 Y107.85 E3.11664
G1 X145.299 Y108.769 E3.15443
G1 X145.448 Y109.703 E3.19218
G1 X145.519 Y110.661 E3.23052
G1 X145.529 Y110.986 E3.2435
G1 X145.534 Y111.33 E3.25723
G1 X145.533 Y123.429 E3.74013
G1 X145.523 Y124.151 E3.76895
G1 X145.47 Y125.096 E3.80672
G1 X145.337 Y126.033 E3.8445
G1 X145.126 Y126.955 E3.88225
G1 X144.838 Y127.857 E3.92004
G1 X144.474 Y128.731 E3.95782
G1 X144.038 Y129.571 E3.9956
G1 X143.533 Y130.371 E4.03336
G1 X142.962 Y131.125 E4.07111
G1 X142.081 Y132.075 E4.12282
G1 X141.261 Y132.861 E4.16815
G1 X140.792 Y133.298 E4.19374
G1 X139.011 Y135.055 E4.29359
G1 X137.266 Y136.876 E4.39425
G1 X135.565 Y138.755 E4.49541
G1 X133.963 Y140.629 E4.59381
G1 X133.119 Y141.674 E4.64743
G1 X132.63 Y142.265 E4.67804
G1 X131.997 Y142.968 E4.7158
G1 X131.306 Y143.615 E4.75358
G1 X130.563 Y144.201 E4.79135
G1 X129.753 Y144.735 E4.83007
G1 X128.922 Y145.187 E4.86783
G1 X128.055 Y145.567 E4.90561
G1 X127.16 Y145.873 E4.94336
G1 X126.242 Y146.103 E4.98113
G1 X125.307 Y146.253 E5.01893
G1 X124.305 Y146.327 E5.05903
G1 X123.984 Y146.336 E5.07184
G1 X123.67 Y146.34 E5.08438
G1 X111.548 Y146.339 E5.56819
G1 X110.845 Y146.329 E5.59625
G1 X109.9 Y146.275 E5.63403
G1 X108.963 Y146.142 E5.6718
G1 X108.04 Y145.931 E5.70959
G1 X107.139 Y145.642 E5.74736
G1 X106.266 Y145.278 E5.78511
G1 X105.426 Y144.842 E5.82288
G1 X104.894 Y144.517 E5.84777
G1 X104.457 Y144.23 E5.86863
G1 X102.847 Y143.141 E5.94621
G1 X100.682 Y141.767 E6.04855
G1 X98.552 Y140.498 E6.14751
G1 X96.38 Y139.285 E6.2468
G1 X94.116 Y138.104 E6.34872
G1 X91.87 Y137.011 E6.44841
G1 X89.579 Y135.976 E6.54875
G1 X87.281 Y135.015 E6.64816
G1 X86.783 Y134.822 E6.66948
G1 X85.692 Y134.383 E6.71642
G1 X84.83 Y133.993 E6.75418
G1 X84.004 Y133.532 E6.79193
G1 X83.219 Y133.002 E6.82974
G1 X82.482 Y132.408 E6.86752
G1 X81.798 Y131.754 E6.90529
G1 X81.172 Y131.045 E6.94304
G1 X80.608 Y130.285 E6.98081
G1 X80.11 Y129.481 E7.01856
G1 X79.681 Y128.637 E7.05634
G1 X79.325 Y127.76 E7.09412
G1 X79.045 Y126.856 E7.13189
G1 X78.842 Y125.932 E7.16965
G1 X78.718 Y124.994 E7.20741
G1 X78.678 Y124.34 E7.23357
G1 X78.668 Y124.017 E7.24646
G1 X78.663 Y123.67 E7.26031
G1 X78.664 Y111.536 E7.74461
G1 X78.674 Y110.844 E7.77223
G1 X78.728 Y109.899 E7.81001
G1 X78.861 Y108.962 E7.84778
G1 X79.073 Y108.04 E7.88554
G1 X79.362 Y107.139 E7.92331
G1 X79.726 Y106.265 E7.96109
G1 X80.162 Y105.426 E7.99883
G1 X80.668 Y104.626 E8.03661
G1 X81.239 Y103.871 E8.07439
G1 X81.873 Y103.168 E8.11218
G1 X82.563 Y102.521 E8.14993
G0 F6000 X83.029 Y102.755
G1 F1200 X83.767 Y102.195 E8.18691
G1 X84.889 Y101.515 E8.23927
G1 X85.255 Y101.325 E8.25573
G1 X87.228 Y100.327 E8.34398
G1 X89.44 Y99.129 E8.44438
G1 X91.661 Y97.843 E8.54681
G1 X93.765 Y96.545 E8.64548
G1 X95.914 Y95.134 E8.74809
G1 X97.943 Y93.716 E8.84689
G1 X100.016 Y92.18 E8.94986
G1 X101.985 Y90.632 E9.04983
G1 X104.2 Y88.791 E9.16478
G1 X104.94 Y88.234 E9.20175
G1 X105.725 Y87.743 E9.2387
G1 X106.549 Y87.322 E9.27563
G1 X107.407 Y86.973 E9.3126
G1 X108.291 Y86.7 E9.34953
G1 X109.196 Y86.504 E9.38649
G1 X110.115 Y86.387 E9.42346
G1 X110.709 Y86.353 E9.44721
G1 X111.028 Y86.344 E9.45995
G1 X111.33 Y86.34 E9.472
G1 X123.293 Y86.34 E9.94947
G1 X124.147 Y86.351 E9.98356
G1 X125.071 Y86.404 E10.0205
G1 X125.988 Y86.537 E10.05748
G1 X126.889 Y86.748 E10.09441
G1 X127.769 Y87.037 E10.13138
G1 X128.62 Y87.4 E10.16831
G1 X129.438 Y87.835 E10.20529
G1 X130.214 Y88.339 E10.24222
G1 X130.944 Y88.908 E10.27916
G1 X131.623 Y89.539 E10.31615
G1 X132.244 Y90.225 E10.35309
G1 X133.036 Y91.312 E10.40676
G1 X133.731 Y92.405 E10.45846
G1 X133.816 Y92.543 E10.46493
G1 X135.202 Y94.66 E10.56592
G1 X136.647 Y96.735 E10.66684
G1 X138.148 Y98.77 E10.76777
G1 X139.689 Y100.737 E10.8675
G1 X141.319 Y102.699 E10.9693
G1 X141.603 Y103.024 E10.98653
G1 X142.467 Y104.033 E11.03955
G1 X143.038 Y104.761 E11.07648
G1 X143.544 Y105.536 E11.11342
G1 X143.982 Y106.352 E11.15038
G1 X144.347 Y107.203 E11.18734
G1 X144.638 Y108.082 E11.22429
G1 X144.852 Y108.983 E11.26125
G1 X144.987 Y109.899 E11.29821
G1 X145.039 Y110.675 E11.32925
G1 X145.049 Y111 E11.34223
G1 X145.054 Y111.33 E11.3554
G1 X145.053 Y123.422 E11.83802
G1 X145.043 Y124.144 E11.86684
G1 X144.99 Y125.069 E11.90382
G1 X144.858 Y125.985 E11.94075
G1 X144.647 Y126.887 E11.97773
G1 X144.359 Y127.767 E12.01468
G1 X143.996 Y128.618 E12.05161
G1 X143.561 Y129.436 E12.08859
G1 X143.057 Y130.213 E12.12555
G1 X142.488 Y130.943 E12.16249
G1 X141.748 Y131.729 E12.20558
G1 X140.934 Y132.51 E12.2506
G1 X140.449 Y132.962 E12.27706
G1 X138.667 Y134.72 E12.37697
G1 X136.92 Y136.544 E12.47778
G1 X135.234 Y138.405 E12.578
G1 X133.582 Y140.337 E12.67946
G1 X132.749 Y141.368 E12.73236
G1 X132.26 Y141.959 E12.76298
G1 X131.64 Y142.646 E12.79991
G1 X130.962 Y143.277 E12.83688
G1 X130.233 Y143.847 E12.87381
G1 X129.506 Y144.323 E12.90849
G1 X128.693 Y144.765 E12.94543
G1 X127.844 Y145.135 E12.98239
G1 X126.966 Y145.43 E13.01936
G1 X126.067 Y145.648 E13.05628
G1 X125.151 Y145.788 E13.09327
G1 X124.291 Y145.847 E13.12767
G1 X123.97 Y145.856 E13.14049
G1 X123.67 Y145.86 E13.15246
G1 X111.555 Y145.859 E13.636
G1 X110.852 Y145.849 E13.66406
G1 X109.927 Y145.796 E13.70104
G1 X109.011 Y145.663 E13.73798
G1 X108.109 Y145.452 E13.77495
G1 X107.23 Y145.164 E13.81187
G1 X106.378 Y144.8 E13.84885
G1 X105.561 Y144.365 E13.88579
G1 X105.156 Y144.114 E13.90481
G1 X104.726 Y143.832 E13.92533
G1 X103.091 Y142.727 E14.0041
G1 X100.984 Y141.389 E14.10371
G1 X98.774 Y140.072 E14.20639
G1 X96.594 Y138.855 E14.30604
G1 X94.361 Y137.69 E14.40657
G1 X92.076 Y136.579 E14.50797
G1 X89.776 Y135.539 E14.60872
G1 X87.436 Y134.56 E14.70996
G1 X86.962 Y134.377 E14.73024
G1 X85.871 Y133.938 E14.77718
G1 X85.028 Y133.556 E14.81412
G1 X84.221 Y133.102 E14.85107
G1 X83.456 Y132.58 E14.88804
G1 X82.739 Y131.995 E14.92497
G1 X82.075 Y131.349 E14.96194
G1 X81.47 Y130.649 E14.99887
G1 X80.927 Y129.899 E15.03583
G1 X80.45 Y129.105 E15.0728
G1 X80.044 Y128.273 E15.10975
G1 X79.712 Y127.409 E15.14669
G1 X79.455 Y126.519 E15.18366
G1 X79.276 Y125.611 E15.2206
G1 X79.158 Y124.325 E15.27214
G1 X79.148 Y124.002 E15.28504
G1 X79.143 Y123.67 E15.29829
G1 X79.144 Y111.543 E15.78231
G1 X79.154 Y110.851 E15.80993
G1 X79.207 Y109.927 E15.84687
G1 X79.34 Y109.011 E15.88381
G1 X79.552 Y108.109 E15.92079
G1 X79.84 Y107.229 E15.95775
G1 X80.204 Y106.378 E15.99469
G1 X80.639 Y105.561 E16.03163
G1 X81.143 Y104.784 E16.0686
G1 X81.713 Y104.054 E16.10556
G1 X82.343 Y103.376 E16.1425
G1 X83.029 Y102.755 E16.17943
G0 F6000 X83.495 Y102.995
G1 F1200 X84.227 Y102.463 E16.21555
G1 X85.112 Y101.94 E16.25658
G1 X85.471 Y101.753 E16.27274
G1 X87.458 Y100.748 E16.36161
G1 X89.682 Y99.543 E16.46256
G1 X91.896 Y98.261 E16.56467
G1 X94.048 Y96.933 E16.6656
G1 X96.162 Y95.546 E16.76652
G1 X98.245 Y94.09 E16.86795
G1 X100.277 Y92.585 E16.96887
G1 X102.306 Y90.989 E17.07191
G1 X104.347 Y89.292 E17.17785
G1 X104.505 Y89.162 E17.18601
G1 X105.228 Y88.618 E17.22213
G1 X105.997 Y88.141 E17.25824
G1 X106.805 Y87.733 E17.29437
G1 X107.645 Y87.398 E17.33047
G1 X108.512 Y87.139 E17.36658
G1 X109.399 Y86.957 E17.40272
G1 X110.722 Y86.833 E17.45575
G1 X111.041 Y86.824 E17.46849
G1 X111.33 Y86.82 E17.48003
G1 X123.293 Y86.82 E17.9575
G1 X124.14 Y86.831 E17.99131
G1 X125.043 Y86.884 E18.02741
G1 X125.939 Y87.016 E18.06356
G1 X126.818 Y87.227 E18.09963
G1 X127.676 Y87.515 E18.13576
G1 X128.506 Y87.877 E18.1719
G1 X129.299 Y88.312 E18.208
G1 X130.052 Y88.814 E18.24412
G1 X130.757 Y89.381 E18.28023
G1 X131.409 Y90.008 E18.31633
G1 X132.004 Y90.69 E18.35245
G1 X132.631 Y91.569 E18.39555
G1 X133.322 Y92.657 E18.44699
G1 X133.41 Y92.8 E18.45369
G1 X134.794 Y94.915 E18.55457
G1 X136.254 Y97.011 E18.65652
G1 X137.772 Y99.068 E18.75856
G1 X139.313 Y101.036 E18.85832
G1 X140.94 Y102.995 E18.95996
G1 X141.238 Y103.336 E18.97803
G1 X142.102 Y104.345 E19.03105
G1 X142.66 Y105.057 E19.06715
G1 X143.152 Y105.816 E19.10325
G1 X143.576 Y106.616 E19.13939
G1 X143.927 Y107.45 E19.17551
G1 X144.203 Y108.312 E19.21163
G1 X144.403 Y109.194 E19.24773
G1 X144.523 Y110.091 E19.28385
G1 X144.559 Y110.69 E19.3078
G1 X144.569 Y111.015 E19.32078
G1 X144.574 Y111.33 E19.33335
G1 X144.573 Y123.416 E19.81573
G1 X144.563 Y124.138 E19.84455
G1 X144.511 Y125.041 E19.88065
G1 X144.378 Y125.936 E19.91676
G1 X144.168 Y126.816 E19.95287
G1 X143.881 Y127.674 E19.98898
G1 X143.518 Y128.504 E20.02514
G1 X143.085 Y129.298 E20.06123
G1 X142.582 Y130.05 E20.09734
G1 X142.016 Y130.756 E20.13346
G1 X141.416 Y131.383 E20.16809
G1 X140.606 Y132.159 E20.21287
G1 X140.124 Y132.609 E20.23918
G1 X138.323 Y134.386 E20.34017
G1 X136.581 Y136.203 E20.44063
G1 X134.87 Y138.092 E20.54235
G1 X133.201 Y140.045 E20.64489
G1 X132.38 Y141.062 E20.69705
G1 X131.891 Y141.653 E20.72767
G1 X131.283 Y142.324 E20.76381
G1 X130.619 Y142.939 E20.79993
G1 X129.904 Y143.492 E20.83601
G1 X129.259 Y143.912 E20.86673
G1 X128.464 Y144.343 E20.90282
G1 X127.633 Y144.701 E20.93894
G1 X126.774 Y144.986 E20.97506
G1 X125.893 Y145.193 E21.01118
G1 X124.997 Y145.321 E21.0473
G1 X124.278 Y145.367 E21.07606
G1 X123.957 Y145.376 E21.08888
G1 X123.67 Y145.38 E21.10033
G1 X111.561 Y145.379 E21.58363
G1 X110.858 Y145.369 E21.61169
G1 X109.955 Y145.316 E21.64779
G1 X109.06 Y145.184 E21.6839
G1 X108.18 Y144.973 E21.72002
G1 X107.322 Y144.685 E21.75614
G1 X106.493 Y144.323 E21.79224
G1 X105.418 Y143.712 E21.8416
G1 X104.995 Y143.435 E21.86178
G1 X103.351 Y142.323 E21.94099
G1 X101.23 Y140.977 E22.04125
G1 X99.012 Y139.656 E22.14429
G1 X96.835 Y138.44 E22.24381
G1 X94.55 Y137.248 E22.34668
G1 X92.269 Y136.138 E22.44792
G1 X89.987 Y135.107 E22.54787
G1 X87.621 Y134.117 E22.65023
G1 X87.141 Y133.932 E22.67077
G1 X86.05 Y133.493 E22.7177
G1 X85.227 Y133.118 E22.7538
G1 X84.439 Y132.672 E22.78994
G1 X83.694 Y132.159 E22.82604
G1 X82.998 Y131.582 E22.86212
G1 X82.354 Y130.945 E22.89828
G1 X81.77 Y130.254 E22.93439
G1 X81.249 Y129.514 E22.97051
G1 X80.795 Y128.731 E23.00663
G1 X80.412 Y127.911 E23.04275
G1 X80.103 Y127.061 E23.07885
G1 X79.871 Y126.187 E23.11494
G1 X79.716 Y125.295 E23.15108
G1 X79.638 Y124.31 E23.19051
G1 X79.628 Y123.987 E23.20341
G1 X79.623 Y123.67 E23.21607
G1 X79.624 Y111.55 E23.6998
G1 X79.634 Y110.858 E23.72742
G1 X79.687 Y109.955 E23.76353
G1 X79.82 Y109.06 E23.79964
G1 X80.031 Y108.18 E23.83576
G1 X80.319 Y107.322 E23.87188
G1 X80.681 Y106.493 E23.90798
G1 X81.116 Y105.699 E23.94412
G1 X81.618 Y104.947 E23.98021
G1 X82.185 Y104.241 E24.01635
G1 X82.813 Y103.589 E24.05248
G1 X83.495 Y102.995 E24.08857
G1 F2700 E19.08857
;MESH:End__Course__Trigger.STL(5)
G0 F6000 X89.463 Y110.601
G0 X90.317 Y111.454
G0 X92.205 Y121.658
G0 X94.203 Y121.84
;TYPE:WALL-INNER
G1 F2700 E24.08857
G1 F1200 X92.023 Y121.84 E24.17558
G1 X92.023 Y113.16 E24.52202
G1 X94.203 Y113.16 E24.60903
G1 X94.203 Y121.84 E24.95547
G0 F6000 X94.683 Y122.32
G1 F1200 X91.543 Y122.32 E25.08079
G1 X91.543 Y112.68 E25.46554
G1 X94.683 Y112.68 E25.59087
G1 X94.683 Y122.32 E25.97562
G0 F6000 X95.163 Y122.8
G1 F1200 X91.063 Y122.8 E26.13926
G1 X91.063 Y112.2 E26.56233
G1 X95.163 Y112.2 E26.72597
G1 X95.163 Y122.8 E27.14904
G0 F6000 X95.643 Y123.28
G1 F1200 X90.583 Y123.28 E27.35099
G1 X90.583 Y111.72 E27.81238
G1 X95.643 Y111.72 E28.01433
G1 X95.643 Y123.28 E28.47572
G0 F6000 X96.123 Y123.76
;TYPE:WALL-OUTER
G1 F1200 X90.103 Y123.76 E28.71599
G1 X90.103 Y111.24 E29.21569
G1 X96.123 Y111.24 E29.45596
G1 X96.123 Y123.76 E29.95566
G0 F6000 X95.853 Y123.49
G0 X94.093 Y121.37
G0 X93.733 Y121.37
;TYPE:SKIN
G1 F1200 X92.493 Y121.37 E30.00515
G1 X92.493 Y113.63 E30.31407
G1 X93.733 Y113.63 E30.36356
G1 X93.733 Y121.37 E30.67248
G0 F6000 X93.12 Y121.17
G1 F1200 X93.12 Y113.83 E30.96544
G0 F6000 X93.12 Y112.89
G1 F2700 E25.96544
;MESH:End__Course__Trigger.STL(1)
G0 F6000 X94.021 Y113.342
G0 X95.903 Y121.84
G0 X101.74 Y121.84
G0 X105.62 Y121.84
;TYPE:WALL-INNER
G1 F2700 E30.96544
G1 F1200 X103.44 Y121.84 E31.05245
G1 X103.44 Y113.16 E31.39889
G1 X105.62 Y113.16 E31.48589
G1 X105.62 Y121.84 E31.83233
G0 F6000 X106.1 Y122.32
G1 F1200 X102.96 Y122.32 E31.95766
G1 X102.96 Y112.68 E32.34241
G1 X106.1 Y112.68 E32.46773
G1 X106.1 Y122.32 E32.85249
G0 F6000 X106.58 Y122.8
G1 F1200 X102.48 Y122.8 E33.01613
G1 X102.48 Y112.2 E33.4392
G1 X106.58 Y112.2 E33.60284
G1 X106.58 Y122.8 E34.0259
G0 F6000 X107.06 Y123.28
G1 F1200 X102 Y123.28 E34.22786
G1 X102 Y111.72 E34.68924
G1 X107.06 Y111.72 E34.8912
G1 X107.06 Y123.28 E35.35258
G0 F6000 X107.54 Y123.76
;TYPE:WALL-OUTER
G1 F1200 X101.52 Y123.76 E35.59286
G1 X101.52 Y111.24 E36.09256
G1 X107.54 Y111.24 E36.33283
G1 X107.54 Y123.76 E36.83253
G0 F6000 X107.27 Y123.49
G0 X105.51 Y121.37
G0 X105.15 Y121.37
;TYPE:SKIN
G1 F1200 X103.91 Y121.37 E36.88202
G1 X103.91 Y113.63 E37.19094
G1 X105.15 Y113.63 E37.24043
G1 X105.15 Y121.37 E37.54935
G0 F6000 X104.64 Y121.17
G1 F1200 X104.64 Y113.83 E37.84231
G0 F6000 X104.16 Y113.83
G1 F1200 X104.16 Y121.17 E38.13526
G0 F6000 X104.16 Y122.11
G1 F2700 E33.13526
;MESH:End__Course__Trigger.STL
G0 F6000 X105.31 Y121.704
G0 X107.32 Y120.403
G0 X108.445 Y120.403
G0 X112.546 Y120.403
G0 X113.671 Y120.403
G0 X117.551 Y120.403
;TYPE:WALL-INNER
G1 F2700 E38.13526
G1 F1200 X115.371 Y120.403 E38.22227
G1 X115.371 Y111.723 E38.56871
G1 X117.551 Y111.723 E38.65572
G1 X117.551 Y120.403 E39.00215
G0 F6000 X118.031 Y120.883
G1 F1200 X114.891 Y120.883 E39.12748
G1 X114.891 Y111.243 E39.51223
G1 X118.031 Y111.243 E39.63755
G1 X118.031 Y120.883 E40.02231
G0 F6000 X118.511 Y121.363
G1 F1200 X114.411 Y121.363 E40.18595
G1 X114.411 Y110.763 E40.60902
G1 X118.511 Y110.763 E40.77266
G1 X118.511 Y121.363 E41.19572
G0 F6000 X118.991 Y121.843
G1 F1200 X113.931 Y121.843 E41.39768
G1 X113.931 Y110.283 E41.85907
G1 X118.991 Y110.283 E42.06102
G1 X118.991 Y121.843 E42.52241
G0 F6000 X119.471 Y122.323
;TYPE:WALL-OUTER
