;FLAVOR:Marlin
;TIME:6647
;Filament used: 4.61105m
;Layer height: 0.2
;MINX:93.3
;MINY:65.126
;MINZ:0.2
;MAXX:141.7
;MAXY:171.95
;MAXZ:60
;Generated with Cura_SteamEngine 4.13.1
M140 S60
M105
M190 S60
M104 S210
M105
M109 S210
M82 ;absolute extrusion mode
; Ender 3 Custom Start G-code
G92 E0 ; Reset Extruder
G28 ; Home all axes
G1 Z2.0 F3000 ; Move Z Axis up little to prevent scratching of Heat Bed
G1 X0.1 Y20 Z0.3 F5000.0 ; Move to start position
G1 X0.1 Y200.0 Z0.3 F1500.0 E15 ; Draw the first line
G1 X0.4 Y200.0 Z0.3 F5000.0 ; Move to side a little
G1 X0.4 Y20 Z0.3 F1500.0 E30 ; Draw the second line
G92 E0 ; Reset Extruder
G1 Z2.0 F3000 ; Move Z Axis up little to prevent scratching of Heat Bed
G1 X5 Y20 Z0.3 F5000.0 ; Move over to prevent blob squish
G92 E0
G92 E0
G1 F2700 E-5
;LAYER_COUNT:300
;LAYER:0
M107
G0 F6000 X100.958 Y70.067 Z0.2
;TYPE:SKIRT
G1 F2700 E0
G1 F1200 X101.53 Y69.313 E0.03777
G1 X102.242 Y68.529 E0.08004
G1 X102.354 Y68.417 E0.08636
G1 X103.051 Y67.777 E0.12413
G1 X103.8 Y67.198 E0.16192
G1 X104.594 Y66.684 E0.19967
G1 X105.43 Y66.239 E0.23747
G1 X106.299 Y65.866 E0.27521
G1 X107.197 Y65.568 E0.31297
G1 X108.118 Y65.347 E0.35078
G1 X109.053 Y65.204 E0.38853
G1 X109.896 Y65.143 E0.42226
G1 X110.286 Y65.133 E0.43783
G1 X110.833 Y65.127 E0.45967
G1 X124.019 Y65.126 E0.98595
G1 X124.885 Y65.137 E1.02051
G1 X125.829 Y65.19 E1.05825
G1 X126.766 Y65.323 E1.09602
G1 X127.689 Y65.535 E1.13382
G1 X128.59 Y65.824 E1.17159
G1 X129.464 Y66.187 E1.20936
G1 X130.304 Y66.624 E1.24715
G1 X131.104 Y67.129 E1.28491
G1 X131.858 Y67.7 E1.32266
G1 X132.646 Y68.416 E1.36515
G1 X132.758 Y68.528 E1.37148
G1 X133.398 Y69.225 E1.40924
G1 X133.977 Y69.974 E1.44703
G1 X134.491 Y70.768 E1.48478
G1 X134.936 Y71.604 E1.52258
G1 X135.309 Y72.473 E1.56032
G1 X135.607 Y73.371 E1.59809
G1 X135.828 Y74.292 E1.63589
G1 X135.971 Y75.227 E1.67364
G1 X136.031 Y76.04 E1.70618
G1 X136.042 Y76.445 E1.72235
G1 X136.049 Y77.067 E1.74717
G1 X136.048 Y92.666 E2.36976
G1 X136.085 Y95.286 E2.47434
G1 X136.191 Y97.796 E2.57461
G1 X136.37 Y100.313 E2.67533
G1 X136.617 Y102.803 E2.77519
G1 X136.933 Y105.277 E2.87474
G1 X137.327 Y107.781 E2.97591
G1 X137.782 Y110.229 E3.07529
G1 X138.307 Y112.669 E3.1749
G1 X138.909 Y115.126 E3.27587
G1 X139.574 Y117.541 E3.37584
G1 X140.639 Y120.957 E3.51865
G1 X141.016 Y122.088 E3.56624
G1 X141.272 Y122.976 E3.60312
G1 X141.324 Y123.189 E3.61187
G1 X141.51 Y124.117 E3.64965
G1 X141.588 Y124.726 E3.67415
G1 X141.637 Y125.214 E3.69373
G1 X141.692 Y126.171 E3.73199
G1 X141.7 Y126.817 E3.75777
G1 X141.699 Y158.205 E5.01054
G1 X141.689 Y158.896 E5.03812
G1 X141.663 Y159.506 E5.06249
G1 X141.648 Y159.723 E5.07117
G1 X141.612 Y160.146 E5.08811
G1 X141.48 Y161.083 E5.12588
G1 X141.327 Y161.783 E5.15448
G1 X141.234 Y162.153 E5.1697
G1 X140.965 Y163.06 E5.20746
G1 X140.593 Y164.003 E5.24792
G1 X140.498 Y164.215 E5.25719
G1 X140.308 Y164.618 E5.27498
G1 X139.858 Y165.451 E5.31276
G1 X139.548 Y165.94 E5.33587
G1 X139.352 Y166.233 E5.34994
G1 X138.793 Y166.997 E5.38773
G1 X138.059 Y167.828 E5.43198
G1 X137.818 Y168.075 E5.44575
G1 X137.129 Y168.723 E5.4835
G1 X136.354 Y169.337 E5.52297
G1 X136.067 Y169.544 E5.53709
G1 X135.276 Y170.064 E5.57487
G1 X134.365 Y170.556 E5.61619
G1 X134.059 Y170.703 E5.62974
G1 X133.536 Y170.937 E5.65261
G1 X132.206 Y171.401 E5.70883
G1 X131.902 Y171.486 E5.72143
G1 X130.981 Y171.702 E5.75919
G1 X130.021 Y171.842 E5.79791
G1 X129.638 Y171.881 E5.81327
G1 X128.669 Y171.938 E5.85202
G1 X127.759 Y171.95 E5.88834
G1 X107.045 Y171.949 E6.71508
G1 X106.354 Y171.939 E6.74266
G1 X105.722 Y171.912 E6.76791
G1 X105.497 Y171.896 E6.77691
G1 X105.13 Y171.864 E6.79162
G1 X104.192 Y171.734 E6.82941
G1 X103.413 Y171.564 E6.86123
G1 X103.035 Y171.467 E6.87681
G1 X102.129 Y171.193 E6.91459
G1 X101.256 Y170.846 E6.95208
G1 X101.052 Y170.755 E6.961
G1 X100.632 Y170.558 E6.97951
G1 X99.799 Y170.108 E7.0173
G1 X99.295 Y169.788 E7.04113
G1 X99.003 Y169.592 E7.05517
G1 X98.24 Y169.032 E7.09294
G1 X97.44 Y168.325 E7.13555
G1 X97.192 Y168.084 E7.14935
G1 X96.541 Y167.397 E7.18713
G1 X95.913 Y166.604 E7.2275
G1 X95.706 Y166.317 E7.24163
G1 X95.186 Y165.526 E7.27941
G1 X94.718 Y164.663 E7.31859
G1 X94.594 Y164.408 E7.32991
G1 X94.394 Y163.975 E7.34894
G1 X94.048 Y163.094 E7.38672
G1 X93.849 Y162.456 E7.4134
G1 X93.764 Y162.152 E7.42599
G1 X93.548 Y161.231 E7.46375
G1 X93.407 Y160.265 E7.50271
G1 X93.368 Y159.88 E7.51816
G1 X93.312 Y158.917 E7.55666
G1 X93.3 Y158.009 E7.5929
G1 X93.301 Y126.764 E8.83996
G1 X93.311 Y126.098 E8.86654
G1 X93.338 Y125.472 E8.89155
G1 X93.354 Y125.247 E8.90055
G1 X93.386 Y124.88 E8.91526
G1 X93.516 Y123.942 E8.95305
G1 X93.678 Y123.198 E8.98344
G1 X93.777 Y122.807 E8.99954
G1 X94.004 Y122.029 E9.03189
G1 X94.816 Y119.583 E9.13475
G1 X95.54 Y117.173 E9.23519
G1 X96.198 Y114.74 E9.33578
G1 X96.79 Y112.275 E9.43696
G1 X97.297 Y109.857 E9.53557
G1 X97.747 Y107.369 E9.63648
G1 X98.127 Y104.873 E9.73725
G1 X98.43 Y102.402 E9.83661
G1 X98.665 Y99.916 E9.93628
G1 X98.832 Y97.381 E10.03767
G1 X98.927 Y94.865 E10.13816
G1 X98.952 Y92.749 E10.22262
G1 X98.952 Y77.504 E10.83108
G1 X98.951 Y77.103 E10.84709
G1 X98.963 Y76.285 E10.87974
G1 X99.017 Y75.34 E10.91752
G1 X99.15 Y74.403 E10.95529
G1 X99.363 Y73.481 E10.99306
G1 X99.652 Y72.58 E11.03082
G1 X100.016 Y71.706 E11.06861
G1 X100.452 Y70.866 E11.10639
G1 X100.958 Y70.067 E11.14413
G0 F6000 X101.434 Y70.225
G1 F1200 X102.003 Y69.495 E11.18107
G1 X102.582 Y68.869 E11.21511
G1 X102.694 Y68.757 E11.22143
G1 X103.376 Y68.131 E11.25838
G1 X104.11 Y67.566 E11.29535
G1 X104.89 Y67.067 E11.3323
G1 X105.71 Y66.637 E11.36926
G1 X106.564 Y66.28 E11.4062
G1 X107.445 Y65.997 E11.44313
G1 X108.348 Y65.791 E11.4801
G1 X109.265 Y65.665 E11.51704
G1 X109.912 Y65.623 E11.54292
G1 X110.292 Y65.613 E11.55809
G1 X110.833 Y65.607 E11.57969
G1 X124.019 Y65.606 E12.10597
G1 X124.878 Y65.617 E12.14026
G1 X125.802 Y65.67 E12.1772
G1 X126.718 Y65.803 E12.21414
G1 X127.62 Y66.014 E12.25111
G1 X128.5 Y66.302 E12.28807
G1 X129.351 Y66.665 E12.32499
G1 X130.169 Y67.1 E12.36197
G1 X130.945 Y67.604 E12.3989
G1 X131.675 Y68.174 E12.43587
G1 X132.306 Y68.756 E12.47013
G1 X132.418 Y68.868 E12.47645
G1 X133.044 Y69.55 E12.5134
G1 X133.609 Y70.284 E12.55037
G1 X134.108 Y71.064 E12.58733
G1 X134.538 Y71.884 E12.62428
G1 X134.895 Y72.738 E12.66122
G1 X135.178 Y73.619 E12.69816
G1 X135.384 Y74.522 E12.73512
G1 X135.51 Y75.439 E12.77207
G1 X135.551 Y76.057 E12.79679
G1 X135.562 Y76.451 E12.81252
G1 X135.569 Y77.067 E12.83711
G1 X135.568 Y92.672 E13.45993
G1 X135.605 Y95.313 E13.56535
G1 X135.711 Y97.815 E13.6653
G1 X135.889 Y100.322 E13.76561
G1 X136.142 Y102.878 E13.86813
G1 X136.457 Y105.339 E13.96715
G1 X136.85 Y107.834 E14.06796
G1 X137.317 Y110.35 E14.1701
G1 X137.841 Y112.784 E14.26947
G1 X138.445 Y115.251 E14.37084
G1 X139.11 Y117.668 E14.47089
G1 X140.181 Y121.1 E14.61439
G1 X140.561 Y122.24 E14.66235
G1 X140.806 Y123.09 E14.69765
G1 X140.858 Y123.303 E14.7064
G1 X141.039 Y124.211 E14.74336
G1 X141.11 Y124.774 E14.76601
G1 X141.159 Y125.262 E14.78558
G1 X141.212 Y126.178 E14.8222
G1 X141.22 Y126.817 E14.84771
G1 X141.219 Y158.198 E16.10019
G1 X141.209 Y158.889 E16.12777
G1 X141.184 Y159.473 E16.1511
G1 X141.169 Y159.69 E16.15978
G1 X141.134 Y160.099 E16.17617
G1 X141.004 Y161.016 E16.21313
G1 X140.862 Y161.666 E16.23969
G1 X140.769 Y162.036 E16.25492
G1 X140.504 Y162.924 E16.2919
G1 X140.155 Y163.807 E16.3298
G1 X140.06 Y164.019 E16.33907
G1 X139.876 Y164.408 E16.35624
G1 X139.435 Y165.222 E16.39319
G1 X139.149 Y165.673 E16.41451
G1 X138.953 Y165.966 E16.42858
G1 X138.406 Y166.713 E16.46553
G1 X137.716 Y167.492 E16.50707
G1 X137.475 Y167.739 E16.52084
G1 X136.8 Y168.374 E16.55783
G1 X136.073 Y168.947 E16.59477
G1 X135.786 Y169.154 E16.6089
G1 X135.012 Y169.663 E16.64587
G1 X134.157 Y170.123 E16.68462
G1 X133.851 Y170.27 E16.69817
G1 X133.35 Y170.495 E16.72009
G1 X132.077 Y170.939 E16.7739
G1 X131.773 Y171.024 E16.7865
G1 X130.871 Y171.235 E16.82347
G1 X129.972 Y171.365 E16.85973
G1 X129.589 Y171.404 E16.87509
G1 X128.661 Y171.458 E16.91219
G1 X127.759 Y171.47 E16.9482
G1 X107.052 Y171.469 E17.77466
G1 X106.361 Y171.459 E17.80224
G1 X105.756 Y171.433 E17.82641
G1 X105.531 Y171.417 E17.83541
G1 X105.175 Y171.386 E17.84967
G1 X104.258 Y171.258 E17.88663
G1 X103.532 Y171.099 E17.91629
G1 X103.154 Y171.002 E17.93187
G1 X102.268 Y170.733 E17.96882
G1 X101.452 Y170.408 E18.00388
G1 X101.248 Y170.317 E18.01279
G1 X100.842 Y170.126 E18.0307
G1 X100.028 Y169.685 E18.06765
G1 X99.563 Y169.39 E18.08963
G1 X99.271 Y169.194 E18.10367
G1 X98.525 Y168.645 E18.14064
G1 X97.774 Y167.981 E18.18065
G1 X97.526 Y167.74 E18.19445
G1 X96.891 Y167.067 E18.23138
G1 X96.303 Y166.323 E18.26923
G1 X96.096 Y166.036 E18.28335
G1 X95.587 Y165.262 E18.32032
G1 X95.149 Y164.453 E18.35704
G1 X95.025 Y164.198 E18.36836
G1 X94.833 Y163.781 E18.38668
G1 X94.495 Y162.919 E18.42364
G1 X94.311 Y162.327 E18.44838
G1 X94.226 Y162.023 E18.46098
G1 X94.015 Y161.121 E18.49795
G1 X93.885 Y160.216 E18.53444
G1 X93.846 Y159.831 E18.54989
G1 X93.792 Y158.91 E18.58671
G1 X93.78 Y158.009 E18.62267
G1 X93.781 Y126.771 E19.86945
G1 X93.791 Y126.105 E19.89603
G1 X93.817 Y125.506 E19.91996
G1 X93.833 Y125.281 E19.92897
G1 X93.864 Y124.925 E19.94323
G1 X93.992 Y124.008 E19.98018
G1 X94.143 Y123.316 E20.00845
G1 X94.242 Y122.925 E20.02455
G1 X94.459 Y122.18 E20.05552
G1 X95.282 Y119.699 E20.15985
G1 X95.995 Y117.328 E20.25867
G1 X96.667 Y114.843 E20.36141
G1 X97.258 Y112.385 E20.46231
G1 X97.773 Y109.926 E20.56258
G1 X98.22 Y107.459 E20.66265
G1 X98.599 Y104.966 E20.76329
G1 X98.91 Y102.434 E20.86511
G1 X99.143 Y99.962 E20.96421
G1 X99.313 Y97.394 E21.06693
G1 X99.407 Y94.889 E21.16698
G1 X99.432 Y92.756 E21.25212
G1 X99.432 Y77.493 E21.8613
G1 X99.431 Y77.11 E21.87658
G1 X99.443 Y76.292 E21.90924
G1 X99.497 Y75.367 E21.94622
G1 X99.63 Y74.451 E21.98316
G1 X99.841 Y73.55 E22.02009
G1 X100.13 Y72.67 E22.05706
G1 X100.494 Y71.819 E22.094
G1 X100.929 Y71.002 E22.13095
G1 X101.434 Y70.225 E22.16793
G0 F6000 X101.909 Y70.388
G1 F1200 X102.476 Y69.683 E22.20404
G1 X102.921 Y69.208 E22.23002
G1 X103.033 Y69.096 E22.23634
G1 X103.701 Y68.485 E22.27247
G1 X104.42 Y67.936 E22.30858
G1 X105.184 Y67.452 E22.34468
G1 X105.988 Y67.037 E22.38079
G1 X106.826 Y66.695 E22.41691
G1 X107.691 Y66.428 E22.45304
G1 X108.576 Y66.239 E22.48916
G1 X109.474 Y66.128 E22.52528
G1 X109.928 Y66.103 E22.54343
G1 X110.298 Y66.093 E22.5582
G1 X110.833 Y66.087 E22.57955
G1 X124.019 Y66.086 E23.10583
G1 X124.871 Y66.097 E23.13984
G1 X125.774 Y66.15 E23.17594
G1 X126.67 Y66.282 E23.21209
G1 X127.549 Y66.493 E23.24817
G1 X128.407 Y66.781 E23.28429
G1 X129.237 Y67.143 E23.32043
G1 X130.031 Y67.577 E23.35655
G1 X130.783 Y68.08 E23.39266
G1 X131.488 Y68.646 E23.42874
G1 X131.967 Y69.095 E23.45495
G1 X132.079 Y69.207 E23.46127
G1 X132.69 Y69.875 E23.4974
G1 X133.239 Y70.594 E23.53351
G1 X133.723 Y71.358 E23.5696
G1 X134.138 Y72.162 E23.60572
G1 X134.48 Y73 E23.64184
G1 X134.747 Y73.865 E23.67797
G1 X134.936 Y74.75 E23.71409
G1 X135.071 Y76.075 E23.76725
G1 X135.082 Y76.457 E23.7825
G1 X135.089 Y77.067 E23.80685
G1 X135.088 Y92.678 E24.42992
G1 X135.125 Y95.305 E24.53478
G1 X135.234 Y97.869 E24.6372
G1 X135.411 Y100.37 E24.73727
G1 X135.663 Y102.91 E24.83915
G1 X135.983 Y105.411 E24.93978
G1 X136.378 Y107.924 E25.04131
G1 X136.844 Y110.432 E25.14313
G1 X137.373 Y112.891 E25.24352
G1 X137.986 Y115.393 E25.34633
G1 X138.645 Y117.787 E25.44543
G1 X139.718 Y121.227 E25.58926
G1 X140.106 Y122.391 E25.63823
G1 X140.34 Y123.203 E25.67195
G1 X140.392 Y123.416 E25.6807
G1 X140.567 Y124.304 E25.71683
G1 X140.633 Y124.822 E25.73767
G1 X140.682 Y125.31 E25.75724
G1 X140.732 Y126.185 E25.79223
G1 X140.74 Y126.817 E25.81745
G1 X140.739 Y158.191 E27.06966
G1 X140.729 Y158.882 E27.09724
G1 X140.706 Y159.44 E27.11953
G1 X140.691 Y159.657 E27.12821
G1 X140.656 Y160.052 E27.14404
G1 X140.528 Y160.948 E27.18016
G1 X140.396 Y161.549 E27.20472
G1 X140.303 Y161.919 E27.21995
G1 X140.044 Y162.786 E27.25606
G1 X139.717 Y163.61 E27.29144
G1 X139.622 Y163.822 E27.30072
G1 X139.445 Y164.198 E27.3173
G1 X139.013 Y164.993 E27.35342
G1 X138.75 Y165.407 E27.37299
G1 X138.554 Y165.7 E27.38706
G1 X138.018 Y166.429 E27.42317
G1 X137.372 Y167.157 E27.46202
G1 X137.131 Y167.404 E27.47579
G1 X136.471 Y168.023 E27.51191
G1 X135.792 Y168.558 E27.54641
G1 X135.505 Y168.765 E27.56053
G1 X134.749 Y169.262 E27.59664
G1 X133.949 Y169.69 E27.63286
G1 X133.643 Y169.837 E27.64641
G1 X133.164 Y170.053 E27.66738
G1 X131.947 Y170.477 E27.71881
G1 X131.643 Y170.562 E27.73141
G1 X130.762 Y170.767 E27.76751
G1 X129.923 Y170.887 E27.80134
G1 X129.54 Y170.926 E27.81671
G1 X128.654 Y170.978 E27.85213
G1 X127.759 Y170.99 E27.88785
G1 X107.059 Y170.989 E28.71404
G1 X106.368 Y170.979 E28.74162
G1 X105.79 Y170.954 E28.76471
G1 X105.565 Y170.938 E28.77371
G1 X105.221 Y170.908 E28.78749
G1 X104.325 Y170.782 E28.82361
G1 X103.652 Y170.634 E28.85111
G1 X103.274 Y170.537 E28.86669
G1 X102.408 Y170.273 E28.90282
G1 X101.647 Y169.97 E28.93551
G1 X101.443 Y169.879 E28.94443
G1 X101.052 Y169.695 E28.96168
G1 X100.257 Y169.263 E28.99779
G1 X99.83 Y168.991 E29.01799
G1 X99.538 Y168.795 E29.03203
G1 X98.81 Y168.258 E29.06814
G1 X98.109 Y167.637 E29.10551
G1 X97.861 Y167.396 E29.11932
G1 X97.24 Y166.737 E29.15546
G1 X96.692 Y166.042 E29.19078
G1 X96.485 Y165.755 E29.2049
G1 X95.988 Y164.999 E29.24101
G1 X95.581 Y164.243 E29.27528
G1 X95.457 Y163.988 E29.2866
G1 X95.272 Y163.586 E29.30426
G1 X94.943 Y162.744 E29.34034
G1 X94.773 Y162.197 E29.3632
G1 X94.688 Y161.893 E29.3758
G1 X94.483 Y161.012 E29.4119
G1 X94.362 Y160.168 E29.44594
G1 X94.323 Y159.783 E29.46138
G1 X94.272 Y158.903 E29.49656
G1 X94.26 Y158.009 E29.53225
G1 X94.261 Y126.778 E30.77874
G1 X94.271 Y126.112 E30.80533
G1 X94.296 Y125.54 E30.82818
G1 X94.312 Y125.315 E30.83718
G1 X94.342 Y124.971 E30.85096
G1 X94.468 Y124.075 E30.88708
G1 X94.608 Y123.434 E30.91326
G1 X94.707 Y123.043 E30.92936
G1 X94.915 Y122.331 E30.95897
G1 X95.729 Y119.879 E31.06208
G1 X96.471 Y117.408 E31.16506
G1 X97.127 Y114.981 E31.2654
G1 X97.727 Y112.488 E31.36774
G1 X98.239 Y110.044 E31.4674
G1 X98.692 Y107.544 E31.56881
G1 X99.074 Y105.028 E31.67038
G1 X99.385 Y102.5 E31.77204
G1 X99.624 Y99.967 E31.87358
G1 X99.79 Y97.445 E31.97446
G1 X99.887 Y94.873 E32.07719
G1 X99.912 Y92.762 E32.16145
G1 X99.912 Y77.483 E32.77127
G1 X99.911 Y77.117 E32.78587
G1 X99.923 Y76.299 E32.81853
G1 X99.976 Y75.395 E32.85467
G1 X100.109 Y74.5 E32.89078
G1 X100.32 Y73.621 E32.92686
G1 X100.609 Y72.763 E32.963
G1 X100.971 Y71.934 E32.9991
G1 X101.406 Y71.14 E33.03524
G1 X101.909 Y70.388 E33.07134
G1 F2700 E28.07134
;MESH:Motor__Mount.STL
G0 F6000 X117.213 Y120.967
G0 X116.176 Y118.123
G0 X115.518 Y121.752
G0 X115.641 Y122.436
G0 X117.508 Y125.419
;TYPE:WALL-INNER
G1 F2700 E33.07134
G1 F1200 X118.154 Y125.358 E33.09724
G1 X118.768 Y125.191 E33.12264
G1 X119.344 Y124.921 E33.14803
G1 X119.874 Y124.545 E33.17396
G1 X120.319 Y124.096 E33.1992
G1 X120.68 Y123.58 E33.22433
G1 X120.955 Y122.984 E33.25053
G1 X121.115 Y122.371 E33.27581
G1 X121.169 Y121.754 E33.30053
G1 X121.116 Y121.126 E33.32569
G1 X120.947 Y120.493 E33.35184
G1 X120.672 Y119.907 E33.37767
G1 X120.303 Y119.389 E33.40306
G1 X119.857 Y118.939 E33.42834
G1 X119.331 Y118.572 E33.45394
G1 X118.747 Y118.301 E33.47964
G1 X118.132 Y118.14 E33.50501
G1 X117.498 Y118.081 E33.53043
G1 X116.86 Y118.14 E33.556
G1 X116.242 Y118.303 E33.58151
G1 X115.656 Y118.579 E33.60736
G1 X115.139 Y118.947 E33.63269
G1 X114.689 Y119.393 E33.65798
G1 X114.323 Y119.918 E33.68352
G1 X114.05 Y120.503 E33.70928
G1 X113.885 Y121.129 E33.73512
G1 X113.831 Y121.758 E33.76032
G1 X113.892 Y122.404 E33.78622
G1 X114.059 Y123.018 E33.81161
G1 X114.329 Y123.594 E33.837
G1 X114.705 Y124.124 E33.86294
G1 X115.154 Y124.569 E33.88817
G1 X115.67 Y124.93 E33.91331
G1 X116.266 Y125.205 E33.9395
G1 X116.879 Y125.365 E33.96479
G1 X117.508 Y125.419 E33.98999
G0 F6000 X117.506 Y124.937
G1 F1200 X118.068 Y124.884 E34.01252
G1 X118.602 Y124.739 E34.0346
G1 X119.101 Y124.505 E34.0566
G1 X119.562 Y124.178 E34.07916
