;FLAVOR:Marlin
;TIME:2999
;Filament used: 2.40699m
;Layer height: 0.2
;MINX:96.3
;MINY:76.3
;MINZ:0.2
;MAXX:138.7
;MAXY:158.7
;MAXZ:28
;Generated with Cura_SteamEngine 4.13.1
M140 S60
M105
M190 S60
M104 S210
M105
M109 S210
M82 ;absolute extrusion mode
; Ender 3 Custom Start G-code
G92 E0 ; Reset Extruder
G28 ; Home all axes
G1 Z2.0 F3000 ; Move Z Axis up little to prevent scratching of Heat Bed
G1 X0.1 Y20 Z0.3 F5000.0 ; Move to start position
G1 X0.1 Y200.0 Z0.3 F1500.0 E15 ; Draw the first line
G1 X0.4 Y200.0 Z0.3 F5000.0 ; Move to side a little
G1 X0.4 Y20 Z0.3 F1500.0 E30 ; Draw the second line
G92 E0 ; Reset Extruder
G1 Z2.0 F3000 ; Move Z Axis up little to prevent scratching of Heat Bed
G1 X5 Y20 Z0.3 F5000.0 ; Move over to prevent blob squish
G92 E0
G92 E0
G1 F2700 E-5
;LAYER_COUNT:140
;LAYER:0
M107
G0 F6000 X98.929 Y80.954 Z0.2
;TYPE:SKIRT
G1 F2700 E0
G1 F1200 X99.545 Y80.235 E0.03779
G1 X100.4 Y79.413 E0.08513
G1 X100.674 Y79.176 E0.09959
G1 X101.415 Y78.588 E0.13734
G1 X102.204 Y78.064 E0.17514
G1 X103.033 Y77.609 E0.21289
G1 X104.05 Y77.167 E0.25715
G1 X104.355 Y77.052 E0.27015
G1 X105.253 Y76.756 E0.30789
G1 X106.174 Y76.537 E0.34568
G1 X107.181 Y76.389 E0.3863
G1 X107.399 Y76.367 E0.39505
G1 X108.36 Y76.311 E0.43347
G1 X109.208 Y76.3 E0.46731
G1 X115.793 Y76.3 E0.73014
G1 X116.644 Y76.311 E0.7641
G1 X117.589 Y76.365 E0.80188
G1 X118.333 Y76.464 E0.83184
G1 X118.673 Y76.521 E0.8456
G1 X119.599 Y76.717 E0.88338
G1 X120.505 Y76.99 E0.92114
G1 X121.385 Y77.339 E0.95893
G1 X122.161 Y77.722 E0.99347
G1 X122.456 Y77.882 E1.00686
G1 X123.268 Y78.368 E1.04463
G1 X124.036 Y78.921 E1.0824
G1 X124.755 Y79.536 E1.12016
G1 X125.587 Y80.4 E1.16804
G1 X125.824 Y80.674 E1.1825
G1 X126.412 Y81.415 E1.22025
G1 X126.936 Y82.204 E1.25805
G1 X127.415 Y83.082 E1.29797
G1 X127.481 Y83.217 E1.30397
G1 X127.86 Y84.084 E1.34174
G1 X128.205 Y85.118 E1.38524
G1 X128.266 Y85.336 E1.39428
G1 X128.41 Y85.907 E1.41778
G1 X128.687 Y87.15 E1.46861
G1 X128.78 Y87.595 E1.48675
G1 X129.353 Y90.002 E1.58551
G1 X130.007 Y92.438 E1.68618
G1 X130.72 Y94.825 E1.7856
G1 X131.519 Y97.245 E1.88732
G1 X132.364 Y99.582 E1.98651
G1 X133.284 Y101.917 E2.08667
G1 X134.27 Y104.225 E2.18684
G1 X135.33 Y106.526 E2.28796
G1 X136.446 Y108.779 E2.38831
G1 X137.055 Y109.944 E2.44078
G1 X137.385 Y110.568 E2.46895
G1 X137.793 Y111.422 E2.50672
G1 X138.126 Y112.307 E2.54446
G1 X138.384 Y113.218 E2.58225
G1 X138.564 Y114.147 E2.62002
G1 X138.676 Y115.301 E2.6663
G1 X138.683 Y115.455 E2.67245
G1 X138.694 Y115.827 E2.6873
G1 X138.7 Y116.373 E2.7091
G1 X138.699 Y118.589 E2.79754
G1 X138.689 Y119.292 E2.8256
G1 X138.635 Y120.237 E2.86338
G1 X138.502 Y121.174 E2.90115
G1 X138.291 Y122.097 E2.93894
G1 X138.002 Y122.998 E2.97671
G1 X137.638 Y123.871 E3.01446
G1 X137.42 Y124.314 E3.03417
G1 X136.158 Y126.732 E3.14303
G1 X135.053 Y129.005 E3.2439
G1 X134.038 Y131.251 E3.34227
G1 X133.033 Y133.649 E3.44605
G1 X132.166 Y135.906 E3.54255
G1 X131.313 Y138.321 E3.64477
G1 X130.548 Y140.701 E3.74455
G1 X129.849 Y143.102 E3.84435
G1 X129.213 Y145.548 E3.94523
G1 X128.672 Y147.887 E4.04104
G1 X128.453 Y148.897 E4.08229
G1 X128.381 Y149.206 E4.09496
G1 X128.308 Y149.502 E4.10712
G1 X128.043 Y150.41 E4.14488
G1 X127.702 Y151.293 E4.18265
G1 X127.273 Y152.171 E4.22166
G1 X127.112 Y152.467 E4.23511
G1 X126.625 Y153.279 E4.2729
G1 X126.071 Y154.046 E4.31066
G1 X125.455 Y154.765 E4.34845
G1 X124.6 Y155.587 E4.39579
G1 X124.326 Y155.824 E4.41024
G1 X123.585 Y156.412 E4.448
G1 X122.796 Y156.936 E4.4858
G1 X121.967 Y157.391 E4.52355
G1 X120.95 Y157.833 E4.5678
G1 X120.645 Y157.948 E4.58081
G1 X119.747 Y158.244 E4.61855
G1 X118.826 Y158.463 E4.65634
G1 X117.819 Y158.611 E4.69696
G1 X117.601 Y158.633 E4.7057
G1 X116.64 Y158.689 E4.74413
G1 X115.792 Y158.7 E4.77797
G1 X109.044 Y158.699 E5.0473
G1 X108.356 Y158.689 E5.07476
G1 X107.411 Y158.635 E5.11254
G1 X106.667 Y158.536 E5.1425
G1 X106.327 Y158.479 E5.15626
G1 X105.401 Y158.283 E5.19404
G1 X104.495 Y158.01 E5.2318
G1 X103.615 Y157.661 E5.26959
G1 X102.839 Y157.278 E5.30412
G1 X102.544 Y157.118 E5.31752
G1 X101.732 Y156.632 E5.35529
G1 X100.964 Y156.079 E5.39306
G1 X100.245 Y155.464 E5.43082
G1 X99.4 Y154.585 E5.47949
G1 X99.163 Y154.31 E5.49398
G1 X98.576 Y153.567 E5.53177
G1 X98.054 Y152.778 E5.56953
G1 X97.6 Y151.948 E5.60729
G1 X97.171 Y150.961 E5.65024
G1 X97.056 Y150.657 E5.66321
G1 X96.759 Y149.758 E5.701
G1 X96.539 Y148.838 E5.73876
G1 X96.39 Y147.829 E5.77946
G1 X96.368 Y147.613 E5.78813
G1 X96.311 Y146.634 E5.82727
G1 X96.3 Y145.761 E5.86212
G1 X96.301 Y89.041 E8.12593
G1 X96.311 Y88.351 E8.15348
G1 X96.365 Y87.406 E8.19126
G1 X96.465 Y86.656 E8.22145
G1 X96.521 Y86.323 E8.23493
G1 X96.717 Y85.397 E8.27271
G1 X96.991 Y84.491 E8.31049
G1 X97.34 Y83.611 E8.34827
G1 X97.727 Y82.829 E8.3831
G1 X97.888 Y82.533 E8.39654
G1 X98.375 Y81.721 E8.43433
G1 X98.929 Y80.954 E8.4721
G0 F6000 X99.331 Y81.219
G1 F1200 X99.937 Y80.519 E8.50905
G1 X100.714 Y79.776 E8.55196
G1 X100.988 Y79.539 E8.56642
G1 X101.714 Y78.964 E8.60338
G1 X102.486 Y78.454 E8.64031
G1 X103.3 Y78.013 E8.67726
G1 X104.219 Y77.616 E8.71722
G1 X104.524 Y77.501 E8.73023
G1 X105.404 Y77.212 E8.76719
G1 X106.305 Y77 E8.80414
G1 X107.23 Y76.866 E8.84144
G1 X107.448 Y76.844 E8.85019
G1 X108.367 Y76.791 E8.88693
G1 X109.208 Y76.78 E8.9205
G1 X115.793 Y76.78 E9.18332
G1 X116.637 Y76.791 E9.21701
G1 X117.561 Y76.845 E9.25395
G1 X118.253 Y76.938 E9.28182
G1 X118.593 Y76.995 E9.29557
G1 X119.499 Y77.187 E9.33254
G1 X120.385 Y77.457 E9.36951
G1 X121.244 Y77.802 E9.40645
G1 X121.932 Y78.144 E9.43712
G1 X122.227 Y78.304 E9.45051
G1 X123.021 Y78.78 E9.48746
G1 X123.771 Y79.323 E9.52442
G1 X124.471 Y79.928 E9.56134
G1 X125.224 Y80.714 E9.60479
G1 X125.461 Y80.988 E9.61925
G1 X126.036 Y81.714 E9.65621
G1 X126.546 Y82.486 E9.69314
G1 X126.984 Y83.293 E9.72979
G1 X127.05 Y83.428 E9.73578
G1 X127.42 Y84.276 E9.77271
G1 X127.742 Y85.247 E9.81354
G1 X127.803 Y85.465 E9.82258
G1 X127.941 Y86.012 E9.84509
G1 X128.217 Y87.249 E9.89568
G1 X128.309 Y87.689 E9.91362
G1 X128.882 Y90.096 E10.01237
G1 X129.552 Y92.591 E10.11548
G1 X130.266 Y94.982 E10.21507
G1 X131.056 Y97.376 E10.31569
G1 X131.914 Y99.749 E10.4164
G1 X132.851 Y102.126 E10.51838
G1 X133.827 Y104.412 E10.61759
G1 X134.893 Y106.725 E10.71924
G1 X136.03 Y109.02 E10.82146
G1 X136.604 Y110.118 E10.87091
G1 X136.961 Y110.792 E10.90135
G1 X137.359 Y111.628 E10.93831
G1 X137.683 Y112.496 E10.97529
G1 X137.931 Y113.388 E11.01224
G1 X138.101 Y114.298 E11.04919
G1 X138.197 Y115.323 E11.09028
G1 X138.204 Y115.477 E11.09643
G1 X138.214 Y115.833 E11.11064
G1 X138.22 Y116.373 E11.1322
G1 X138.219 Y118.582 E11.22036
G1 X138.209 Y119.285 E11.24842
G1 X138.156 Y120.21 E11.2854
G1 X138.023 Y121.126 E11.32235
G1 X137.812 Y122.028 E11.35932
G1 X137.524 Y122.907 E11.39624
G1 X136.994 Y124.092 E11.44805
G1 X135.73 Y126.515 E11.55712
G1 X134.633 Y128.77 E11.65721
G1 X133.582 Y131.096 E11.75908
G1 X132.595 Y133.452 E11.86103
G1 X131.709 Y135.758 E11.95963
G1 X130.862 Y138.155 E12.0611
G1 X130.088 Y140.561 E12.16197
G1 X129.392 Y142.956 E12.26152
G1 X128.749 Y145.427 E12.36342
G1 X128.191 Y147.843 E12.46239
G1 X127.984 Y148.796 E12.50131
G1 X127.915 Y149.091 E12.5134
G1 X127.842 Y149.387 E12.52557
G1 X127.582 Y150.275 E12.5625
G1 X127.246 Y151.138 E12.59947
G1 X126.851 Y151.942 E12.63522
G1 X126.69 Y152.238 E12.64867
G1 X126.213 Y153.032 E12.68564
G1 X125.669 Y153.781 E12.72258
G1 X125.063 Y154.481 E12.75954
G1 X124.286 Y155.224 E12.80245
G1 X124.012 Y155.461 E12.8169
G1 X123.286 Y156.036 E12.85387
G1 X122.514 Y156.546 E12.8908
G1 X121.7 Y156.987 E12.92775
G1 X120.781 Y157.384 E12.9677
G1 X120.476 Y157.499 E12.98071
G1 X119.596 Y157.788 E13.01768
G1 X118.695 Y158 E13.05462
G1 X117.77 Y158.134 E13.09193
G1 X117.552 Y158.156 E13.10067
G1 X116.633 Y158.209 E13.13741
G1 X115.792 Y158.22 E13.17098
G1 X109.051 Y158.219 E13.44003
G1 X108.363 Y158.209 E13.46749
G1 X107.439 Y158.155 E13.50443
G1 X106.747 Y158.062 E13.5323
G1 X106.407 Y158.005 E13.54606
G1 X105.501 Y157.813 E13.58302
G1 X104.615 Y157.543 E13.61999
G1 X103.756 Y157.198 E13.65694
G1 X103.068 Y156.856 E13.6876
G1 X102.773 Y156.696 E13.701
G1 X101.979 Y156.22 E13.73795
G1 X101.229 Y155.677 E13.7749
G1 X100.529 Y155.072 E13.81183
G1 X99.764 Y154.271 E13.85604
G1 X99.527 Y153.996 E13.87053
G1 X98.953 Y153.27 E13.90747
G1 X98.444 Y152.496 E13.94444
G1 X98.004 Y151.681 E13.9814
G1 X97.62 Y150.791 E14.02009
G1 X97.505 Y150.487 E14.03306
G1 X97.216 Y149.608 E14.06999
G1 X97.003 Y148.707 E14.10695
G1 X96.867 Y147.78 E14.14434
G1 X96.845 Y147.564 E14.15301
G1 X96.791 Y146.627 E14.19047
G1 X96.78 Y145.761 E14.22503
G1 X96.781 Y89.048 E16.48857
G1 X96.791 Y88.358 E16.51611
G1 X96.845 Y87.433 E16.5531
G1 X96.938 Y86.735 E16.5812
G1 X96.994 Y86.402 E16.59468
G1 X97.187 Y85.497 E16.63161
G1 X97.458 Y84.611 E16.66859
G1 X97.803 Y83.752 E16.70554
G1 X98.149 Y83.058 E16.73649
G1 X98.31 Y82.762 E16.74994
G1 X98.787 Y81.968 E16.7869
G1 X99.331 Y81.219 E16.82385
G0 F6000 X99.732 Y81.485
G1 F1200 X100.328 Y80.805 E16.85994
G1 X101.028 Y80.139 E16.8985
G1 X101.302 Y79.902 E16.91296
G1 X102.012 Y79.341 E16.94908
G1 X102.769 Y78.845 E16.9852
G1 X103.566 Y78.417 E17.02131
G1 X104.388 Y78.065 E17.057
G1 X104.693 Y77.95 E17.07001
G1 X105.553 Y77.669 E17.10612
G1 X106.435 Y77.464 E17.14226
G1 X107.278 Y77.344 E17.17624
G1 X107.496 Y77.322 E17.18499
G1 X108.374 Y77.271 E17.22009
G1 X109.208 Y77.26 E17.25338
G1 X115.793 Y77.26 E17.5162
G1 X116.63 Y77.271 E17.54961
G1 X117.533 Y77.324 E17.58571
G1 X118.174 Y77.411 E17.61153
G1 X118.514 Y77.468 E17.62529
G1 X119.399 Y77.657 E17.66141
G1 X120.264 Y77.923 E17.69753
G1 X121.102 Y78.265 E17.73365
G1 X121.703 Y78.566 E17.76048
G1 X121.998 Y78.726 E17.77388
G1 X122.774 Y79.192 E17.81
G1 X123.505 Y79.725 E17.84611
G1 X124.187 Y80.32 E17.88223
G1 X124.861 Y81.028 E17.92125
G1 X125.098 Y81.302 E17.93571
G1 X125.659 Y82.012 E17.97182
G1 X126.155 Y82.769 E18.00795
G1 X126.552 Y83.503 E18.04125
G1 X126.618 Y83.638 E18.04725
G1 X126.98 Y84.468 E18.08339
G1 X127.28 Y85.377 E18.1216
G1 X127.341 Y85.595 E18.13063
G1 X127.473 Y86.117 E18.15212
G1 X127.747 Y87.347 E18.20242
G1 X127.833 Y87.756 E18.2191
G1 X128.43 Y90.265 E18.32203
G1 X129.087 Y92.712 E18.42316
G1 X129.806 Y95.118 E18.52338
G1 X130.597 Y97.516 E18.62416
G1 X131.476 Y99.946 E18.7273
G1 X132.399 Y102.289 E18.82781
G1 X133.393 Y104.617 E18.92884
G1 X134.456 Y106.925 E19.03026
G1 X135.613 Y109.258 E19.13419
G1 X136.18 Y110.343 E19.18306
G1 X136.537 Y111.017 E19.2135
G1 X136.925 Y111.835 E19.24963
G1 X137.239 Y112.683 E19.28572
G1 X137.477 Y113.556 E19.32184
G1 X137.637 Y114.447 E19.35797
G1 X137.717 Y115.345 E19.39395
G1 X137.724 Y115.499 E19.4001
G1 X137.734 Y115.839 E19.41368
G1 X137.74 Y116.373 E19.43499
G1 X137.739 Y118.576 E19.52292
G1 X137.729 Y119.279 E19.55098
G1 X137.676 Y120.182 E19.58708
G1 X137.544 Y121.077 E19.62319
G1 X137.333 Y121.957 E19.65931
G1 X137.045 Y122.815 E19.69543
G1 X136.569 Y123.87 E19.74163
G1 X135.288 Y126.326 E19.85218
G1 X134.193 Y128.577 E19.95209
G1 X133.15 Y130.884 E20.05314
G1 X132.152 Y133.267 E20.15626
G1 X131.251 Y135.611 E20.25649
G1 X130.411 Y137.99 E20.35718
G1 X129.639 Y140.389 E20.45777
G1 X128.918 Y142.87 E20.56089
G1 X128.284 Y145.305 E20.66131
G1 X127.723 Y147.732 E20.76073
G1 X127.514 Y148.694 E20.80002
G1 X127.449 Y148.976 E20.81157
G1 X127.376 Y149.272 E20.82374
G1 X127.121 Y150.14 E20.85985
G1 X126.79 Y150.982 E20.89596
G1 X126.429 Y151.713 E20.9285
G1 X126.268 Y152.009 E20.94195
G1 X125.801 Y152.784 E20.97806
G1 X125.268 Y153.515 E21.01417
G1 X124.672 Y154.195 E21.05026
G1 X123.972 Y154.861 E21.08882
G1 X123.698 Y155.098 E21.10328
G1 X122.988 Y155.659 E21.1394
G1 X122.231 Y156.155 E21.17552
G1 X121.434 Y156.583 E21.21162
G1 X120.612 Y156.935 E21.24731
G1 X120.307 Y157.05 E21.26032
G1 X119.447 Y157.331 E21.29643
G1 X118.565 Y157.536 E21.33258
G1 X117.722 Y157.656 E21.36656
G1 X117.504 Y157.678 E21.37531
G1 X116.626 Y157.729 E21.41041
G1 X115.792 Y157.74 E21.4437
G1 X109.058 Y157.739 E21.71247
G1 X108.37 Y157.729 E21.73993
G1 X107.467 Y157.676 E21.77603
G1 X106.826 Y157.589 E21.80185
G1 X106.486 Y157.532 E21.81561
G1 X105.601 Y157.343 E21.85173
G1 X104.736 Y157.077 E21.88785
G1 X103.898 Y156.735 E21.92397
G1 X103.297 Y156.434 E21.9508
G1 X103.002 Y156.274 E21.96419
G1 X102.226 Y155.808 E22.00032
G1 X101.495 Y155.275 E22.03643
G1 X100.813 Y154.68 E22.07255
G1 X100.127 Y153.958 E22.1123
G1 X99.89 Y153.683 E22.12679
G1 X99.33 Y152.972 E22.16291
G1 X98.835 Y152.215 E22.19901
G1 X98.409 Y151.416 E22.23515
G1 X98.069 Y150.621 E22.26966
G1 X97.954 Y150.317 E22.28263
G1 X97.672 Y149.457 E22.31876
G1 X97.466 Y148.576 E22.35487
G1 X97.345 Y147.732 E22.3889
G1 X97.323 Y147.516 E22.39756
G1 X97.271 Y146.621 E22.43335
G1 X97.26 Y145.761 E22.46767
G1 X97.261 Y89.055 E24.73093
G1 X97.271 Y88.365 E24.75847
G1 X97.324 Y87.461 E24.79462
G1 X97.412 Y86.815 E24.82064
G1 X97.468 Y86.482 E24.83412
G1 X97.657 Y85.597 E24.87023
G1 X97.924 Y84.732 E24.90637
G1 X98.266 Y83.895 E24.94245
G1 X98.571 Y83.287 E24.9696
G1 X98.732 Y82.991 E24.98305
G1 X99.199 Y82.216 E25.01916
G1 X99.732 Y81.485 E25.05527
G1 F2700 E20.05527
G0 F6000 X117.148 Y86.966
G0 X117.632 Y87.278
G0 X117.983 Y87.746
G0 X118.112 Y88.138
G0 X119.98 Y117.374
G1 F2700 E25.05527
G1 F1200 X125.82 Y117.374 E25.28836
G1 X125.82 Y117.625 E25.29838
G1 X119.98 Y117.626 E25.53146
G1 X119.98 Y117.374 E25.54152
G0 F6000 X119.5 Y116.894
G1 F1200 X126.3 Y116.894 E25.81292
G1 X126.3 Y118.105 E25.86126
G1 X119.5 Y118.106 E26.13266
G1 X119.5 Y116.894 E26.18103
G0 F6000 X119.02 Y116.414
G1 F1200 X126.78 Y116.414 E26.49075
G1 X126.78 Y118.585 E26.5774
G1 X119.02 Y118.586 E26.88712
G1 X119.02 Y116.414 E26.97381
G0 F6000 X118.54 Y115.934
G1 F1200 X127.26 Y115.934 E27.32184
G1 X127.26 Y119.037 E27.44569
G1 X127.232 Y119.065 E27.44727
G1 X118.54 Y119.066 E27.79419
G1 X118.54 Y115.934 E27.91919
G1 F2700 E22.91919
;MESH:Roller__Holder.STL
G0 F6000 X117.04 Y115.934
G0 X115.145 Y97.468
G0 X112.506 Y97.857
;TYPE:WALL-INNER
G1 F2700 E27.91919
G1 F1200 X113.068 Y97.804 E27.94172
G1 X113.602 Y97.659 E27.96381
G1 X114.101 Y97.425 E27.98581
G1 X114.562 Y97.098 E28.00836
G1 X114.949 Y96.707 E28.03032
G1 X115.262 Y96.26 E28.0521
G1 X115.501 Y95.742 E28.07487
G1 X115.64 Y95.21 E28.09682
G1 X115.687 Y94.664 E28.11869
G1 X115.634 Y94.102 E28.14122
G1 X115.489 Y93.568 E28.1633
G1 X115.255 Y93.069 E28.1853
G1 X114.928 Y92.608 E28.20786
G1 X114.537 Y92.221 E28.22982
G1 X114.09 Y91.908 E28.2516
G1 X113.573 Y91.67 E28.27431
G1 X113.041 Y91.53 E28.29627
G1 X112.494 Y91.483 E28.31818
G1 X111.931 Y91.536 E28.34075
G1 X111.398 Y91.682 E28.36281
G1 X110.903 Y91.912 E28.38459
G1 X110.438 Y92.242 E28.40735
G1 X110.051 Y92.633 E28.42931
G1 X109.738 Y93.08 E28.45109
G1 X109.499 Y93.598 E28.47386
G1 X109.36 Y94.131 E28.49584
G1 X109.313 Y94.675 E28.51763
G1 X109.366 Y95.24 E28.54028
G1 X109.511 Y95.772 E28.56229
G1 X109.745 Y96.271 E28.58429
G1 X110.072 Y96.732 E28.60685
G1 X110.463 Y97.119 E28.6288
G1 X110.91 Y97.432 E28.65058
G1 X111.428 Y97.671 E28.67335
G1 X111.961 Y97.81 E28.69534
G1 X112.506 Y97.857 E28.71717
G0 F6000 X112.504 Y97.375
G1 F1200 X112.982 Y97.33 E28.73633
G1 X113.436 Y97.207 E28.75511
G1 X113.858 Y97.009 E28.77371
G1 X114.25 Y96.731 E28.79289
G1 X114.579 Y96.398 E28.81157
G1 X114.844 Y96.02 E28.83
G1 X115.047 Y95.58 E28.84934
G1 X115.165 Y95.128 E28.86798
G1 X115.205 Y94.666 E28.88649
G1 X115.16 Y94.188 E28.90566
G1 X115.037 Y93.734 E28.92443
G1 X114.839 Y93.312 E28.94303
G1 X114.561 Y92.92 E28.96221
G1 X114.228 Y92.591 E28.9809
G1 X113.85 Y92.326 E28.99932
G1 X113.41 Y92.124 E29.01865
G1 X112.959 Y92.005 E29.03726
G1 X112.496 Y91.965 E29.05581
G1 X112.017 Y92.01 E29.07501
G1 X111.564 Y92.134 E29.09376
G1 X111.145 Y92.329 E29.1122
G1 X110.75 Y92.609 E29.13153
G1 X110.421 Y92.942 E29.15021
G1 X110.156 Y93.32 E29.16864
G1 X109.953 Y93.76 E29.18798
G1 X109.835 Y94.213 E29.20666
G1 X109.795 Y94.673 E29.22509
G1 X109.84 Y95.154 E29.24437
G1 X109.963 Y95.606 E29.26307
G1 X110.161 Y96.028 E29.28167
G1 X110.439 Y96.42 E29.30085
G1 X110.772 Y96.749 E29.31954
